def draw_face():
  set_tcp(p[0.0393,0.0000,-0.1081,0.0000,0.3491,0.0000])

  movej([1.0470,-1.5700,1.5700,-1.5700,-1.5700,0.0000], a=0.97, v=1.1)

  movej([1.0470,-1.5700,1.5700,-1.5700,-1.5700,-1.5708], a=0.97, v=1.1)
  movej([0.0890,-1.5628,2.0749,-1.7351,-1.5404,-3.0580], a=0.97, v=1.1)
  movej([0.0890,-1.5628,2.0749,-1.7351,-1.5404,-3.0580], a=0.5, v=0.3, r=0.002)
  movej([0.0890,-1.5518,2.0889,-1.7601,-1.5404,-3.0580], a=0.5, v=0.3, r=0.002)
  movej([0.0890,-1.5161,2.1282,-1.8351,-1.5404,-3.0580], a=0.5, v=0.3, r=0.002)
  movej([0.0890,-1.4526,2.1811,-1.9515,-1.5404,-3.0580], a=0.5, v=0.3, r=0.002)
  movej([0.0890,-1.4012,2.2132,-2.0349,-1.5404,-3.0580], a=0.5, v=0.3, r=0.002)
  movej([0.0884,-1.3796,2.2259,-2.0693,-1.5406,-3.0585], a=0.5, v=0.3, r=0.002)
  movej([0.0741,-1.3876,2.2388,-2.0739,-1.5455,-3.0719], a=0.5, v=0.3, r=0.002)
  movej([0.0592,-1.3895,2.2412,-2.0740,-1.5506,-3.0860], a=0.5, v=0.3, r=0.002)
  movej([0.0696,-1.3826,2.2322,-2.0721,-1.5470,-3.0762], a=0.5, v=0.3, r=0.002)
  movej([0.0872,-1.3742,2.2212,-2.0700,-1.5410,-3.0597], a=0.5, v=0.3, r=0.002)
  movej([0.0889,-1.3766,2.2246,-2.0709,-1.5404,-3.0581], a=0.5, v=0.3)
  movej([0.0889,-1.5618,2.0739,-1.7351,-1.5404,-3.0581], a=0.97, v=1.1)
  movej([-0.0352,-1.5214,2.0315,-1.7320,-1.5828,-3.1747], a=0.97, v=1.1)
  movej([-0.0352,-1.5214,2.0315,-1.7320,-1.5828,-3.1747], a=0.5, v=0.3, r=0.002)
  movej([-0.0352,-1.5104,2.0455,-1.7570,-1.5828,-3.1747], a=0.5, v=0.3, r=0.002)
  movej([-0.0352,-1.4747,2.0848,-1.8320,-1.5828,-3.1747], a=0.5, v=0.3, r=0.002)
  movej([-0.0352,-1.4124,2.1367,-1.9462,-1.5828,-3.1747], a=0.5, v=0.3, r=0.002)
  movej([-0.0352,-1.3640,2.1670,-2.0249,-1.5828,-3.1747], a=0.5, v=0.3, r=0.002)
  movej([-0.0356,-1.3467,2.1813,-2.0566,-1.5830,-3.1750], a=0.5, v=0.3, r=0.002)
  movej([-0.0380,-1.3621,2.2044,-2.0643,-1.5838,-3.1773], a=0.5, v=0.3, r=0.002)
  movej([-0.0369,-1.3510,2.1893,-2.0602,-1.5834,-3.1763], a=0.5, v=0.3, r=0.002)
  movej([-0.0361,-1.3440,2.1796,-2.0576,-1.5831,-3.1755], a=0.5, v=0.3)
  movej([-0.0361,-1.5227,2.0328,-1.7321,-1.5831,-3.1755], a=0.97, v=1.1)
  movej([-0.0022,-1.4659,1.9702,-1.7261,-1.5715,-3.1436], a=0.97, v=1.1)
  movej([-0.0022,-1.4659,1.9702,-1.7261,-1.5715,-3.1436], a=0.5, v=0.3, r=0.002)
  movej([-0.0022,-1.4549,1.9843,-1.7511,-1.5715,-3.1436], a=0.5, v=0.3, r=0.002)
  movej([-0.0022,-1.4194,2.0237,-1.8261,-1.5715,-3.1436], a=0.5, v=0.3, r=0.002)
  movej([-0.0022,-1.3585,2.0745,-1.9377,-1.5715,-3.1436], a=0.5, v=0.3, r=0.002)
  movej([-0.0022,-1.3134,2.1027,-2.0110,-1.5715,-3.1436], a=0.5, v=0.3, r=0.002)
  movej([-0.0063,-1.3010,2.1184,-2.0392,-1.5730,-3.1475], a=0.5, v=0.3, r=0.002)
  movej([-0.0273,-1.3265,2.1551,-2.0505,-1.5801,-3.1673], a=0.5, v=0.3, r=0.002)
  movej([-0.0320,-1.3352,2.1673,-2.0541,-1.5818,-3.1717], a=0.5, v=0.3, r=0.002)
  movej([-0.0189,-1.3136,2.1369,-2.0450,-1.5773,-3.1594], a=0.5, v=0.3, r=0.002)
  movej([-0.0239,-1.3057,2.1256,-2.0417,-1.5790,-3.1640], a=0.5, v=0.3, r=0.002)
  movej([-0.0434,-1.3130,2.1361,-2.0452,-1.5856,-3.1824], a=0.5, v=0.3, r=0.002)
  movej([-0.0469,-1.3089,2.1302,-2.0435,-1.5868,-3.1857], a=0.5, v=0.3, r=0.002)
  movej([-0.0373,-1.2971,2.1133,-2.0381,-1.5835,-3.1766], a=0.5, v=0.3, r=0.002)
  movej([-0.0552,-1.3020,2.1204,-2.0407,-1.5897,-3.1935], a=0.5, v=0.3, r=0.002)
  movej([-0.0967,-1.3335,2.1658,-2.0555,-1.6038,-3.2325], a=0.5, v=0.3, r=0.002)
  movej([-0.1338,-1.3505,2.1901,-2.0642,-1.6164,-3.2674], a=0.5, v=0.3, r=0.002)
  movej([-0.0895,-1.3273,2.1570,-2.0527,-1.6014,-3.2257], a=0.5, v=0.3, r=0.002)
  movej([-0.0507,-1.2981,2.1148,-2.0388,-1.5881,-3.1892], a=0.5, v=0.3, r=0.002)
  movej([-0.0307,-1.3007,2.1183,-2.0395,-1.5813,-3.1705], a=0.5, v=0.3, r=0.002)
  movej([-0.0118,-1.3003,2.1178,-2.0392,-1.5748,-3.1526], a=0.5, v=0.3, r=0.002)
  movej([-0.0030,-1.2966,2.1123,-2.0375,-1.5718,-3.1444], a=0.5, v=0.3)
  movej([-0.0030,-1.4662,1.9706,-1.7262,-1.5718,-3.1444], a=0.97, v=1.1)
  movej([0.0255,-1.4743,1.9798,-1.7274,-1.5621,-3.1176], a=0.97, v=1.1)
  movej([0.0255,-1.4743,1.9798,-1.7274,-1.5621,-3.1176], a=0.5, v=0.3, r=0.002)
  movej([0.0255,-1.4633,1.9939,-1.7524,-1.5621,-3.1176], a=0.5, v=0.3, r=0.002)
  movej([0.0255,-1.4277,2.0333,-1.8274,-1.5621,-3.1176], a=0.5, v=0.3, r=0.002)
  movej([0.0255,-1.3665,2.0842,-1.9395,-1.5621,-3.1176], a=0.5, v=0.3, r=0.002)
  movej([0.0255,-1.3208,2.1128,-2.0139,-1.5621,-3.1176], a=0.5, v=0.3, r=0.002)
  movej([0.0222,-1.3042,2.1228,-2.0405,-1.5632,-3.1208], a=0.5, v=0.3, r=0.002)
  movej([0.0247,-1.3037,2.1226,-2.0408,-1.5624,-3.1184], a=0.5, v=0.3)
  movej([0.0247,-1.4747,1.9803,-1.7274,-1.5624,-3.1184], a=0.97, v=1.1)
  movej([0.0297,-1.5018,2.0104,-1.7304,-1.5606,-3.1137], a=0.97, v=1.1)
  movej([0.0297,-1.5018,2.0104,-1.7304,-1.5606,-3.1137], a=0.5, v=0.3, r=0.002)
  movej([0.0297,-1.4909,2.0244,-1.7554,-1.5606,-3.1137], a=0.5, v=0.3, r=0.002)
  movej([0.0297,-1.4552,2.0637,-1.8304,-1.5606,-3.1137], a=0.5, v=0.3, r=0.002)
  movej([0.0297,-1.3934,2.1151,-1.9436,-1.5606,-3.1137], a=0.5, v=0.3, r=0.002)
  movej([0.0297,-1.3465,2.1445,-2.0199,-1.5606,-3.1137], a=0.5, v=0.3, r=0.002)
  movej([0.0288,-1.3255,2.1516,-2.0480,-1.5610,-3.1145], a=0.5, v=0.3, r=0.002)
  movej([0.0293,-1.3289,2.1585,-2.0515,-1.5608,-3.1140], a=0.5, v=0.3, r=0.002)
  movej([0.0281,-1.3431,2.1783,-2.0571,-1.5612,-3.1152], a=0.5, v=0.3, r=0.002)
  movej([0.0298,-1.3274,2.1564,-2.0509,-1.5606,-3.1136], a=0.5, v=0.3)
  movej([0.0298,-1.5029,2.0115,-1.7305,-1.5606,-3.1136], a=0.97, v=1.1)
  movej([0.0582,-1.4804,1.9868,-1.7287,-1.5509,-3.0869], a=0.97, v=1.1)
  movej([0.0582,-1.4804,1.9868,-1.7287,-1.5509,-3.0869], a=0.5, v=0.3, r=0.002)
  movej([0.0582,-1.4694,2.0009,-1.7537,-1.5509,-3.0869], a=0.5, v=0.3, r=0.002)
  movej([0.0582,-1.4338,2.0403,-1.8287,-1.5509,-3.0869], a=0.5, v=0.3, r=0.002)
  movej([0.0582,-1.3723,2.0914,-1.9413,-1.5509,-3.0869], a=0.5, v=0.3, r=0.002)
  movej([0.0582,-1.3261,2.1203,-2.0165,-1.5509,-3.0869], a=0.5, v=0.3, r=0.002)
  movej([0.0559,-1.3090,2.1300,-2.0432,-1.5517,-3.0891], a=0.5, v=0.3, r=0.002)
  movej([0.0483,-1.3181,2.1434,-2.0474,-1.5543,-3.0962], a=0.5, v=0.3, r=0.002)
  movej([0.0504,-1.3110,2.1333,-2.0445,-1.5536,-3.0943], a=0.5, v=0.3, r=0.002)
  movej([0.0574,-1.3080,2.1292,-2.0434,-1.5512,-3.0877], a=0.5, v=0.3)
  movej([0.0574,-1.4799,1.9863,-1.7287,-1.5512,-3.0877], a=0.97, v=1.1)
  movej([0.0647,-1.4243,1.9222,-1.7203,-1.5487,-3.0808], a=0.97, v=1.1)
  movej([0.0647,-1.4243,1.9222,-1.7203,-1.5487,-3.0808], a=0.5, v=0.3, r=0.002)
  movej([0.0647,-1.4134,1.9363,-1.7453,-1.5487,-3.0808], a=0.5, v=0.3, r=0.002)
  movej([0.0647,-1.3780,1.9759,-1.8203,-1.5487,-3.0808], a=0.5, v=0.3, r=0.002)
  movej([0.0647,-1.3182,2.0259,-1.9301,-1.5487,-3.0808], a=0.5, v=0.3, r=0.002)
  movej([0.0647,-1.2752,2.0528,-2.0000,-1.5487,-3.0808], a=0.5, v=0.3, r=0.002)
  movej([0.0594,-1.2643,2.0651,-2.0231,-1.5505,-3.0858], a=0.5, v=0.3, r=0.002)
  movej([0.0443,-1.2704,2.0740,-2.0257,-1.5557,-3.1000], a=0.5, v=0.3, r=0.002)
  movej([0.0569,-1.2576,2.0551,-2.0197,-1.5514,-3.0882], a=0.5, v=0.3, r=0.002)
  movej([0.0646,-1.2604,2.0592,-2.0213,-1.5487,-3.0808], a=0.5, v=0.3)
  movej([0.0647,-1.4233,1.9210,-1.7201,-1.5487,-3.0808], a=0.97, v=1.1)
  movej([0.0921,-1.4136,1.9097,-1.7192,-1.5393,-3.0551], a=0.97, v=1.1)
  movej([0.0921,-1.4136,1.9097,-1.7192,-1.5393,-3.0551], a=0.5, v=0.3, r=0.002)
  movej([0.0921,-1.4027,1.9238,-1.7442,-1.5393,-3.0551], a=0.5, v=0.3, r=0.002)
  movej([0.0921,-1.3673,1.9634,-1.8192,-1.5393,-3.0551], a=0.5, v=0.3, r=0.002)
  movej([0.0921,-1.3079,2.0131,-1.9284,-1.5393,-3.0551], a=0.5, v=0.3, r=0.002)
  movej([0.0921,-1.2656,2.0396,-1.9971,-1.5393,-3.0551], a=0.5, v=0.3, r=0.002)
  movej([0.0915,-1.2504,2.0445,-2.0172,-1.5395,-3.0556], a=0.5, v=0.3, r=0.002)
  movej([0.0866,-1.2535,2.0492,-2.0186,-1.5412,-3.0602], a=0.5, v=0.3, r=0.002)
  movej([0.0921,-1.2527,2.0481,-2.0185,-1.5393,-3.0550], a=0.5, v=0.3)
  movej([0.0921,-1.4144,1.9106,-1.7193,-1.5393,-3.0550], a=0.97, v=1.1)
  movej([0.0940,-1.4488,1.9512,-1.7256,-1.5387,-3.0532], a=0.97, v=1.1)
  movej([0.0940,-1.4488,1.9512,-1.7256,-1.5387,-3.0532], a=0.5, v=0.3, r=0.002)
  movej([0.0940,-1.4378,1.9653,-1.7506,-1.5387,-3.0532], a=0.5, v=0.3, r=0.002)
  movej([0.0940,-1.4023,2.0048,-1.8256,-1.5387,-3.0532], a=0.5, v=0.3, r=0.002)
  movej([0.0940,-1.3416,2.0553,-1.9368,-1.5387,-3.0532], a=0.5, v=0.3, r=0.002)
  movej([0.0940,-1.2971,2.0831,-2.0092,-1.5387,-3.0532], a=0.5, v=0.3, r=0.002)
  movej([0.0923,-1.2813,2.0907,-2.0325,-1.5393,-3.0549], a=0.5, v=0.3, r=0.002)
  movej([0.0819,-1.2917,2.1058,-2.0369,-1.5428,-3.0646], a=0.5, v=0.3, r=0.002)
  movej([0.0729,-1.2975,2.1141,-2.0392,-1.5459,-3.0731], a=0.5, v=0.3, r=0.002)
  movej([0.0789,-1.2895,2.1025,-2.0357,-1.5438,-3.0674], a=0.5, v=0.3, r=0.002)
  movej([0.0914,-1.2804,2.0893,-2.0320,-1.5396,-3.0557], a=0.5, v=0.3, r=0.002)
  movej([0.0932,-1.2821,2.0919,-2.0329,-1.5390,-3.0540], a=0.5, v=0.3)
  movej([0.0932,-1.4492,1.9517,-1.7257,-1.5390,-3.0540], a=0.97, v=1.1)
  movej([0.1603,-1.4320,1.9328,-1.7266,-1.5162,-2.9908], a=0.97, v=1.1)
  movej([0.1603,-1.4320,1.9328,-1.7266,-1.5162,-2.9908], a=0.5, v=0.3, r=0.002)
  movej([0.1603,-1.4211,1.9469,-1.7516,-1.5162,-2.9908], a=0.5, v=0.3, r=0.002)
  movej([0.1603,-1.3855,1.9863,-1.8266,-1.5162,-2.9908], a=0.5, v=0.3, r=0.002)
  movej([0.1603,-1.3257,2.0361,-1.9363,-1.5162,-2.9908], a=0.5, v=0.3, r=0.002)
  movej([0.1603,-1.2828,2.0629,-2.0059,-1.5162,-2.9908], a=0.5, v=0.3, r=0.002)
  movej([0.1592,-1.2644,2.0665,-2.0278,-1.5166,-2.9919], a=0.5, v=0.3, r=0.002)
  movej([0.1520,-1.2482,2.0425,-2.0198,-1.5190,-2.9986], a=0.5, v=0.3, r=0.002)
  movej([0.1251,-1.2452,2.0374,-2.0164,-1.5281,-3.0239], a=0.5, v=0.3, r=0.002)
  movej([0.1201,-1.2479,2.0413,-2.0175,-1.5298,-3.0287], a=0.5, v=0.3, r=0.002)
  movej([0.1477,-1.2473,2.0410,-2.0189,-1.5204,-3.0027], a=0.5, v=0.3, r=0.002)
  movej([0.1598,-1.2679,2.0723,-2.0302,-1.5163,-2.9913], a=0.5, v=0.3, r=0.002)
  movej([0.1613,-1.2679,2.0725,-2.0304,-1.5159,-2.9899], a=0.5, v=0.3, r=0.002)
  movej([0.1613,-1.2674,2.0717,-2.0302,-1.5158,-2.9899], a=0.5, v=0.3)
  movej([0.1613,-1.4322,1.9331,-1.7268,-1.5158,-2.9899], a=0.97, v=1.1)
  movej([0.1703,-1.3983,1.8926,-1.7206,-1.5128,-2.9814], a=0.97, v=1.1)
  movej([0.1703,-1.3983,1.8926,-1.7206,-1.5128,-2.9814], a=0.5, v=0.3, r=0.002)
  movej([0.1703,-1.3875,1.9067,-1.7456,-1.5128,-2.9814], a=0.5, v=0.3, r=0.002)
  movej([0.1703,-1.3521,1.9463,-1.8206,-1.5128,-2.9814], a=0.5, v=0.3, r=0.002)
  movej([0.1703,-1.2932,1.9955,-1.9286,-1.5128,-2.9814], a=0.5, v=0.3, r=0.002)
  movej([0.1703,-1.2523,2.0212,-1.9953,-1.5128,-2.9814], a=0.5, v=0.3, r=0.002)
  movej([0.1641,-1.2369,2.0257,-2.0148,-1.5149,-2.9872], a=0.5, v=0.3, r=0.002)
  movej([0.1676,-1.2355,2.0236,-2.0143,-1.5137,-2.9839], a=0.5, v=0.3, r=0.002)
  movej([0.1693,-1.2385,2.0283,-2.0161,-1.5131,-2.9824], a=0.5, v=0.3)
  movej([0.1693,-1.3981,1.8923,-1.7205,-1.5131,-2.9823], a=0.97, v=1.1)
  movej([0.1988,-1.4244,1.9247,-1.7284,-1.5032,-2.9545], a=0.97, v=1.1)
  movej([0.1988,-1.4244,1.9247,-1.7284,-1.5032,-2.9545], a=0.5, v=0.3, r=0.002)
  movej([0.1988,-1.4134,1.9388,-1.7534,-1.5032,-2.9545], a=0.5, v=0.3, r=0.002)
  movej([0.1988,-1.3779,1.9782,-1.8284,-1.5032,-2.9545], a=0.5, v=0.3, r=0.002)
  movej([0.1988,-1.3180,2.0279,-1.9379,-1.5032,-2.9545], a=0.5, v=0.3, r=0.002)
  movej([0.1988,-1.2753,2.0545,-2.0073,-1.5032,-2.9545], a=0.5, v=0.3, r=0.002)
  movej([0.1979,-1.2581,2.0586,-2.0285,-1.5035,-2.9553], a=0.5, v=0.3, r=0.002)
  movej([0.1859,-1.2386,2.0289,-2.0176,-1.5075,-2.9666], a=0.5, v=0.3, r=0.002)
  movej([0.1609,-1.2264,2.0094,-2.0089,-1.5160,-2.9903], a=0.5, v=0.3, r=0.002)
  movej([0.1237,-1.2361,2.0233,-2.0115,-1.5286,-3.0253], a=0.5, v=0.3, r=0.002)
  movej([0.0962,-1.2478,2.0407,-2.0161,-1.5379,-3.0511], a=0.5, v=0.3, r=0.002)
  movej([0.0805,-1.2444,2.0353,-2.0137,-1.5433,-3.0660], a=0.5, v=0.3, r=0.002)
  movej([0.0395,-1.2677,2.0700,-2.0243,-1.5573,-3.1045], a=0.5, v=0.3, r=0.002)
  movej([0.0065,-1.2874,2.0989,-2.0333,-1.5686,-3.1355], a=0.5, v=0.3, r=0.002)
  movej([-0.0079,-1.2754,2.0812,-2.0276,-1.5735,-3.1490], a=0.5, v=0.3, r=0.002)
  movej([-0.0372,-1.2623,2.0618,-2.0215,-1.5835,-3.1766], a=0.5, v=0.3, r=0.002)
  movej([-0.0436,-1.2435,2.0336,-2.0121,-1.5857,-3.1826], a=0.5, v=0.3, r=0.002)
  movej([-0.0325,-1.2032,1.9711,-1.9898,-1.5819,-3.1721], a=0.5, v=0.3, r=0.002)
  movej([-0.0351,-1.1709,1.9198,-1.9708,-1.5828,-3.1746], a=0.5, v=0.3, r=0.002)
  movej([-0.0518,-1.1536,1.8919,-1.9605,-1.5885,-3.1903], a=0.5, v=0.3, r=0.002)
  movej([-0.0650,-1.1399,1.8698,-1.9523,-1.5930,-3.2026], a=0.5, v=0.3, r=0.002)
  movej([-0.0737,-1.1340,1.8602,-1.9488,-1.5960,-3.2109], a=0.5, v=0.3, r=0.002)
  movej([-0.0668,-1.1391,1.8685,-1.9518,-1.5936,-3.2044], a=0.5, v=0.3, r=0.002)
  movej([-0.0543,-1.1487,1.8841,-1.9575,-1.5894,-3.1926], a=0.5, v=0.3, r=0.002)
  movej([-0.0370,-1.1688,1.9164,-1.9696,-1.5834,-3.1763], a=0.5, v=0.3, r=0.002)
  movej([-0.0307,-1.1958,1.9595,-1.9855,-1.5813,-3.1704], a=0.5, v=0.3, r=0.002)
  movej([-0.0411,-1.2368,2.0233,-2.0085,-1.5848,-3.1802], a=0.5, v=0.3, r=0.002)
  movej([-0.0425,-1.2593,2.0574,-2.0201,-1.5853,-3.1816], a=0.5, v=0.3, r=0.002)
  movej([-0.0091,-1.2744,2.0798,-2.0271,-1.5739,-3.1502], a=0.5, v=0.3, r=0.002)
  movej([0.0013,-1.2894,2.1019,-2.0342,-1.5703,-3.1403], a=0.5, v=0.3, r=0.002)
  movej([0.0210,-1.2785,2.0859,-2.0292,-1.5636,-3.1219], a=0.5, v=0.3, r=0.002)
  movej([0.0367,-1.2736,2.0787,-2.0271,-1.5582,-3.1071], a=0.5, v=0.3, r=0.002)
  movej([0.0217,-1.2924,2.1063,-2.0357,-1.5634,-3.1212], a=0.5, v=0.3, r=0.002)
  movej([0.0105,-1.3010,2.1188,-2.0395,-1.5672,-3.1317], a=0.5, v=0.3, r=0.002)
  movej([0.0341,-1.2803,2.0886,-2.0302,-1.5592,-3.1096], a=0.5, v=0.3, r=0.002)
  movej([0.0700,-1.2600,2.0587,-2.0212,-1.5469,-3.0758], a=0.5, v=0.3, r=0.002)
  movej([0.0802,-1.2533,2.0487,-2.0182,-1.5434,-3.0662], a=0.5, v=0.3, r=0.002)
  movej([0.0912,-1.2567,2.0541,-2.0204,-1.5397,-3.0559], a=0.5, v=0.3, r=0.002)
  movej([0.1002,-1.2593,2.0582,-2.0222,-1.5366,-3.0474], a=0.5, v=0.3, r=0.002)
  movej([0.1014,-1.2678,2.0709,-2.0265,-1.5362,-3.0462], a=0.5, v=0.3, r=0.002)
  movej([0.0987,-1.2734,2.0792,-2.0291,-1.5371,-3.0488], a=0.5, v=0.3, r=0.002)
  movej([0.1056,-1.2755,2.0824,-2.0304,-1.5347,-3.0423], a=0.5, v=0.3, r=0.002)
  movej([0.1030,-1.2987,2.1163,-2.0410,-1.5356,-3.0448], a=0.5, v=0.3, r=0.002)
  movej([0.0888,-1.3007,2.1190,-2.0413,-1.5405,-3.0581], a=0.5, v=0.3, r=0.002)
  movej([0.0962,-1.3047,2.1249,-2.0434,-1.5379,-3.0511], a=0.5, v=0.3, r=0.002)
  movej([0.1051,-1.2909,2.1050,-2.0376,-1.5349,-3.0428], a=0.5, v=0.3, r=0.002)
  movej([0.1026,-1.2594,2.0584,-2.0224,-1.5358,-3.0452], a=0.5, v=0.3, r=0.002)
  movej([0.1107,-1.2491,2.0429,-2.0175,-1.5330,-3.0375], a=0.5, v=0.3, r=0.002)
  movej([0.1132,-1.2407,2.0302,-2.0133,-1.5322,-3.0352], a=0.5, v=0.3, r=0.002)
  movej([0.1509,-1.2284,2.0123,-2.0092,-1.5194,-2.9997], a=0.5, v=0.3, r=0.002)
  movej([0.1784,-1.2324,2.0190,-2.0135,-1.5101,-2.9738], a=0.5, v=0.3, r=0.002)
  movej([0.1981,-1.2585,2.0595,-2.0290,-1.5034,-2.9551], a=0.5, v=0.3, r=0.002)
  movej([0.1915,-1.2969,2.1160,-2.0467,-1.5056,-2.9614], a=0.5, v=0.3, r=0.002)
  movej([0.1569,-1.3440,2.1818,-2.0634,-1.5173,-2.9941], a=0.5, v=0.3, r=0.002)
  movej([0.1248,-1.3631,2.2071,-2.0682,-1.5282,-3.0243], a=0.5, v=0.3, r=0.002)
  movej([0.1208,-1.3555,2.1967,-2.0653,-1.5296,-3.0280], a=0.5, v=0.3, r=0.002)
  movej([0.1458,-1.3379,2.1730,-2.0602,-1.5211,-3.0044], a=0.5, v=0.3, r=0.002)
  movej([0.1406,-1.3421,2.1787,-2.0615,-1.5229,-3.0094], a=0.5, v=0.3, r=0.002)
  movej([0.1109,-1.3590,2.2012,-2.0659,-1.5330,-3.0374], a=0.5, v=0.3, r=0.002)
  movej([0.1045,-1.3495,2.1881,-2.0621,-1.5351,-3.0433], a=0.5, v=0.3, r=0.002)
  movej([0.1004,-1.3213,2.1486,-2.0507,-1.5365,-3.0472], a=0.5, v=0.3, r=0.002)
  movej([0.1032,-1.3527,2.1924,-2.0632,-1.5356,-3.0446], a=0.5, v=0.3, r=0.002)
  movej([0.0912,-1.3654,2.2095,-2.0672,-1.5396,-3.0558], a=0.5, v=0.3, r=0.002)
  movej([0.0698,-1.3801,2.2289,-2.0713,-1.5469,-3.0760], a=0.5, v=0.3, r=0.002)
  movej([0.0476,-1.3885,2.2397,-2.0734,-1.5545,-3.0969], a=0.5, v=0.3, r=0.002)
  movej([0.0232,-1.3978,2.2517,-2.0758,-1.5629,-3.1198], a=0.5, v=0.3, r=0.002)
  movej([-0.0140,-1.3955,2.2487,-2.0750,-1.5756,-3.1547], a=0.5, v=0.3, r=0.002)
  movej([-0.0294,-1.3849,2.2349,-2.0719,-1.5809,-3.1692], a=0.5, v=0.3, r=0.002)
  movej([-0.0297,-1.3960,2.2494,-2.0753,-1.5810,-3.1695], a=0.5, v=0.3, r=0.002)
  movej([-0.0467,-1.4037,2.2595,-2.0779,-1.5868,-3.1855], a=0.5, v=0.3, r=0.002)
  movej([-0.0668,-1.3937,2.2467,-2.0755,-1.5936,-3.2043], a=0.5, v=0.3, r=0.002)
  movej([-0.0670,-1.3616,2.2040,-2.0649,-1.5937,-3.2045], a=0.5, v=0.3, r=0.002)
  movej([-0.0575,-1.3213,2.1481,-2.0490,-1.5904,-3.1956], a=0.5, v=0.3, r=0.002)
  movej([-0.0543,-1.3142,2.1380,-2.0459,-1.5894,-3.1926], a=0.5, v=0.3, r=0.002)
  movej([-0.0658,-1.3403,2.1748,-2.0569,-1.5933,-3.2034], a=0.5, v=0.3, r=0.002)
  movej([-0.0692,-1.3843,2.2344,-2.0726,-1.5944,-3.2066], a=0.5, v=0.3, r=0.002)
  movej([-0.0557,-1.4023,2.2579,-2.0778,-1.5898,-3.1939], a=0.5, v=0.3, r=0.002)
  movej([-0.0642,-1.4212,2.2821,-2.0833,-1.5928,-3.2020], a=0.5, v=0.3, r=0.002)
  movej([-0.1007,-1.4339,2.2985,-2.0880,-1.6052,-3.2363], a=0.5, v=0.3, r=0.002)
  movej([-0.1430,-1.4417,2.3090,-2.0924,-1.6195,-3.2760], a=0.5, v=0.3, r=0.002)
  movej([-0.1368,-1.4408,2.3079,-2.0918,-1.6174,-3.2702], a=0.5, v=0.3, r=0.002)
  movej([-0.0873,-1.4319,2.2958,-2.0868,-1.6006,-3.2236], a=0.5, v=0.3, r=0.002)
  movej([-0.0560,-1.4122,2.2705,-2.0805,-1.5899,-3.1942], a=0.5, v=0.3, r=0.002)
  movej([-0.0262,-1.3959,2.2493,-2.0753,-1.5797,-3.1662], a=0.5, v=0.3, r=0.002)
  movej([-0.0242,-1.4072,2.2638,-2.0785,-1.5791,-3.1643], a=0.5, v=0.3, r=0.002)
  movej([-0.0430,-1.4404,2.3058,-2.0874,-1.5855,-3.1820], a=0.5, v=0.3, r=0.002)
  movej([-0.0481,-1.4833,2.3569,-2.0957,-1.5872,-3.1868], a=0.5, v=0.3, r=0.002)
  movej([-0.0777,-1.5449,2.4251,-2.1029,-1.5973,-3.2146], a=0.5, v=0.3, r=0.002)
  movej([-0.1200,-1.6011,2.4819,-2.1048,-1.6117,-3.2544], a=0.5, v=0.3, r=0.002)
  movej([-0.1746,-1.6452,2.5234,-2.1048,-1.6303,-3.3059], a=0.5, v=0.3, r=0.002)
  movej([-0.1814,-1.6508,2.5284,-2.1047,-1.6326,-3.3123], a=0.5, v=0.3, r=0.002)
  movej([-0.1398,-1.6181,2.4982,-2.1050,-1.6185,-3.2731], a=0.5, v=0.3, r=0.002)
  movej([-0.0856,-1.5619,2.4427,-2.1037,-1.6001,-3.2221], a=0.5, v=0.3, r=0.002)
  movej([-0.0519,-1.4915,2.3663,-2.0970,-1.5885,-3.1903], a=0.5, v=0.3, r=0.002)
  movej([-0.0427,-1.4487,2.3158,-2.0892,-1.5854,-3.1818], a=0.5, v=0.3, r=0.002)
  movej([-0.0303,-1.4178,2.2774,-2.0815,-1.5812,-3.1701], a=0.5, v=0.3, r=0.002)
  movej([-0.0108,-1.3979,2.2519,-2.0757,-1.5745,-3.1517], a=0.5, v=0.3, r=0.002)
  movej([0.0331,-1.3963,2.2499,-2.0755,-1.5595,-3.1105], a=0.5, v=0.3, r=0.002)
  movej([0.0808,-1.3854,2.2361,-2.0735,-1.5432,-3.0656], a=0.5, v=0.3, r=0.002)
  movej([0.1214,-1.3638,2.2080,-2.0683,-1.5294,-3.0274], a=0.5, v=0.3, r=0.002)
  movej([0.1690,-1.3328,2.1665,-2.0600,-1.5133,-2.9826], a=0.5, v=0.3, r=0.002)
  movej([0.1966,-1.2856,2.0996,-2.0420,-1.5039,-2.9565], a=0.5, v=0.3, r=0.002)
  movej([0.1990,-1.2619,2.0647,-2.0308,-1.5031,-2.9543], a=0.5, v=0.3, r=0.002)
  movej([0.1990,-1.2613,2.0636,-2.0305,-1.5031,-2.9543], a=0.5, v=0.3)
  movej([0.1990,-1.4253,1.9258,-1.7286,-1.5031,-2.9543], a=0.97, v=1.1)

  movej([1.0470,-1.5700,1.5700,-1.5700,-1.5700,0.0000], a=0.97, v=1.1)
end