def draw_face():
  set_tcp(p[0.0393,0.0000,-0.1081,0.0000,0.3491,0.0000])

  movej([1.0470,-1.5700,1.5700,-1.5700,-1.5700,0.0000], a=0.97, v=1.1)

  movej([0.1513,-1.5265,2.0384,-1.7373,-1.5192,-1.4285], a=0.97, v=1.1)
  movej([0.1513,-1.5265,2.0384,-1.7373,-1.5192,-1.4285], a=0.5, v=0.3, r=0.002)
  movej([0.1513,-1.5155,2.0523,-1.7623,-1.5192,-1.4285], a=0.5, v=0.3, r=0.002)
  movej([0.1513,-1.4797,2.0916,-1.8373,-1.5192,-1.4285], a=0.5, v=0.3, r=0.002)
  movej([0.1513,-1.4169,2.1436,-1.9522,-1.5192,-1.4285], a=0.5, v=0.3, r=0.002)
  movej([0.1513,-1.3674,2.1743,-2.0323,-1.5192,-1.4285], a=0.5, v=0.3, r=0.002)
  movej([0.1504,-1.3482,2.1862,-2.0634,-1.5195,-1.4293], a=0.5, v=0.3, r=0.002)
  movej([0.1441,-1.3473,2.1859,-2.0637,-1.5217,-1.4353], a=0.5, v=0.3, r=0.002)
  movej([0.1511,-1.3459,2.1843,-2.0637,-1.5193,-1.4287], a=0.5, v=0.3, r=0.002)
  movej([0.1512,-1.3460,2.1844,-2.0638,-1.5193,-1.4286], a=0.5, v=0.3)
  movej([0.1512,-1.5257,2.0375,-1.7372,-1.5193,-1.4286], a=0.97, v=1.1)
  movej([0.1166,-1.5288,2.0402,-1.7353,-1.5310,-1.4611], a=0.97, v=1.1)
  movej([0.1166,-1.5288,2.0402,-1.7353,-1.5310,-1.4611], a=0.5, v=0.3, r=0.002)
  movej([0.1166,-1.5178,2.0541,-1.7603,-1.5310,-1.4611], a=0.5, v=0.3, r=0.002)
  movej([0.1166,-1.4820,2.0934,-1.8353,-1.5310,-1.4611], a=0.5, v=0.3, r=0.002)
  movej([0.1166,-1.4192,2.1456,-1.9504,-1.5310,-1.4611], a=0.5, v=0.3, r=0.002)
  movej([0.1166,-1.3695,2.1765,-2.0309,-1.5310,-1.4611], a=0.5, v=0.3, r=0.002)
  movej([0.1165,-1.3497,2.1875,-2.0617,-1.5310,-1.4613], a=0.5, v=0.3, r=0.002)
  movej([0.0995,-1.3601,2.2025,-2.0657,-1.5368,-1.4773], a=0.5, v=0.3, r=0.002)
  movej([0.0926,-1.3571,2.1983,-2.0643,-1.5392,-1.4837], a=0.5, v=0.3, r=0.002)
  movej([0.1120,-1.3448,2.1817,-2.0607,-1.5325,-1.4655], a=0.5, v=0.3, r=0.002)
  movej([0.1165,-1.3481,2.1865,-2.0623,-1.5310,-1.4612], a=0.5, v=0.3)
  movej([0.1165,-1.5280,2.0393,-1.7352,-1.5310,-1.4612], a=0.97, v=1.1)
  movej([0.0661,-1.5636,2.0754,-1.7343,-1.5482,-1.5087], a=0.97, v=1.1)
  movej([0.0661,-1.5636,2.0754,-1.7343,-1.5482,-1.5087], a=0.5, v=0.3, r=0.002)
  movej([0.0661,-1.5526,2.0894,-1.7593,-1.5482,-1.5087], a=0.5, v=0.3, r=0.002)
  movej([0.0661,-1.5169,2.1287,-1.8343,-1.5482,-1.5087], a=0.5, v=0.3, r=0.002)
  movej([0.0661,-1.4534,2.1817,-1.9508,-1.5482,-1.5087], a=0.5, v=0.3, r=0.002)
  movej([0.0661,-1.4018,2.2139,-2.0345,-1.5482,-1.5087], a=0.5, v=0.3, r=0.002)
  movej([0.0660,-1.3795,2.2254,-2.0683,-1.5482,-1.5088], a=0.5, v=0.3, r=0.002)
  movej([0.0593,-1.3770,2.2247,-2.0700,-1.5505,-1.5151], a=0.5, v=0.3, r=0.002)
  movej([0.0629,-1.3816,2.2308,-2.0716,-1.5493,-1.5116], a=0.5, v=0.3, r=0.002)
  movej([0.0661,-1.3789,2.2273,-2.0708,-1.5482,-1.5086], a=0.5, v=0.3)
  movej([0.0661,-1.5645,2.0763,-1.7343,-1.5482,-1.5086], a=0.97, v=1.1)
  movej([0.0661,-1.5645,2.0763,-1.7343,-1.5482,-1.5086], a=0.97, v=1.1)
  movej([0.0612,-1.5757,2.0875,-1.7342,-1.5499,-1.5133], a=0.97, v=1.1)
  movej([0.0612,-1.5757,2.0875,-1.7342,-1.5499,-1.5133], a=0.5, v=0.3, r=0.002)
  movej([0.0612,-1.5647,2.1015,-1.7592,-1.5499,-1.5133], a=0.5, v=0.3, r=0.002)
  movej([0.0612,-1.5290,2.1408,-1.8342,-1.5499,-1.5133], a=0.5, v=0.3, r=0.002)
  movej([0.0612,-1.4652,2.1941,-1.9512,-1.5499,-1.5133], a=0.5, v=0.3, r=0.002)
  movej([0.0612,-1.4129,2.2268,-2.0362,-1.5499,-1.5133], a=0.5, v=0.3, r=0.002)
  movej([0.0612,-1.3899,2.2389,-2.0713,-1.5499,-1.5133], a=0.5, v=0.3, r=0.002)
  movej([0.0516,-1.3882,2.2394,-2.0734,-1.5531,-1.5223], a=0.5, v=0.3, r=0.002)
  movej([0.0215,-1.4039,2.2596,-2.0776,-1.5634,-1.5506], a=0.5, v=0.3, r=0.002)
  movej([0.0277,-1.4090,2.2662,-2.0791,-1.5613,-1.5448], a=0.5, v=0.3, r=0.002)
  movej([0.0573,-1.3926,2.2453,-2.0749,-1.5512,-1.5169], a=0.5, v=0.3, r=0.002)
  movej([0.0612,-1.3891,2.2407,-2.0739,-1.5499,-1.5132], a=0.5, v=0.3)
  movej([0.0612,-1.5766,2.0884,-1.7342,-1.5499,-1.5132], a=0.97, v=1.1)
  movej([0.0542,-1.5528,2.0644,-1.7338,-1.5523,-1.5198], a=0.97, v=1.1)
  movej([0.0542,-1.5528,2.0644,-1.7338,-1.5523,-1.5198], a=0.5, v=0.3, r=0.002)
  movej([0.0542,-1.5418,2.0784,-1.7588,-1.5523,-1.5198], a=0.5, v=0.3, r=0.002)
  movej([0.0542,-1.5061,2.1177,-1.8338,-1.5523,-1.5198], a=0.5, v=0.3, r=0.002)
  movej([0.0542,-1.4433,2.1701,-1.9491,-1.5523,-1.5198], a=0.5, v=0.3, r=0.002)
  movej([0.0542,-1.3935,2.2014,-2.0301,-1.5523,-1.5198], a=0.5, v=0.3, r=0.002)
  movej([0.0540,-1.3700,2.2104,-2.0626,-1.5523,-1.5201], a=0.5, v=0.3, r=0.002)
  movej([0.0512,-1.3488,2.1864,-2.0597,-1.5533,-1.5227], a=0.5, v=0.3, r=0.002)
  movej([0.0508,-1.3498,2.1877,-2.0601,-1.5534,-1.5231], a=0.5, v=0.3, r=0.002)
  movej([0.0549,-1.3694,2.2144,-2.0673,-1.5520,-1.5192], a=0.5, v=0.3, r=0.002)
  movej([0.0551,-1.3697,2.2149,-2.0674,-1.5519,-1.5190], a=0.5, v=0.3)
  movej([0.0552,-1.5534,2.0650,-1.7338,-1.5519,-1.5190], a=0.97, v=1.1)
  movej([0.0375,-1.5241,2.0344,-1.7322,-1.5580,-1.5355], a=0.97, v=1.1)
  movej([0.0375,-1.5241,2.0344,-1.7322,-1.5580,-1.5355], a=0.5, v=0.3, r=0.002)
  movej([0.0375,-1.5131,2.0484,-1.7572,-1.5580,-1.5355], a=0.5, v=0.3, r=0.002)
  movej([0.0375,-1.4775,2.0877,-1.8322,-1.5580,-1.5355], a=0.5, v=0.3, r=0.002)
  movej([0.0375,-1.4149,2.1398,-1.9468,-1.5580,-1.5355], a=0.5, v=0.3, r=0.002)
  movej([0.0375,-1.3660,2.1703,-2.0262,-1.5580,-1.5355], a=0.5, v=0.3, r=0.002)
  movej([0.0360,-1.3478,2.1836,-2.0577,-1.5585,-1.5370], a=0.5, v=0.3, r=0.002)
  movej([0.0329,-1.3638,2.2067,-2.0648,-1.5595,-1.5398], a=0.5, v=0.3, r=0.002)
  movej([0.0297,-1.3747,2.2213,-2.0685,-1.5606,-1.5429], a=0.5, v=0.3, r=0.002)
  movej([0.0347,-1.3645,2.2077,-2.0651,-1.5589,-1.5382], a=0.5, v=0.3, r=0.002)
  movej([0.0352,-1.3485,2.1858,-2.0593,-1.5588,-1.5377], a=0.5, v=0.3, r=0.002)
  movej([0.0376,-1.3461,2.1825,-2.0584,-1.5579,-1.5355], a=0.5, v=0.3)
  movej([0.0376,-1.5251,2.0355,-1.7323,-1.5579,-1.5355], a=0.97, v=1.1)
  movej([-0.0016,-1.5297,2.0402,-1.7322,-1.5713,-1.5723], a=0.97, v=1.1)
  movej([-0.0016,-1.5297,2.0402,-1.7322,-1.5713,-1.5723], a=0.5, v=0.3, r=0.002)
  movej([-0.0016,-1.5187,2.0542,-1.7572,-1.5713,-1.5723], a=0.5, v=0.3, r=0.002)
  movej([-0.0016,-1.4831,2.0935,-1.8322,-1.5713,-1.5723], a=0.5, v=0.3, r=0.002)
  movej([-0.0016,-1.4203,2.1458,-1.9472,-1.5713,-1.5723], a=0.5, v=0.3, r=0.002)
  movej([-0.0016,-1.3709,2.1766,-2.0274,-1.5713,-1.5723], a=0.5, v=0.3, r=0.002)
  movej([-0.0032,-1.3520,2.1895,-2.0591,-1.5719,-1.5738], a=0.5, v=0.3, r=0.002)
  movej([-0.0123,-1.3549,2.1946,-2.0614,-1.5750,-1.5823], a=0.5, v=0.3, r=0.002)
  movej([-0.0026,-1.3496,2.1872,-2.0594,-1.5717,-1.5732], a=0.5, v=0.3)
  movej([-0.0026,-1.5293,2.0397,-1.7322,-1.5717,-1.5732], a=0.97, v=1.1)
  movej([-0.0487,-1.5414,2.0526,-1.7333,-1.5874,-1.6165], a=0.97, v=1.1)
  movej([-0.0487,-1.5414,2.0526,-1.7333,-1.5874,-1.6165], a=0.5, v=0.3, r=0.002)
  movej([-0.0487,-1.5304,2.0666,-1.7583,-1.5874,-1.6165], a=0.5, v=0.3, r=0.002)
  movej([-0.0487,-1.4947,2.1059,-1.8333,-1.5874,-1.6165], a=0.5, v=0.3, r=0.002)
  movej([-0.0487,-1.4319,2.1582,-1.9484,-1.5874,-1.6165], a=0.5, v=0.3, r=0.002)
  movej([-0.0487,-1.3823,2.1892,-2.0291,-1.5874,-1.6165], a=0.5, v=0.3, r=0.002)
  movej([-0.0494,-1.3634,2.2036,-2.0623,-1.5877,-1.6172], a=0.5, v=0.3, r=0.002)
  movej([-0.0504,-1.3630,2.2058,-2.0649,-1.5880,-1.6182], a=0.5, v=0.3, r=0.002)
  movej([-0.0539,-1.3536,2.1930,-2.0616,-1.5892,-1.6214], a=0.5, v=0.3, r=0.002)
  movej([-0.0601,-1.3735,2.2200,-2.0688,-1.5913,-1.6273], a=0.5, v=0.3, r=0.002)
  movej([-0.0629,-1.3758,2.2230,-2.0696,-1.5923,-1.6299], a=0.5, v=0.3, r=0.002)
  movej([-0.0575,-1.3474,2.1845,-2.0594,-1.5905,-1.6248], a=0.5, v=0.3, r=0.002)
  movej([-0.0589,-1.3196,2.1457,-2.0484,-1.5909,-1.6261], a=0.5, v=0.3, r=0.002)
  movej([-0.0593,-1.3135,2.1370,-2.0458,-1.5911,-1.6265], a=0.5, v=0.3, r=0.002)
  movej([-0.0501,-1.3316,2.1624,-2.0530,-1.5879,-1.6179], a=0.5, v=0.3, r=0.002)
  movej([-0.0487,-1.3576,2.1984,-2.0629,-1.5874,-1.6165], a=0.5, v=0.3, r=0.002)
  movej([-0.0486,-1.3588,2.2000,-2.0634,-1.5874,-1.6165], a=0.5, v=0.3)
  movej([-0.0486,-1.5403,2.0515,-1.7332,-1.5874,-1.6165], a=0.97, v=1.1)
  movej([-0.0498,-1.5260,2.0364,-1.7326,-1.5878,-1.6176], a=0.97, v=1.1)
  movej([-0.0498,-1.5260,2.0364,-1.7326,-1.5878,-1.6176], a=0.5, v=0.3, r=0.002)
  movej([-0.0498,-1.5150,2.0504,-1.7576,-1.5878,-1.6176], a=0.5, v=0.3, r=0.002)
  movej([-0.0498,-1.4793,2.0898,-1.8326,-1.5878,-1.6176], a=0.5, v=0.3, r=0.002)
  movej([-0.0498,-1.4167,2.1419,-1.9473,-1.5878,-1.6176], a=0.5, v=0.3, r=0.002)
  movej([-0.0498,-1.3676,2.1725,-2.0271,-1.5878,-1.6176], a=0.5, v=0.3, r=0.002)
  movej([-0.0503,-1.3486,2.1846,-2.0581,-1.5880,-1.6181], a=0.5, v=0.3, r=0.002)
  movej([-0.0582,-1.3521,2.1910,-2.0612,-1.5907,-1.6255], a=0.5, v=0.3, r=0.002)
  movej([-0.0521,-1.3403,2.1746,-2.0565,-1.5886,-1.6198], a=0.5, v=0.3, r=0.002)
  movej([-0.0498,-1.3460,2.1825,-2.0587,-1.5878,-1.6176], a=0.5, v=0.3)
  movej([-0.0498,-1.5251,2.0355,-1.7325,-1.5878,-1.6176], a=0.97, v=1.1)
  movej([-0.0499,-1.5087,2.0179,-1.7314,-1.5878,-1.6177], a=0.97, v=1.1)
  movej([-0.0499,-1.5087,2.0179,-1.7314,-1.5878,-1.6177], a=0.5, v=0.3, r=0.002)
  movej([-0.0499,-1.4977,2.0319,-1.7564,-1.5878,-1.6177], a=0.5, v=0.3, r=0.002)
  movej([-0.0499,-1.4620,2.0713,-1.8314,-1.5878,-1.6177], a=0.5, v=0.3, r=0.002)
  movej([-0.0499,-1.3997,2.1231,-1.9455,-1.5878,-1.6177], a=0.5, v=0.3, r=0.002)
  movej([-0.0499,-1.3514,2.1532,-2.0239,-1.5878,-1.6177], a=0.5, v=0.3, r=0.002)
  movej([-0.0514,-1.3336,2.1649,-2.0534,-1.5884,-1.6191], a=0.5, v=0.3, r=0.002)
  movej([-0.0558,-1.3301,2.1604,-2.0526,-1.5899,-1.6233], a=0.5, v=0.3, r=0.002)
  movej([-0.0498,-1.3315,2.1623,-2.0530,-1.5878,-1.6176], a=0.5, v=0.3, r=0.002)
  movej([-0.0498,-1.3315,2.1623,-2.0530,-1.5878,-1.6176], a=0.5, v=0.3)
  movej([-0.0498,-1.5078,2.0169,-1.7313,-1.5878,-1.6176], a=0.97, v=1.1)
  movej([-0.0845,-1.5522,2.0640,-1.7347,-1.5997,-1.6502], a=0.97, v=1.1)
  movej([-0.0845,-1.5522,2.0640,-1.7347,-1.5997,-1.6502], a=0.5, v=0.3, r=0.002)
  movej([-0.0845,-1.5412,2.0780,-1.7597,-1.5997,-1.6502], a=0.5, v=0.3, r=0.002)
  movej([-0.0845,-1.5055,2.1173,-1.8347,-1.5997,-1.6502], a=0.5, v=0.3, r=0.002)
  movej([-0.0845,-1.4422,2.1700,-1.9506,-1.5997,-1.6502], a=0.5, v=0.3, r=0.002)
  movej([-0.0845,-1.3915,2.2016,-2.0330,-1.5997,-1.6502], a=0.5, v=0.3, r=0.002)
  movej([-0.0846,-1.3697,2.2125,-2.0657,-1.5997,-1.6503], a=0.5, v=0.3, r=0.002)
  movej([-0.0856,-1.3604,2.2027,-2.0652,-1.6000,-1.6512], a=0.5, v=0.3, r=0.002)
  movej([-0.0845,-1.3693,2.2148,-2.0683,-1.5997,-1.6503], a=0.5, v=0.3)
  movej([-0.0845,-1.5531,2.0650,-1.7347,-1.5997,-1.6502], a=0.97, v=1.1)
  movej([-0.0752,-1.6271,2.1370,-1.7325,-1.5965,-1.6415], a=0.97, v=1.1)
  movej([-0.0752,-1.6271,2.1370,-1.7325,-1.5965,-1.6415], a=0.5, v=0.3, r=0.002)
  movej([-0.0752,-1.6161,2.1510,-1.7575,-1.5965,-1.6415], a=0.5, v=0.3, r=0.002)
  movej([-0.0752,-1.5805,2.1904,-1.8325,-1.5965,-1.6415], a=0.5, v=0.3, r=0.002)
  movej([-0.0752,-1.5159,2.2448,-1.9516,-1.5965,-1.6415], a=0.5, v=0.3, r=0.002)
  movej([-0.0752,-1.4604,2.2797,-2.0420,-1.5965,-1.6415], a=0.5, v=0.3, r=0.002)
  movej([-0.0752,-1.4339,2.2937,-2.0824,-1.5965,-1.6415], a=0.5, v=0.3, r=0.002)
  movej([-0.0847,-1.4251,2.2872,-2.0850,-1.5997,-1.6504], a=0.5, v=0.3, r=0.002)
  movej([-0.1009,-1.4333,2.2978,-2.0878,-1.6052,-1.6656], a=0.5, v=0.3, r=0.002)
  movej([-0.0941,-1.4414,2.3077,-2.0894,-1.6030,-1.6593], a=0.5, v=0.3, r=0.002)
  movej([-0.0754,-1.4324,2.2963,-2.0865,-1.5966,-1.6417], a=0.5, v=0.3, r=0.002)
  movej([-0.0753,-1.4323,2.2961,-2.0865,-1.5965,-1.6416], a=0.5, v=0.3)
  movej([-0.0753,-1.6282,2.1380,-1.7325,-1.5965,-1.6416], a=0.97, v=1.1)
  movej([-0.1554,-1.6080,2.1204,-1.7380,-1.6238,-1.7170], a=0.97, v=1.1)
  movej([-0.1554,-1.6080,2.1204,-1.7380,-1.6238,-1.7170], a=0.5, v=0.3, r=0.002)
  movej([-0.1554,-1.5970,2.1343,-1.7630,-1.6238,-1.7170], a=0.5, v=0.3, r=0.002)
  movej([-0.1554,-1.5613,2.1736,-1.8380,-1.6238,-1.7170], a=0.5, v=0.3, r=0.002)
  movej([-0.1554,-1.4969,2.2275,-1.9562,-1.6238,-1.7170], a=0.5, v=0.3, r=0.002)
  movej([-0.1554,-1.4425,2.2615,-2.0446,-1.6238,-1.7170], a=0.5, v=0.3, r=0.002)
  movej([-0.1556,-1.4172,2.2746,-2.0831,-1.6238,-1.7172], a=0.5, v=0.3, r=0.002)
  movej([-0.1714,-1.4103,2.2706,-2.0867,-1.6291,-1.7320], a=0.5, v=0.3, r=0.002)
  movej([-0.1622,-1.4117,2.2721,-2.0863,-1.6261,-1.7234], a=0.5, v=0.3, r=0.002)
  movej([-0.1562,-1.4143,2.2752,-2.0865,-1.6240,-1.7177], a=0.5, v=0.3)
  movej([-0.1562,-1.6073,2.1197,-1.7380,-1.6240,-1.7177], a=0.97, v=1.1)
  movej([-0.0754,-1.4566,1.9601,-1.7261,-1.5966,-1.6417], a=0.97, v=1.1)
  movej([-0.0754,-1.4566,1.9601,-1.7261,-1.5966,-1.6417], a=0.5, v=0.3, r=0.002)
  movej([-0.0754,-1.4457,1.9741,-1.7511,-1.5966,-1.6417], a=0.5, v=0.3, r=0.002)
  movej([-0.0754,-1.4101,2.0136,-1.8261,-1.5966,-1.6417], a=0.5, v=0.3, r=0.002)
  movej([-0.0754,-1.3495,2.0641,-1.9372,-1.5966,-1.6417], a=0.5, v=0.3, r=0.002)
  movej([-0.0754,-1.3050,2.0919,-2.0096,-1.5966,-1.6417], a=0.5, v=0.3, r=0.002)
  movej([-0.0804,-1.2937,2.1086,-2.0376,-1.5983,-1.6463], a=0.5, v=0.3, r=0.002)
  movej([-0.1090,-1.3236,2.1521,-2.0521,-1.6080,-1.6732], a=0.5, v=0.3, r=0.002)
  movej([-0.1329,-1.3671,2.2127,-2.0701,-1.6161,-1.6958], a=0.5, v=0.3, r=0.002)
  movej([-0.1304,-1.3969,2.2521,-2.0797,-1.6153,-1.6934], a=0.5, v=0.3, r=0.002)
  movej([-0.1229,-1.4090,2.2675,-2.0827,-1.6127,-1.6863], a=0.5, v=0.3, r=0.002)
  movej([-0.1481,-1.4153,2.2763,-2.0862,-1.6213,-1.7101], a=0.5, v=0.3, r=0.002)
  movej([-0.1267,-1.4053,2.2629,-2.0819,-1.6140,-1.6900], a=0.5, v=0.3, r=0.002)
  movej([-0.1349,-1.3821,2.2327,-2.0753,-1.6168,-1.6977], a=0.5, v=0.3, r=0.002)
  movej([-0.1233,-1.3422,2.1784,-2.0604,-1.6129,-1.6867], a=0.5, v=0.3, r=0.002)
  movej([-0.0862,-1.2986,2.1159,-2.0402,-1.6002,-1.6518], a=0.5, v=0.3, r=0.002)
  movej([-0.0765,-1.2753,2.0816,-2.0290,-1.5969,-1.6427], a=0.5, v=0.3, r=0.002)
  movej([-0.0802,-1.2650,2.0663,-2.0241,-1.5982,-1.6462], a=0.5, v=0.3, r=0.002)
  movej([-0.0753,-1.2832,2.0932,-2.0327,-1.5965,-1.6416], a=0.5, v=0.3, r=0.002)
  movej([-0.0753,-1.2875,2.0996,-2.0347,-1.5965,-1.6416], a=0.5, v=0.3)
  movej([-0.0753,-1.4556,1.9589,-1.7259,-1.5965,-1.6416], a=0.97, v=1.1)
  movej([-0.0948,-1.4168,1.9136,-1.7199,-1.6032,-1.6599], a=0.97, v=1.1)
  movej([-0.0948,-1.4168,1.9136,-1.7199,-1.6032,-1.6599], a=0.5, v=0.3, r=0.002)
  movej([-0.0948,-1.4059,1.9277,-1.7449,-1.6032,-1.6599], a=0.5, v=0.3, r=0.002)
  movej([-0.0948,-1.3705,1.9673,-1.8199,-1.6032,-1.6599], a=0.5, v=0.3, r=0.002)
  movej([-0.0948,-1.3109,2.0171,-1.9293,-1.6032,-1.6599], a=0.5, v=0.3, r=0.002)
  movej([-0.0948,-1.2685,2.0437,-1.9984,-1.6032,-1.6599], a=0.5, v=0.3, r=0.002)
  movej([-0.0987,-1.2546,2.0510,-2.0197,-1.6045,-1.6635], a=0.5, v=0.3, r=0.002)
  movej([-0.1285,-1.2659,2.0685,-2.0270,-1.6146,-1.6916], a=0.5, v=0.3, r=0.002)
  movej([-0.1458,-1.2787,2.0879,-2.0344,-1.6205,-1.7079], a=0.5, v=0.3, r=0.002)
  movej([-0.1245,-1.2633,2.0646,-2.0255,-1.6133,-1.6878], a=0.5, v=0.3, r=0.002)
  movej([-0.0965,-1.2550,2.0516,-2.0198,-1.6038,-1.6615], a=0.5, v=0.3, r=0.002)
  movej([-0.0956,-1.2549,2.0515,-2.0197,-1.6034,-1.6607], a=0.5, v=0.3)
  movej([-0.0956,-1.4170,1.9139,-1.7200,-1.6034,-1.6607], a=0.97, v=1.1)
  movej([-0.0087,-1.4027,1.8959,-1.7150,-1.5738,-1.5789], a=0.97, v=1.1)
  movej([-0.0087,-1.4027,1.8959,-1.7150,-1.5738,-1.5789], a=0.5, v=0.3, r=0.002)
  movej([-0.0087,-1.3919,1.9101,-1.7400,-1.5738,-1.5789], a=0.5, v=0.3, r=0.002)
  movej([-0.0087,-1.3566,1.9498,-1.8150,-1.5738,-1.5789], a=0.5, v=0.3, r=0.002)
  movej([-0.0087,-1.2975,1.9993,-1.9235,-1.5738,-1.5789], a=0.5, v=0.3, r=0.002)
  movej([-0.0087,-1.2560,2.0255,-1.9912,-1.5738,-1.5789], a=0.5, v=0.3, r=0.002)
  movej([-0.0090,-1.2411,2.0297,-2.0103,-1.5739,-1.5792], a=0.5, v=0.3, r=0.002)
  movej([-0.0171,-1.2442,2.0345,-2.0121,-1.5767,-1.5869], a=0.5, v=0.3, r=0.002)
  movej([-0.0087,-1.2437,2.0337,-2.0117,-1.5738,-1.5789], a=0.5, v=0.3, r=0.002)
  movej([-0.0087,-1.2437,2.0337,-2.0117,-1.5738,-1.5789], a=0.5, v=0.3)
  movej([-0.0087,-1.4035,1.8969,-1.7151,-1.5738,-1.5789], a=0.97, v=1.1)
  movej([-0.0087,-1.4035,1.8969,-1.7151,-1.5738,-1.5789], a=0.97, v=1.1)
  movej([-0.0014,-1.4119,1.9070,-1.7169,-1.5713,-1.5722], a=0.97, v=1.1)
  movej([-0.0014,-1.4119,1.9070,-1.7169,-1.5713,-1.5722], a=0.5, v=0.3, r=0.002)
  movej([-0.0014,-1.4010,1.9212,-1.7419,-1.5713,-1.5722], a=0.5, v=0.3, r=0.002)
  movej([-0.0014,-1.3657,1.9608,-1.8169,-1.5713,-1.5722], a=0.5, v=0.3, r=0.002)
  movej([-0.0014,-1.3063,2.0105,-1.9259,-1.5713,-1.5722], a=0.5, v=0.3, r=0.002)
  movej([-0.0014,-1.2643,2.0370,-1.9944,-1.5713,-1.5722], a=0.5, v=0.3, r=0.002)
  movej([-0.0025,-1.2489,2.0415,-2.0143,-1.5717,-1.5731], a=0.5, v=0.3, r=0.002)
  movej([-0.0126,-1.2534,2.0484,-2.0168,-1.5751,-1.5827], a=0.5, v=0.3, r=0.002)
  movej([-0.0037,-1.2545,2.0500,-2.0173,-1.5721,-1.5743], a=0.5, v=0.3, r=0.002)
  movej([-0.0014,-1.2515,2.0455,-2.0157,-1.5713,-1.5722], a=0.5, v=0.3)
  movej([-0.0014,-1.4127,1.9080,-1.7170,-1.5713,-1.5722], a=0.97, v=1.1)
  movej([0.0362,-1.4586,1.9621,-1.7254,-1.5584,-1.5368], a=0.97, v=1.1)
  movej([0.0362,-1.4586,1.9621,-1.7254,-1.5584,-1.5368], a=0.5, v=0.3, r=0.002)
  movej([0.0362,-1.4477,1.9761,-1.7504,-1.5584,-1.5368], a=0.5, v=0.3, r=0.002)
  movej([0.0362,-1.4121,2.0156,-1.8254,-1.5584,-1.5368], a=0.5, v=0.3, r=0.002)
  movej([0.0362,-1.3511,2.0664,-1.9372,-1.5584,-1.5368], a=0.5, v=0.3, r=0.002)
  movej([0.0362,-1.3058,2.0946,-2.0107,-1.5584,-1.5368], a=0.5, v=0.3, r=0.002)
  movej([0.0351,-1.2906,2.1037,-2.0350,-1.5588,-1.5378], a=0.5, v=0.3, r=0.002)
  movej([0.0299,-1.2833,2.0931,-2.0316,-1.5606,-1.5427], a=0.5, v=0.3, r=0.002)
  movej([0.0321,-1.2683,2.0708,-2.0244,-1.5598,-1.5406], a=0.5, v=0.3, r=0.002)
  movej([0.0316,-1.2769,2.0835,-2.0285,-1.5600,-1.5411], a=0.5, v=0.3, r=0.002)
  movej([0.0356,-1.2888,2.1010,-2.0342,-1.5586,-1.5373], a=0.5, v=0.3, r=0.002)
  movej([0.0354,-1.2898,2.1025,-2.0347,-1.5587,-1.5375], a=0.5, v=0.3)
  movej([0.0354,-1.4581,1.9615,-1.7253,-1.5587,-1.5375], a=0.97, v=1.1)
  movej([0.1329,-1.3516,1.8333,-1.7063,-1.5254,-1.4458], a=0.97, v=1.1)
  movej([0.1329,-1.3516,1.8333,-1.7063,-1.5254,-1.4458], a=0.5, v=0.3, r=0.002)
  movej([0.1329,-1.3409,1.8476,-1.7313,-1.5254,-1.4458], a=0.5, v=0.3, r=0.002)
  movej([0.1329,-1.3059,1.8876,-1.8063,-1.5254,-1.4458], a=0.5, v=0.3, r=0.002)
  movej([0.1329,-1.2483,1.9362,-1.9124,-1.5254,-1.4458], a=0.5, v=0.3, r=0.002)
  movej([0.1329,-1.2094,1.9609,-1.9760,-1.5254,-1.4458], a=0.5, v=0.3, r=0.002)
  movej([0.1312,-1.2023,1.9711,-1.9933,-1.5261,-1.4475], a=0.5, v=0.3, r=0.002)
  movej([0.1240,-1.1979,1.9639,-1.9903,-1.5285,-1.4542], a=0.5, v=0.3, r=0.002)
  movej([0.1327,-1.1985,1.9651,-1.9912,-1.5255,-1.4460], a=0.5, v=0.3, r=0.002)
  movej([0.1328,-1.1987,1.9654,-1.9913,-1.5255,-1.4459], a=0.5, v=0.3)
  movej([0.1329,-1.3508,1.8323,-1.7061,-1.5255,-1.4459], a=0.97, v=1.1)
  movej([0.1329,-1.3508,1.8323,-1.7061,-1.5255,-1.4459], a=0.97, v=1.1)
  movej([0.1437,-1.3479,1.8287,-1.7059,-1.5218,-1.4356], a=0.97, v=1.1)
  movej([0.1437,-1.3479,1.8287,-1.7059,-1.5218,-1.4356], a=0.5, v=0.3, r=0.002)
  movej([0.1437,-1.3372,1.8430,-1.7309,-1.5218,-1.4356], a=0.5, v=0.3, r=0.002)
  movej([0.1437,-1.3022,1.8830,-1.8059,-1.5218,-1.4356], a=0.5, v=0.3, r=0.002)
  movej([0.1437,-1.2448,1.9315,-1.9118,-1.5218,-1.4356], a=0.5, v=0.3, r=0.002)
  movej([0.1437,-1.2061,1.9560,-1.9749,-1.5218,-1.4356], a=0.5, v=0.3, r=0.002)
  movej([0.1415,-1.1998,1.9674,-1.9925,-1.5225,-1.4377], a=0.5, v=0.3, r=0.002)
  movej([0.1330,-1.1985,1.9651,-1.9912,-1.5254,-1.4457], a=0.5, v=0.3, r=0.002)
  movej([0.1431,-1.1941,1.9585,-1.9894,-1.5220,-1.4362], a=0.5, v=0.3, r=0.002)
  movej([0.1436,-1.1955,1.9606,-1.9902,-1.5218,-1.4357], a=0.5, v=0.3)
  movej([0.1436,-1.3471,1.8277,-1.7057,-1.5218,-1.4357], a=0.97, v=1.1)
  movej([0.1971,-1.4150,1.9134,-1.7264,-1.5038,-1.3853], a=0.97, v=1.1)
  movej([0.1971,-1.4150,1.9134,-1.7264,-1.5038,-1.3853], a=0.5, v=0.3, r=0.002)
  movej([0.1971,-1.4041,1.9275,-1.7514,-1.5038,-1.3853], a=0.5, v=0.3, r=0.002)
  movej([0.1971,-1.3685,1.9670,-1.8264,-1.5038,-1.3853], a=0.5, v=0.3, r=0.002)
  movej([0.1971,-1.3091,2.0164,-1.9352,-1.5038,-1.3853], a=0.5, v=0.3, r=0.002)
  movej([0.1971,-1.2672,2.0426,-2.0033,-1.5038,-1.3853], a=0.5, v=0.3, r=0.002)
  movej([0.1961,-1.2594,2.0606,-2.0291,-1.5041,-1.3862], a=0.5, v=0.3, r=0.002)
  movej([0.1875,-1.2910,2.1072,-2.0436,-1.5070,-1.3944], a=0.5, v=0.3, r=0.002)
  movej([0.1593,-1.3378,2.1731,-2.0612,-1.5165,-1.4210], a=0.5, v=0.3, r=0.002)
  movej([0.1459,-1.3676,2.2136,-2.0712,-1.5211,-1.4336], a=0.5, v=0.3, r=0.002)
  movej([0.1506,-1.4189,2.2809,-2.0873,-1.5194,-1.4291], a=0.5, v=0.3, r=0.002)
  movej([0.1464,-1.4519,2.3215,-2.0948,-1.5209,-1.4331], a=0.5, v=0.3, r=0.002)
  movej([0.1150,-1.4979,2.3746,-2.1006,-1.5315,-1.4627], a=0.5, v=0.3, r=0.002)
  movej([0.1057,-1.5240,2.4034,-2.1029,-1.5347,-1.4715], a=0.5, v=0.3, r=0.002)
  movej([0.1059,-1.5132,2.3915,-2.1019,-1.5346,-1.4712], a=0.5, v=0.3, r=0.002)
  movej([0.1301,-1.4760,2.3498,-2.0983,-1.5264,-1.4485], a=0.5, v=0.3, r=0.002)
  movej([0.1529,-1.4371,2.3037,-2.0921,-1.5187,-1.4270], a=0.5, v=0.3, r=0.002)
  movej([0.1471,-1.3969,2.2524,-2.0808,-1.5207,-1.4325], a=0.5, v=0.3, r=0.002)
  movej([0.1460,-1.3568,2.1991,-2.0674,-1.5210,-1.4335], a=0.5, v=0.3, r=0.002)
  movej([0.1351,-1.3523,2.1926,-2.0650,-1.5247,-1.4438], a=0.5, v=0.3, r=0.002)
  movej([0.1199,-1.3742,2.2219,-2.0718,-1.5299,-1.4581], a=0.5, v=0.3, r=0.002)
  movej([0.1244,-1.4185,2.2796,-2.0854,-1.5284,-1.4538], a=0.5, v=0.3, r=0.002)
  movej([0.1205,-1.4552,2.3249,-2.0937,-1.5297,-1.4575], a=0.5, v=0.3, r=0.002)
  movej([0.0981,-1.4855,2.3602,-2.0980,-1.5373,-1.4786], a=0.5, v=0.3, r=0.002)
  movej([0.0795,-1.5174,2.3957,-2.1010,-1.5436,-1.4960], a=0.5, v=0.3, r=0.002)
  movej([0.0800,-1.5371,2.4169,-2.1026,-1.5435,-1.4956], a=0.5, v=0.3, r=0.002)
  movej([0.0806,-1.5149,2.3929,-2.1008,-1.5432,-1.4950], a=0.5, v=0.3, r=0.002)
  movej([0.1052,-1.4715,2.3440,-2.0960,-1.5349,-1.4719], a=0.5, v=0.3, r=0.002)
  movej([0.1209,-1.4391,2.3053,-2.0903,-1.5295,-1.4571], a=0.5, v=0.3, r=0.002)
  movej([0.1174,-1.3968,2.2517,-2.0788,-1.5307,-1.4604], a=0.5, v=0.3, r=0.002)
  movej([0.1159,-1.3709,2.2174,-2.0704,-1.5312,-1.4618], a=0.5, v=0.3, r=0.002)
  movej([0.0946,-1.3751,2.2227,-2.0707,-1.5385,-1.4819], a=0.5, v=0.3, r=0.002)
  movej([0.0512,-1.3976,2.2516,-2.0762,-1.5533,-1.5227], a=0.5, v=0.3, r=0.002)
  movej([0.0088,-1.4157,2.2747,-2.0808,-1.5678,-1.5625], a=0.5, v=0.3, r=0.002)
  movej([-0.0677,-1.4491,2.3166,-2.0900,-1.5939,-1.6344], a=0.5, v=0.3, r=0.002)
  movej([-0.1142,-1.4690,2.3412,-2.0961,-1.6098,-1.6782], a=0.5, v=0.3, r=0.002)
  movej([-0.1329,-1.5149,2.3939,-2.1036,-1.6161,-1.6957], a=0.5, v=0.3, r=0.002)
  movej([-0.1761,-1.5859,2.4688,-2.1096,-1.6308,-1.7365], a=0.5, v=0.3, r=0.002)
  movej([-0.2082,-1.6229,2.5048,-2.1106,-1.6415,-1.7667], a=0.5, v=0.3, r=0.002)
  movej([-0.2003,-1.6132,2.4956,-2.1106,-1.6389,-1.7593], a=0.5, v=0.3, r=0.002)
  movej([-0.1566,-1.5565,2.4389,-2.1080,-1.6242,-1.7181], a=0.5, v=0.3, r=0.002)
  movej([-0.1268,-1.4997,2.3769,-2.1015,-1.6141,-1.6901], a=0.5, v=0.3, r=0.002)
  movej([-0.1235,-1.4815,2.3560,-2.0988,-1.6129,-1.6869], a=0.5, v=0.3, r=0.002)
  movej([-0.1035,-1.4623,2.3331,-2.0943,-1.6061,-1.6681], a=0.5, v=0.3, r=0.002)
  movej([-0.0394,-1.4373,2.3019,-2.0866,-1.5843,-1.6078], a=0.5, v=0.3, r=0.002)
  movej([0.0077,-1.4168,2.2761,-2.0811,-1.5682,-1.5636], a=0.5, v=0.3, r=0.002)
  movej([0.0083,-1.4082,2.2652,-2.0787,-1.5679,-1.5630], a=0.5, v=0.3, r=0.002)
  movej([-0.0254,-1.4182,2.2779,-2.0816,-1.5795,-1.5946], a=0.5, v=0.3, r=0.002)
  movej([-0.0594,-1.4296,2.2926,-2.0853,-1.5911,-1.6266], a=0.5, v=0.3, r=0.002)
  movej([-0.1038,-1.4479,2.3157,-2.0913,-1.6062,-1.6683], a=0.5, v=0.3, r=0.002)
  movej([-0.1156,-1.4544,2.3239,-2.0934,-1.6103,-1.6795], a=0.5, v=0.3, r=0.002)
  movej([-0.1394,-1.4581,2.3289,-2.0957,-1.6183,-1.7018], a=0.5, v=0.3, r=0.002)
  movej([-0.1453,-1.4598,2.3310,-2.0964,-1.6203,-1.7074], a=0.5, v=0.3, r=0.002)
  movej([-0.1121,-1.4491,2.3173,-2.0920,-1.6091,-1.6762], a=0.5, v=0.3, r=0.002)
  movej([-0.0969,-1.4242,2.2863,-2.0854,-1.6039,-1.6619], a=0.5, v=0.3, r=0.002)
  movej([-0.0759,-1.4269,2.2894,-2.0851,-1.5967,-1.6422], a=0.5, v=0.3, r=0.002)
  movej([-0.0494,-1.4202,2.2807,-2.0826,-1.5877,-1.6172], a=0.5, v=0.3, r=0.002)
  movej([-0.0289,-1.4191,2.2791,-2.0819,-1.5807,-1.5980], a=0.5, v=0.3, r=0.002)
  movej([0.0237,-1.4010,2.2559,-2.0767,-1.5627,-1.5485], a=0.5, v=0.3, r=0.002)
  movej([0.0427,-1.3883,2.2395,-2.0732,-1.5562,-1.5307], a=0.5, v=0.3, r=0.002)
  movej([0.0549,-1.3800,2.2287,-2.0708,-1.5520,-1.5192], a=0.5, v=0.3, r=0.002)
  movej([0.0665,-1.3610,2.2032,-2.0647,-1.5481,-1.5083], a=0.5, v=0.3, r=0.002)
  movej([0.0608,-1.3393,2.1734,-2.0564,-1.5500,-1.5136], a=0.5, v=0.3, r=0.002)
  movej([0.0619,-1.3375,2.1709,-2.0557,-1.5496,-1.5126], a=0.5, v=0.3, r=0.002)
  movej([0.0660,-1.3582,2.1994,-2.0636,-1.5482,-1.5087], a=0.5, v=0.3, r=0.002)
  movej([0.0753,-1.3589,2.2005,-2.0642,-1.5451,-1.5000], a=0.5, v=0.3, r=0.002)
  movej([0.0652,-1.3706,2.2162,-2.0680,-1.5485,-1.5096], a=0.5, v=0.3, r=0.002)
  movej([0.0766,-1.3691,2.2143,-2.0679,-1.5446,-1.4988], a=0.5, v=0.3, r=0.002)
  movej([0.0908,-1.3631,2.2064,-2.0664,-1.5398,-1.4855], a=0.5, v=0.3, r=0.002)
  movej([0.0923,-1.3549,2.1953,-2.0635,-1.5393,-1.4840], a=0.5, v=0.3, r=0.002)
  movej([0.1044,-1.3492,2.1876,-2.0620,-1.5352,-1.4727], a=0.5, v=0.3, r=0.002)
  movej([0.1198,-1.3441,2.1810,-2.0609,-1.5299,-1.4582], a=0.5, v=0.3, r=0.002)
  movej([0.1236,-1.3324,2.1648,-2.0566,-1.5286,-1.4546], a=0.5, v=0.3, r=0.002)
  movej([0.1114,-1.3350,2.1681,-2.0568,-1.5328,-1.4661], a=0.5, v=0.3, r=0.002)
  movej([0.1241,-1.3304,2.1620,-2.0558,-1.5284,-1.4541], a=0.5, v=0.3, r=0.002)
  movej([0.1355,-1.3317,2.1641,-2.0570,-1.5246,-1.4434], a=0.5, v=0.3, r=0.002)
  movej([0.1455,-1.3081,2.1308,-2.0478,-1.5212,-1.4340], a=0.5, v=0.3, r=0.002)
  movej([0.1463,-1.3090,2.1321,-2.0483,-1.5209,-1.4332], a=0.5, v=0.3, r=0.002)
  movej([0.1290,-1.3390,2.1741,-2.0595,-1.5268,-1.4495], a=0.5, v=0.3, r=0.002)
  movej([0.0871,-1.3671,2.2118,-2.0676,-1.5410,-1.4889], a=0.5, v=0.3, r=0.002)
  movej([0.0728,-1.3816,2.2309,-2.0719,-1.5459,-1.5024], a=0.5, v=0.3, r=0.002)
  movej([0.0910,-1.3768,2.2248,-2.0711,-1.5397,-1.4852], a=0.5, v=0.3, r=0.002)
  movej([0.1071,-1.3716,2.2182,-2.0702,-1.5342,-1.4701], a=0.5, v=0.3, r=0.002)
  movej([0.1210,-1.3616,2.2050,-2.0674,-1.5295,-1.4571], a=0.5, v=0.3, r=0.002)
  movej([0.1123,-1.3618,2.2051,-2.0670,-1.5325,-1.4653], a=0.5, v=0.3, r=0.002)
  movej([0.1219,-1.3584,2.2006,-2.0663,-1.5292,-1.4562], a=0.5, v=0.3, r=0.002)
  movej([0.1379,-1.3482,2.1870,-2.0636,-1.5238,-1.4411], a=0.5, v=0.3, r=0.002)
  movej([0.1604,-1.3352,2.1696,-2.0603,-1.5162,-1.4199], a=0.5, v=0.3, r=0.002)
  movej([0.1750,-1.3074,2.1306,-2.0499,-1.5112,-1.4061], a=0.5, v=0.3, r=0.002)
  movej([0.1874,-1.2899,2.1057,-2.0431,-1.5070,-1.3945], a=0.5, v=0.3, r=0.002)
  movej([0.1966,-1.2547,2.0536,-2.0269,-1.5039,-1.3858], a=0.5, v=0.3, r=0.002)
  movej([0.1838,-1.2216,2.0026,-2.0082,-1.5083,-1.3979], a=0.5, v=0.3, r=0.002)
  movej([0.1674,-1.2088,1.9822,-1.9996,-1.5138,-1.4134], a=0.5, v=0.3, r=0.002)
  movej([0.1682,-1.2017,1.9711,-1.9957,-1.5135,-1.4126], a=0.5, v=0.3, r=0.002)
  movej([0.1493,-1.1925,1.9561,-1.9889,-1.5199,-1.4304], a=0.5, v=0.3, r=0.002)
  movej([0.1411,-1.2035,1.9732,-1.9946,-1.5227,-1.4381], a=0.5, v=0.3, r=0.002)
  movej([0.1541,-1.2047,1.9754,-1.9963,-1.5183,-1.4259], a=0.5, v=0.3, r=0.002)
  movej([0.1544,-1.2065,1.9783,-1.9973,-1.5182,-1.4256], a=0.5, v=0.3, r=0.002)
  movej([0.1370,-1.2043,1.9743,-1.9948,-1.5241,-1.4420], a=0.5, v=0.3, r=0.002)
  movej([0.1199,-1.2002,1.9675,-1.9913,-1.5299,-1.4581], a=0.5, v=0.3, r=0.002)
  movej([0.0965,-1.2059,1.9761,-1.9934,-1.5378,-1.4800], a=0.5, v=0.3, r=0.002)
  movej([0.0743,-1.2156,1.9909,-1.9979,-1.5454,-1.5010], a=0.5, v=0.3, r=0.002)
  movej([0.0476,-1.2208,1.9988,-2.0000,-1.5545,-1.5261], a=0.5, v=0.3, r=0.002)
  movej([0.0104,-1.2325,2.0166,-2.0058,-1.5672,-1.5610], a=0.5, v=0.3, r=0.002)
  movej([0.0038,-1.2482,2.0406,-2.0141,-1.5695,-1.5672], a=0.5, v=0.3, r=0.002)
  movej([0.0246,-1.2440,2.0342,-2.0120,-1.5624,-1.5477], a=0.5, v=0.3, r=0.002)
  movej([0.0732,-1.2299,2.0130,-2.0057,-1.5458,-1.5020], a=0.5, v=0.3, r=0.002)
  movej([0.1082,-1.2225,2.0022,-2.0033,-1.5338,-1.4691], a=0.5, v=0.3, r=0.002)
  movej([0.1261,-1.2280,2.0109,-2.0073,-1.5278,-1.4522], a=0.5, v=0.3, r=0.002)
  movej([0.1090,-1.2231,2.0031,-2.0036,-1.5336,-1.4683], a=0.5, v=0.3, r=0.002)
  movej([0.0751,-1.2302,2.0135,-2.0059,-1.5451,-1.5002], a=0.5, v=0.3, r=0.002)
  movej([0.0528,-1.2391,2.0269,-2.0100,-1.5528,-1.5212], a=0.5, v=0.3, r=0.002)
  movej([0.0607,-1.2570,2.0542,-2.0195,-1.5501,-1.5138], a=0.5, v=0.3, r=0.002)
  movej([0.0570,-1.2913,2.1049,-2.0359,-1.5513,-1.5172], a=0.5, v=0.3, r=0.002)
  movej([0.0600,-1.2581,2.0557,-2.0199,-1.5503,-1.5144], a=0.5, v=0.3, r=0.002)
  movej([0.0532,-1.2425,2.0321,-2.0118,-1.5526,-1.5208], a=0.5, v=0.3, r=0.002)
  movej([0.0445,-1.2455,2.0366,-2.0131,-1.5556,-1.5289], a=0.5, v=0.3, r=0.002)
  movej([0.0423,-1.2390,2.0266,-2.0097,-1.5563,-1.5310], a=0.5, v=0.3, r=0.002)
  movej([0.0055,-1.2508,2.0444,-2.0154,-1.5689,-1.5656], a=0.5, v=0.3, r=0.002)
  movej([-0.0339,-1.2713,2.0753,-2.0259,-1.5824,-1.6026], a=0.5, v=0.3, r=0.002)
  movej([-0.0219,-1.2580,2.0554,-2.0192,-1.5783,-1.5914], a=0.5, v=0.3, r=0.002)
  movej([-0.0452,-1.2674,2.0696,-2.0242,-1.5862,-1.6132], a=0.5, v=0.3, r=0.002)
  movej([-0.0665,-1.2748,2.0808,-2.0284,-1.5935,-1.6333], a=0.5, v=0.3, r=0.002)
  movej([-0.0729,-1.2532,2.0486,-2.0179,-1.5957,-1.6393], a=0.5, v=0.3, r=0.002)
  movej([-0.0894,-1.2004,1.9674,-1.9899,-1.6013,-1.6548], a=0.5, v=0.3, r=0.002)
  movej([-0.1070,-1.1537,1.8929,-1.9627,-1.6073,-1.6714], a=0.5, v=0.3, r=0.002)
  movej([-0.1275,-1.1341,1.8611,-1.9514,-1.6143,-1.6907], a=0.5, v=0.3, r=0.002)
  movej([-0.1172,-1.1421,1.8741,-1.9559,-1.6108,-1.6810], a=0.5, v=0.3, r=0.002)
  movej([-0.0968,-1.1750,1.9270,-1.9753,-1.6038,-1.6618], a=0.5, v=0.3, r=0.002)
  movej([-0.0803,-1.2324,2.0169,-2.0073,-1.5982,-1.6463], a=0.5, v=0.3, r=0.002)
  movej([-0.0689,-1.2686,2.0715,-2.0254,-1.5943,-1.6355], a=0.5, v=0.3, r=0.002)
  movej([-0.0567,-1.2729,2.0778,-2.0272,-1.5902,-1.6241], a=0.5, v=0.3, r=0.002)
  movej([-0.0216,-1.2560,2.0524,-2.0182,-1.5782,-1.5911], a=0.5, v=0.3, r=0.002)
  movej([-0.0202,-1.2456,2.0366,-2.0128,-1.5777,-1.5898], a=0.5, v=0.3, r=0.002)
  movej([-0.0423,-1.2417,2.0307,-2.0111,-1.5853,-1.6106], a=0.5, v=0.3, r=0.002)
  movej([-0.0555,-1.2577,2.0551,-2.0196,-1.5898,-1.6229], a=0.5, v=0.3, r=0.002)
  movej([-0.0601,-1.2550,2.0511,-2.0184,-1.5913,-1.6272], a=0.5, v=0.3, r=0.002)
  movej([-0.0445,-1.2369,2.0234,-2.0086,-1.5860,-1.6126], a=0.5, v=0.3, r=0.002)
  movej([-0.0222,-1.2390,2.0266,-2.0094,-1.5784,-1.5917], a=0.5, v=0.3, r=0.002)
  movej([0.0214,-1.2295,2.0120,-2.0043,-1.5635,-1.5507], a=0.5, v=0.3, r=0.002)
  movej([0.0586,-1.2181,1.9947,-1.9988,-1.5508,-1.5157], a=0.5, v=0.3, r=0.002)
  movej([0.0772,-1.2152,1.9904,-1.9978,-1.5444,-1.4982], a=0.5, v=0.3, r=0.002)
  movej([0.1125,-1.2002,1.9674,-1.9910,-1.5324,-1.4651], a=0.5, v=0.3, r=0.002)
  movej([0.1477,-1.1918,1.9550,-1.9884,-1.5204,-1.4318], a=0.5, v=0.3, r=0.002)
  movej([0.1692,-1.2034,1.9737,-1.9967,-1.5132,-1.4116], a=0.5, v=0.3, r=0.002)
  movej([0.1913,-1.2367,2.0261,-2.0170,-1.5057,-1.3908], a=0.5, v=0.3, r=0.002)
  movej([0.1970,-1.2519,2.0495,-2.0255,-1.5038,-1.3854], a=0.5, v=0.3)
  movej([0.1970,-1.4142,1.9125,-1.7262,-1.5038,-1.3854], a=0.97, v=1.1)
  movej([0.1740,-1.4735,1.9809,-1.7341,-1.5115,-1.4071], a=0.97, v=1.1)
  movej([0.1740,-1.4735,1.9809,-1.7341,-1.5115,-1.4071], a=0.5, v=0.3, r=0.002)
  movej([0.1740,-1.4625,1.9950,-1.7591,-1.5115,-1.4071], a=0.5, v=0.3, r=0.002)
  movej([0.1740,-1.4268,2.0343,-1.8341,-1.5115,-1.4071], a=0.5, v=0.3, r=0.002)
  movej([0.1740,-1.3654,2.0850,-1.9462,-1.5115,-1.4071], a=0.5, v=0.3, r=0.002)
  movej([0.1740,-1.3195,2.1135,-2.0206,-1.5115,-1.4071], a=0.5, v=0.3, r=0.002)
  movej([0.1689,-1.3052,2.1270,-2.0481,-1.5133,-1.4119], a=0.5, v=0.3, r=0.002)
  movej([0.1728,-1.3020,2.1227,-2.0473,-1.5119,-1.4082], a=0.5, v=0.3, r=0.002)
  movej([0.1730,-1.3019,2.1226,-2.0473,-1.5119,-1.4081], a=0.5, v=0.3)
  movej([0.1730,-1.4733,1.9807,-1.7340,-1.5119,-1.4081], a=0.97, v=1.1)
  movej([0.1642,-1.4935,2.0030,-1.7356,-1.5148,-1.4163], a=0.97, v=1.1)
  movej([0.1642,-1.4935,2.0030,-1.7356,-1.5148,-1.4163], a=0.5, v=0.3, r=0.002)
  movej([0.1642,-1.4825,2.0170,-1.7606,-1.5148,-1.4163], a=0.5, v=0.3, r=0.002)
  movej([0.1642,-1.4468,2.0563,-1.8356,-1.5148,-1.4163], a=0.5, v=0.3, r=0.002)
  movej([0.1642,-1.3847,2.1076,-1.9490,-1.5148,-1.4163], a=0.5, v=0.3, r=0.002)
  movej([0.1642,-1.3372,2.1371,-2.0259,-1.5148,-1.4163], a=0.5, v=0.3, r=0.002)
  movej([0.1628,-1.3204,2.1484,-2.0541,-1.5153,-1.4177], a=0.5, v=0.3, r=0.002)
  movej([0.1594,-1.3260,2.1567,-2.0565,-1.5165,-1.4208], a=0.5, v=0.3, r=0.002)
  movej([0.1652,-1.3184,2.1461,-2.0538,-1.5145,-1.4154], a=0.5, v=0.3)
  movej([0.1652,-1.4929,2.0024,-1.7356,-1.5145,-1.4154], a=0.97, v=1.1)

  movej([1.0470,-1.5700,1.5700,-1.5700,-1.5700,0.0000], a=0.97, v=1.1)
end