def draw_face():
  set_tcp(p[0.0376,0.0000,-0.1034,0.0000,0.3491,0.0000])

  movej([1.0470,-1.5700,1.5700,-1.5700,-1.5700,0.0000], a=0.97, v=1.1)

  movej([0.1789,-1.6492,2.1860,-1.7637,-1.5099,-1.4024], a=0.97, v=1.1)
  movej([0.1789,-1.6492,2.1860,-1.7637,-1.5099,-1.4024], a=0.5, v=0.3, r=0.002)
  movej([0.1789,-1.6376,2.1995,-1.7887,-1.5099,-1.4024], a=0.5, v=0.3, r=0.002)
  movej([0.1789,-1.6006,2.2374,-1.8637,-1.5099,-1.4024], a=0.5, v=0.3, r=0.002)
  movej([0.1789,-1.5330,2.2902,-1.9840,-1.5099,-1.4024], a=0.5, v=0.3, r=0.002)
  movej([0.1789,-1.4735,2.3249,-2.0783,-1.5099,-1.4024], a=0.5, v=0.3, r=0.002)
  movej([0.1786,-1.4437,2.3400,-2.1231,-1.5100,-1.4027], a=0.5, v=0.3, r=0.002)
  movej([0.1726,-1.4475,2.3542,-2.1332,-1.5120,-1.4085], a=0.5, v=0.3, r=0.002)
  movej([0.1774,-1.4405,2.3458,-2.1320,-1.5104,-1.4038], a=0.5, v=0.3)
  movej([0.1774,-1.6528,2.1893,-1.7632,-1.5104,-1.4038], a=0.97, v=1.1)
  movej([0.1782,-1.6116,2.1514,-1.7666,-1.5101,-1.4031], a=0.97, v=1.1)
  movej([0.1782,-1.6116,2.1514,-1.7666,-1.5101,-1.4031], a=0.5, v=0.3, r=0.002)
  movej([0.1782,-1.6001,2.1649,-1.7916,-1.5101,-1.4031], a=0.5, v=0.3, r=0.002)
  movej([0.1782,-1.5629,2.2027,-1.8666,-1.5101,-1.4031], a=0.5, v=0.3, r=0.002)
  movej([0.1782,-1.4957,2.2547,-1.9858,-1.5101,-1.4031], a=0.5, v=0.3, r=0.002)
  movej([0.1782,-1.4381,2.2880,-2.0767,-1.5101,-1.4031], a=0.5, v=0.3, r=0.002)
  movej([0.1781,-1.4105,2.3015,-2.1178,-1.5102,-1.4032], a=0.5, v=0.3, r=0.002)
  movej([0.1671,-1.4237,2.3243,-2.1268,-1.5139,-1.4136], a=0.5, v=0.3, r=0.002)
  movej([0.1237,-1.4570,2.3644,-2.1316,-1.5286,-1.4545], a=0.5, v=0.3, r=0.002)
  movej([0.0704,-1.4868,2.3986,-2.1344,-1.5467,-1.5047], a=0.5, v=0.3, r=0.002)
  movej([-0.0075,-1.5154,2.4305,-2.1368,-1.5734,-1.5779], a=0.5, v=0.3, r=0.002)
  movej([-0.0607,-1.5263,2.4427,-2.1388,-1.5916,-1.6279], a=0.5, v=0.3, r=0.002)
  movej([-0.0731,-1.5257,2.4422,-2.1392,-1.5958,-1.6395], a=0.5, v=0.3, r=0.002)
  movej([-0.0391,-1.5251,2.4413,-2.1381,-1.5842,-1.6075], a=0.5, v=0.3, r=0.002)
  movej([0.0243,-1.5042,2.4181,-2.1357,-1.5625,-1.5479], a=0.5, v=0.3, r=0.002)
  movej([0.1071,-1.4679,2.3771,-2.1328,-1.5342,-1.4701], a=0.5, v=0.3, r=0.002)
  movej([0.1596,-1.4295,2.3314,-2.1277,-1.5164,-1.4207], a=0.5, v=0.3, r=0.002)
  movej([0.1776,-1.4052,2.3008,-2.1225,-1.5103,-1.4037], a=0.5, v=0.3, r=0.002)
  movej([0.1778,-1.4049,2.3005,-2.1224,-1.5103,-1.4035], a=0.5, v=0.3)
  movej([0.1778,-1.6094,2.1493,-1.7667,-1.5103,-1.4035], a=0.97, v=1.1)
  movej([0.1170,-1.6032,2.1421,-1.7629,-1.5309,-1.4608], a=0.97, v=1.1)
  movej([0.1170,-1.6032,2.1421,-1.7629,-1.5309,-1.4608], a=0.5, v=0.3, r=0.002)
  movej([0.1170,-1.5916,2.1556,-1.7879,-1.5309,-1.4608], a=0.5, v=0.3, r=0.002)
  movej([0.1170,-1.5545,2.1934,-1.8629,-1.5309,-1.4608], a=0.5, v=0.3, r=0.002)
  movej([0.1170,-1.4876,2.2453,-1.9816,-1.5309,-1.4608], a=0.5, v=0.3, r=0.002)
  movej([0.1170,-1.4309,2.2782,-2.0713,-1.5309,-1.4608], a=0.5, v=0.3, r=0.002)
  movej([0.1170,-1.4040,2.2910,-2.1110,-1.5309,-1.4608], a=0.5, v=0.3, r=0.002)
  movej([0.1152,-1.3876,2.2760,-2.1122,-1.5315,-1.4625], a=0.5, v=0.3, r=0.002)
  movej([0.1154,-1.3946,2.2852,-2.1145,-1.5314,-1.4623], a=0.5, v=0.3, r=0.002)
  movej([0.1137,-1.4240,2.3233,-2.1230,-1.5320,-1.4639], a=0.5, v=0.3, r=0.002)
  movej([0.1137,-1.4209,2.3193,-2.1222,-1.5320,-1.4639], a=0.5, v=0.3, r=0.002)
  movej([0.1173,-1.4022,2.2953,-2.1170,-1.5308,-1.4605], a=0.5, v=0.3, r=0.002)
  movej([0.1173,-1.4022,2.2952,-2.1170,-1.5308,-1.4605], a=0.5, v=0.3)
  movej([0.1173,-1.6054,2.1442,-1.7628,-1.5308,-1.4605], a=0.97, v=1.1)
  movej([0.1016,-1.6048,2.1435,-1.7620,-1.5361,-1.4753], a=0.97, v=1.1)
  movej([0.1016,-1.6048,2.1435,-1.7620,-1.5361,-1.4753], a=0.5, v=0.3, r=0.002)
  movej([0.1016,-1.5933,2.1569,-1.7870,-1.5361,-1.4753], a=0.5, v=0.3, r=0.002)
  movej([0.1016,-1.5562,2.1948,-1.8620,-1.5361,-1.4753], a=0.5, v=0.3, r=0.002)
  movej([0.1016,-1.4894,2.2467,-1.9807,-1.5361,-1.4753], a=0.5, v=0.3, r=0.002)
  movej([0.1016,-1.4328,2.2795,-2.0701,-1.5361,-1.4753], a=0.5, v=0.3, r=0.002)
  movej([0.1013,-1.4066,2.2937,-2.1105,-1.5362,-1.4756], a=0.5, v=0.3, r=0.002)
  movej([0.0954,-1.4230,2.3216,-2.1218,-1.5382,-1.4812], a=0.5, v=0.3, r=0.002)
  movej([0.0844,-1.4597,2.3668,-2.1300,-1.5420,-1.4915], a=0.5, v=0.3, r=0.002)
  movej([0.0724,-1.4731,2.3826,-2.1321,-1.5461,-1.5028], a=0.5, v=0.3, r=0.002)
  movej([0.0900,-1.4479,2.3525,-2.1277,-1.5401,-1.4862], a=0.5, v=0.3, r=0.002)
  movej([0.0961,-1.4125,2.3082,-2.1189,-1.5380,-1.4804], a=0.5, v=0.3, r=0.002)
  movej([0.1001,-1.4046,2.2981,-2.1168,-1.5366,-1.4767], a=0.5, v=0.3, r=0.002)
  movej([0.1001,-1.4046,2.2981,-2.1168,-1.5366,-1.4767], a=0.5, v=0.3)
  movej([0.1001,-1.6082,2.1467,-1.7618,-1.5366,-1.4767], a=0.97, v=1.1)
  movej([0.0406,-1.6486,2.1834,-1.7568,-1.5569,-1.5326], a=0.97, v=1.1)
  movej([0.0406,-1.6486,2.1834,-1.7568,-1.5569,-1.5326], a=0.5, v=0.3, r=0.002)
  movej([0.0406,-1.6371,2.1969,-1.7818,-1.5569,-1.5326], a=0.5, v=0.3, r=0.002)
  movej([0.0406,-1.6002,2.2350,-1.8568,-1.5569,-1.5326], a=0.5, v=0.3, r=0.002)
  movej([0.0406,-1.5327,2.2879,-1.9772,-1.5569,-1.5326], a=0.5, v=0.3, r=0.002)
  movej([0.0406,-1.4729,2.3229,-2.0720,-1.5569,-1.5326], a=0.5, v=0.3, r=0.002)
  movej([0.0406,-1.4428,2.3375,-2.1168,-1.5569,-1.5326], a=0.5, v=0.3, r=0.002)
  movej([0.0363,-1.4322,2.3325,-2.1222,-1.5584,-1.5367], a=0.5, v=0.3, r=0.002)
  movej([0.0235,-1.4395,2.3415,-2.1238,-1.5628,-1.5487], a=0.5, v=0.3, r=0.002)
  movej([0.0235,-1.4243,2.3224,-2.1199,-1.5628,-1.5487], a=0.5, v=0.3, r=0.002)
  movej([0.0222,-1.4347,2.3354,-2.1226,-1.5632,-1.5499], a=0.5, v=0.3, r=0.002)
  movej([0.0327,-1.4386,2.3405,-2.1237,-1.5596,-1.5401], a=0.5, v=0.3, r=0.002)
  movej([0.0404,-1.4388,2.3407,-2.1239,-1.5570,-1.5328], a=0.5, v=0.3, r=0.002)
  movej([0.0340,-1.4556,2.3613,-2.1276,-1.5592,-1.5389], a=0.5, v=0.3, r=0.002)
  movej([0.0402,-1.4414,2.3439,-2.1245,-1.5571,-1.5330], a=0.5, v=0.3, r=0.002)
  movej([0.0407,-1.4401,2.3423,-2.1242,-1.5569,-1.5325], a=0.5, v=0.3)
  movej([0.0407,-1.6512,2.1857,-1.7565,-1.5569,-1.5325], a=0.97, v=1.1)
  movej([0.0634,-1.7353,2.2564,-1.7435,-1.5491,-1.5112], a=0.97, v=1.1)
  movej([0.0634,-1.7353,2.2564,-1.7435,-1.5491,-1.5112], a=0.5, v=0.3, r=0.002)
  movej([0.0634,-1.7239,2.2700,-1.7685,-1.5491,-1.5112], a=0.5, v=0.3, r=0.002)
  movej([0.0634,-1.6874,2.3085,-1.8435,-1.5491,-1.5112], a=0.5, v=0.3, r=0.002)
  movej([0.0634,-1.6194,2.3634,-1.9663,-1.5491,-1.5112], a=0.5, v=0.3, r=0.002)
  movej([0.0634,-1.5541,2.4025,-2.0708,-1.5491,-1.5112], a=0.5, v=0.3, r=0.002)
  movej([0.0634,-1.5175,2.4203,-2.1252,-1.5491,-1.5112], a=0.5, v=0.3, r=0.002)
  movej([0.0575,-1.4996,2.4131,-2.1358,-1.5511,-1.5167], a=0.5, v=0.3, r=0.002)
  movej([0.0570,-1.5012,2.4150,-2.1360,-1.5513,-1.5173], a=0.5, v=0.3, r=0.002)
  movej([0.0568,-1.5169,2.4325,-2.1378,-1.5514,-1.5174], a=0.5, v=0.3, r=0.002)
  movej([0.0098,-1.5274,2.4436,-2.1380,-1.5675,-1.5616], a=0.5, v=0.3, r=0.002)
  movej([-0.0280,-1.5292,2.4457,-2.1383,-1.5804,-1.5971], a=0.5, v=0.3, r=0.002)
  movej([-0.0177,-1.5294,2.4458,-2.1382,-1.5769,-1.5874], a=0.5, v=0.3, r=0.002)
  movej([0.0309,-1.5264,2.4426,-2.1381,-1.5602,-1.5418], a=0.5, v=0.3, r=0.002)
  movej([0.0627,-1.5119,2.4270,-2.1375,-1.5494,-1.5118], a=0.5, v=0.3, r=0.002)
  movej([0.0636,-1.5115,2.4265,-2.1374,-1.5491,-1.5110], a=0.5, v=0.3)
  movej([0.0636,-1.7380,2.2585,-1.7429,-1.5491,-1.5110], a=0.97, v=1.1)
  movej([-0.0768,-1.7807,2.2908,-1.7328,-1.5970,-1.6430], a=0.97, v=1.1)
  movej([-0.0768,-1.7807,2.2908,-1.7328,-1.5970,-1.6430], a=0.5, v=0.3, r=0.002)
  movej([-0.0768,-1.7695,2.3046,-1.7578,-1.5970,-1.6430], a=0.5, v=0.3, r=0.002)
  movej([-0.0768,-1.7333,2.3434,-1.8328,-1.5970,-1.6430], a=0.5, v=0.3, r=0.002)
  movej([-0.0768,-1.6654,2.3992,-1.9565,-1.5970,-1.6430], a=0.5, v=0.3, r=0.002)
  movej([-0.0768,-1.5976,2.4404,-2.0655,-1.5970,-1.6430], a=0.5, v=0.3, r=0.002)
  movej([-0.0768,-1.5580,2.4599,-2.1246,-1.5970,-1.6430], a=0.5, v=0.3, r=0.002)
  movej([-0.0788,-1.5555,2.4738,-2.1410,-1.5977,-1.6448], a=0.5, v=0.3, r=0.002)
  movej([-0.0866,-1.5890,2.5074,-2.1413,-1.6004,-1.6522], a=0.5, v=0.3, r=0.002)
  movej([-0.0894,-1.5892,2.5076,-2.1414,-1.6013,-1.6549], a=0.5, v=0.3, r=0.002)
  movej([-0.0794,-1.5517,2.4699,-2.1409,-1.5979,-1.6454], a=0.5, v=0.3, r=0.002)
  movej([-0.0886,-1.5377,2.4554,-2.1407,-1.6011,-1.6541], a=0.5, v=0.3, r=0.002)
  movej([-0.1326,-1.5294,2.4475,-2.1427,-1.6160,-1.6955], a=0.5, v=0.3, r=0.002)
  movej([-0.1736,-1.4997,2.4159,-2.1427,-1.6299,-1.7341], a=0.5, v=0.3, r=0.002)
  movej([-0.1880,-1.4718,2.3841,-2.1397,-1.6348,-1.7477], a=0.5, v=0.3, r=0.002)
  movej([-0.1822,-1.4843,2.3985,-2.1413,-1.6328,-1.7423], a=0.5, v=0.3, r=0.002)
  movej([-0.1457,-1.5203,2.4379,-2.1428,-1.6205,-1.7078], a=0.5, v=0.3, r=0.002)
  movej([-0.0997,-1.5353,2.4531,-2.1411,-1.6048,-1.6645], a=0.5, v=0.3, r=0.002)
  movej([-0.0773,-1.5398,2.4575,-2.1404,-1.5972,-1.6435], a=0.5, v=0.3, r=0.002)
  movej([-0.0766,-1.5445,2.4624,-2.1406,-1.5970,-1.6428], a=0.5, v=0.3)
  movej([-0.0766,-1.7777,2.2887,-1.7336,-1.5970,-1.6428], a=0.97, v=1.1)
  movej([-0.0766,-1.7777,2.2887,-1.7336,-1.5970,-1.6428], a=0.97, v=1.1)
  movej([-0.0857,-1.7876,2.2959,-1.7312,-1.6001,-1.6514], a=0.97, v=1.1)
  movej([-0.0857,-1.7876,2.2959,-1.7312,-1.6001,-1.6514], a=0.5, v=0.3, r=0.002)
  movej([-0.0857,-1.7764,2.3097,-1.7562,-1.6001,-1.6514], a=0.5, v=0.3, r=0.002)
  movej([-0.0857,-1.7403,2.3486,-1.8312,-1.6001,-1.6514], a=0.5, v=0.3, r=0.002)
  movej([-0.0857,-1.6723,2.4046,-1.9551,-1.6001,-1.6514], a=0.5, v=0.3, r=0.002)
  movej([-0.0857,-1.6037,2.4464,-2.0655,-1.6001,-1.6514], a=0.5, v=0.3, r=0.002)
  movej([-0.0857,-1.5633,2.4662,-2.1259,-1.6001,-1.6514], a=0.5, v=0.3, r=0.002)
  movej([-0.0852,-1.5467,2.4648,-2.1410,-1.5999,-1.6509], a=0.5, v=0.3, r=0.002)
  movej([-0.0860,-1.5550,2.4735,-2.1414,-1.6002,-1.6516], a=0.5, v=0.3)
  movej([-0.0860,-1.7904,2.2979,-1.7304,-1.6002,-1.6516], a=0.97, v=1.1)
  movej([-0.1156,-1.8322,2.3272,-1.7188,-1.6103,-1.6795], a=0.97, v=1.1)
  movej([-0.1156,-1.8322,2.3272,-1.7188,-1.6103,-1.6795], a=0.5, v=0.3, r=0.002)
  movej([-0.1156,-1.8212,2.3411,-1.7438,-1.6103,-1.6795], a=0.5, v=0.3, r=0.002)
  movej([-0.1156,-1.7855,2.3804,-1.8188,-1.6103,-1.6795], a=0.5, v=0.3, r=0.002)
  movej([-0.1156,-1.7178,2.4373,-1.9434,-1.6103,-1.6795], a=0.5, v=0.3, r=0.002)
  movej([-0.1156,-1.6465,2.4815,-2.0588,-1.6103,-1.6795], a=0.5, v=0.3, r=0.002)
  movej([-0.1156,-1.6028,2.5032,-2.1243,-1.6103,-1.6795], a=0.5, v=0.3, r=0.002)
  movej([-0.1231,-1.5868,2.5060,-2.1434,-1.6128,-1.6866], a=0.5, v=0.3, r=0.002)
  movej([-0.1587,-1.5651,2.4855,-2.1462,-1.6249,-1.7201], a=0.5, v=0.3, r=0.002)
  movej([-0.1527,-1.5714,2.4917,-2.1457,-1.6228,-1.7144], a=0.5, v=0.3, r=0.002)
  movej([-0.1164,-1.5906,2.5095,-2.1428,-1.6105,-1.6802], a=0.5, v=0.3, r=0.002)
  movej([-0.1136,-1.5919,2.5107,-2.1426,-1.6096,-1.6776], a=0.5, v=0.3)
  movej([-0.1136,-1.8344,2.3286,-1.7180,-1.6096,-1.6776], a=0.97, v=1.1)
  movej([-0.1785,-1.7734,2.2873,-1.7407,-1.6315,-1.7387], a=0.97, v=1.1)
  movej([-0.1785,-1.7734,2.2873,-1.7407,-1.6315,-1.7387], a=0.5, v=0.3, r=0.002)
  movej([-0.1785,-1.7621,2.3010,-1.7657,-1.6315,-1.7387], a=0.5, v=0.3, r=0.002)
  movej([-0.1785,-1.7258,2.3397,-1.8407,-1.6315,-1.7387], a=0.5, v=0.3, r=0.002)
  movej([-0.1785,-1.6576,2.3952,-1.9644,-1.6315,-1.7387], a=0.5, v=0.3, r=0.002)
  movej([-0.1785,-1.5897,2.4362,-2.0733,-1.6315,-1.7387], a=0.5, v=0.3, r=0.002)
  movej([-0.1785,-1.5501,2.4555,-2.1322,-1.6315,-1.7387], a=0.5, v=0.3, r=0.002)
  movej([-0.1825,-1.5318,2.4516,-2.1469,-1.6329,-1.7425], a=0.5, v=0.3, r=0.002)
  movej([-0.1802,-1.5381,2.4583,-2.1471,-1.6321,-1.7403], a=0.5, v=0.3)
  movej([-0.1802,-1.7713,2.2858,-1.7414,-1.6321,-1.7403], a=0.97, v=1.1)
  movej([-0.1915,-1.7332,2.2570,-1.7514,-1.6359,-1.7510], a=0.97, v=1.1)
  movej([-0.1915,-1.7332,2.2570,-1.7514,-1.6359,-1.7510], a=0.5, v=0.3, r=0.002)
  movej([-0.1915,-1.7218,2.2706,-1.7764,-1.6359,-1.7510], a=0.5, v=0.3, r=0.002)
  movej([-0.1915,-1.6851,2.3090,-1.8514,-1.6359,-1.7510], a=0.5, v=0.3, r=0.002)
  movej([-0.1915,-1.6168,2.3636,-1.9744,-1.6359,-1.7510], a=0.5, v=0.3, r=0.002)
  movej([-0.1915,-1.5510,2.4027,-2.0793,-1.6359,-1.7510], a=0.5, v=0.3, r=0.002)
  movej([-0.1915,-1.5140,2.4206,-2.1342,-1.6359,-1.7510], a=0.5, v=0.3, r=0.002)
  movej([-0.1927,-1.5009,2.4180,-2.1447,-1.6363,-1.7521], a=0.5, v=0.3, r=0.002)
  movej([-0.1910,-1.5041,2.4215,-2.1450,-1.6358,-1.7505], a=0.5, v=0.3)
  movej([-0.1910,-1.7304,2.2548,-1.7520,-1.6358,-1.7505], a=0.97, v=1.1)
  movej([-0.1962,-1.6624,2.1982,-1.7637,-1.6375,-1.7555], a=0.97, v=1.1)
  movej([-0.1962,-1.6624,2.1982,-1.7637,-1.6375,-1.7555], a=0.5, v=0.3, r=0.002)
  movej([-0.1962,-1.6509,2.2117,-1.7887,-1.6375,-1.7555], a=0.5, v=0.3, r=0.002)
  movej([-0.1962,-1.6139,2.2497,-1.8637,-1.6375,-1.7555], a=0.5, v=0.3, r=0.002)
  movej([-0.1962,-1.5460,2.3028,-1.9847,-1.6375,-1.7555], a=0.5, v=0.3, r=0.002)
  movej([-0.1962,-1.4849,2.3384,-2.0814,-1.6375,-1.7555], a=0.5, v=0.3, r=0.002)
  movej([-0.1962,-1.4533,2.3535,-2.1281,-1.6375,-1.7555], a=0.5, v=0.3, r=0.002)
  movej([-0.1951,-1.4429,2.3494,-2.1343,-1.6372,-1.7544], a=0.5, v=0.3, r=0.002)
  movej([-0.1958,-1.4460,2.3532,-2.1351,-1.6374,-1.7550], a=0.5, v=0.3)
  movej([-0.1958,-1.6598,2.1959,-1.7640,-1.6374,-1.7550], a=0.97, v=1.1)
  movej([-0.1954,-1.6468,2.1843,-1.7654,-1.6372,-1.7547], a=0.97, v=1.1)
  movej([-0.1954,-1.6468,2.1843,-1.7654,-1.6372,-1.7547], a=0.5, v=0.3, r=0.002)
  movej([-0.1954,-1.6352,2.1978,-1.7904,-1.6372,-1.7547], a=0.5, v=0.3, r=0.002)
  movej([-0.1954,-1.5981,2.2357,-1.8654,-1.6372,-1.7547], a=0.5, v=0.3, r=0.002)
  movej([-0.1954,-1.5306,2.2883,-1.9855,-1.6372,-1.7547], a=0.5, v=0.3, r=0.002)
  movej([-0.1954,-1.4714,2.3228,-2.0792,-1.6372,-1.7547], a=0.5, v=0.3, r=0.002)
  movej([-0.1953,-1.4414,2.3367,-2.1232,-1.6372,-1.7546], a=0.5, v=0.3, r=0.002)
  movej([-0.1916,-1.4173,2.3170,-2.1273,-1.6360,-1.7511], a=0.5, v=0.3, r=0.002)
  movej([-0.1923,-1.4204,2.3210,-2.1282,-1.6362,-1.7517], a=0.5, v=0.3, r=0.002)
  movej([-0.1949,-1.4331,2.3371,-2.1319,-1.6371,-1.7542], a=0.5, v=0.3)
  movej([-0.1949,-1.6440,2.1818,-1.7656,-1.6371,-1.7542], a=0.97, v=1.1)
  movej([-0.1847,-1.5933,2.1341,-1.7680,-1.6336,-1.7446], a=0.97, v=1.1)
  movej([-0.1847,-1.5933,2.1341,-1.7680,-1.6336,-1.7446], a=0.5, v=0.3, r=0.002)
  movej([-0.1847,-1.5818,2.1475,-1.7930,-1.6336,-1.7446], a=0.5, v=0.3, r=0.002)
  movej([-0.1847,-1.5445,2.1853,-1.8679,-1.6336,-1.7446], a=0.5, v=0.3, r=0.002)
  movej([-0.1847,-1.4776,2.2368,-1.9864,-1.6336,-1.7446], a=0.5, v=0.3, r=0.002)
  movej([-0.1847,-1.4213,2.2693,-2.0752,-1.6336,-1.7446], a=0.5, v=0.3, r=0.002)
  movej([-0.1847,-1.3949,2.2818,-2.1141,-1.6336,-1.7445], a=0.5, v=0.3, r=0.002)
  movej([-0.1839,-1.3876,2.2780,-2.1175,-1.6334,-1.7438], a=0.5, v=0.3, r=0.002)
  movej([-0.1842,-1.3895,2.2805,-2.1182,-1.6335,-1.7441], a=0.5, v=0.3)
  movej([-0.1842,-1.5907,2.1315,-1.7680,-1.6335,-1.7442], a=0.97, v=1.1)
  movej([-0.1491,-1.4950,2.0314,-1.7617,-1.6216,-1.7110], a=0.97, v=1.1)
  movej([-0.1491,-1.4950,2.0314,-1.7617,-1.6216,-1.7110], a=0.5, v=0.3, r=0.002)
  movej([-0.1491,-1.4835,2.0449,-1.7867,-1.6216,-1.7110], a=0.5, v=0.3, r=0.002)
  movej([-0.1491,-1.4462,2.0827,-1.8617,-1.6216,-1.7110], a=0.5, v=0.3, r=0.002)
  movej([-0.1491,-1.3818,2.1321,-1.9755,-1.6216,-1.7110], a=0.5, v=0.3, r=0.002)
  movej([-0.1491,-1.3324,2.1604,-2.0533,-1.6216,-1.7110], a=0.5, v=0.3, r=0.002)
  movej([-0.1513,-1.3156,2.1754,-2.0852,-1.6224,-1.7131], a=0.5, v=0.3, r=0.002)
  movej([-0.1515,-1.3140,2.1746,-2.0860,-1.6224,-1.7133], a=0.5, v=0.3, r=0.002)
  movej([-0.1488,-1.3092,2.1677,-2.0837,-1.6215,-1.7107], a=0.5, v=0.3)
  movej([-0.1488,-1.4925,2.0287,-1.7614,-1.6215,-1.7107], a=0.97, v=1.1)
  movej([-0.1300,-1.4804,2.0148,-1.7589,-1.6151,-1.6930], a=0.97, v=1.1)
  movej([-0.1300,-1.4804,2.0148,-1.7589,-1.6151,-1.6930], a=0.5, v=0.3, r=0.002)
  movej([-0.1300,-1.4689,2.0283,-1.7839,-1.6151,-1.6930], a=0.5, v=0.3, r=0.002)
  movej([-0.1300,-1.4317,2.0661,-1.8589,-1.6151,-1.6930], a=0.5, v=0.3, r=0.002)
  movej([-0.1300,-1.3675,2.1154,-1.9723,-1.6151,-1.6930], a=0.5, v=0.3, r=0.002)
  movej([-0.1300,-1.3187,2.1434,-2.0492,-1.6151,-1.6930], a=0.5, v=0.3, r=0.002)
  movej([-0.1350,-1.3028,2.1574,-2.0793,-1.6168,-1.6977], a=0.5, v=0.3, r=0.002)
  movej([-0.1300,-1.2983,2.1513,-2.0774,-1.6151,-1.6930], a=0.5, v=0.3, r=0.002)
  movej([-0.1280,-1.2969,2.1492,-2.0766,-1.6145,-1.6912], a=0.5, v=0.3)
  movej([-0.1280,-1.4774,2.0115,-1.7584,-1.6145,-1.6912], a=0.97, v=1.1)
  movej([-0.1280,-1.4774,2.0115,-1.7584,-1.6145,-1.6912], a=0.97, v=1.1)
  movej([-0.1167,-1.4741,2.0075,-1.7573,-1.6106,-1.6805], a=0.97, v=1.1)
  movej([-0.1167,-1.4741,2.0075,-1.7573,-1.6106,-1.6805], a=0.5, v=0.3, r=0.002)
  movej([-0.1167,-1.4626,2.0210,-1.7823,-1.6106,-1.6805], a=0.5, v=0.3, r=0.002)
  movej([-0.1167,-1.4254,2.0589,-1.8573,-1.6106,-1.6805], a=0.5, v=0.3, r=0.002)
  movej([-0.1167,-1.3616,2.1079,-1.9702,-1.6106,-1.6805], a=0.5, v=0.3, r=0.002)
  movej([-0.1167,-1.3135,2.1355,-2.0460,-1.6106,-1.6805], a=0.5, v=0.3, r=0.002)
  movej([-0.1209,-1.2985,2.1507,-2.0763,-1.6121,-1.6845], a=0.5, v=0.3, r=0.002)
  movej([-0.1473,-1.3223,2.1865,-2.0894,-1.6210,-1.7093], a=0.5, v=0.3, r=0.002)
  movej([-0.1560,-1.3341,2.2035,-2.0951,-1.6240,-1.7175], a=0.5, v=0.3, r=0.002)
  movej([-0.1385,-1.3150,2.1758,-2.0856,-1.6180,-1.7010], a=0.5, v=0.3, r=0.002)
  movej([-0.1170,-1.2963,2.1480,-2.0756,-1.6107,-1.6808], a=0.5, v=0.3, r=0.002)
  movej([-0.1169,-1.2962,2.1479,-2.0756,-1.6107,-1.6807], a=0.5, v=0.3)
  movej([-0.1169,-1.4765,2.0102,-1.7577,-1.6107,-1.6807], a=0.97, v=1.1)
  movej([-0.0760,-1.4314,1.9576,-1.7489,-1.5968,-1.6422], a=0.97, v=1.1)
  movej([-0.0760,-1.4314,1.9576,-1.7489,-1.5968,-1.6422], a=0.5, v=0.3, r=0.002)
  movej([-0.0760,-1.4200,1.9712,-1.7739,-1.5968,-1.6422], a=0.5, v=0.3, r=0.002)
  movej([-0.0760,-1.3830,2.0092,-1.8489,-1.5968,-1.6422], a=0.5, v=0.3, r=0.002)
  movej([-0.0760,-1.3205,2.0574,-1.9595,-1.5968,-1.6422], a=0.5, v=0.3, r=0.002)
  movej([-0.0760,-1.2752,2.0835,-2.0309,-1.5968,-1.6422], a=0.5, v=0.3, r=0.002)
  movej([-0.0826,-1.2646,2.1000,-2.0583,-1.5990,-1.6485], a=0.5, v=0.3, r=0.002)
  movej([-0.1120,-1.2853,2.1317,-2.0701,-1.6090,-1.6761], a=0.5, v=0.3, r=0.002)
  movej([-0.1326,-1.2940,2.1449,-2.0755,-1.6160,-1.6955], a=0.5, v=0.3, r=0.002)
  movej([-0.0952,-1.2759,2.1173,-2.0646,-1.6033,-1.6603], a=0.5, v=0.3, r=0.002)
  movej([-0.0745,-1.2604,2.0936,-2.0558,-1.5963,-1.6409], a=0.5, v=0.3)
  movej([-0.0745,-1.4330,1.9595,-1.7491,-1.5963,-1.6409], a=0.97, v=1.1)
  movej([-0.0825,-1.4156,1.9388,-1.7460,-1.5990,-1.6483], a=0.97, v=1.1)
  movej([-0.0825,-1.4156,1.9388,-1.7460,-1.5990,-1.6483], a=0.5, v=0.3, r=0.002)
  movej([-0.0825,-1.4042,1.9524,-1.7710,-1.5990,-1.6483], a=0.5, v=0.3, r=0.002)
  movej([-0.0825,-1.3673,1.9905,-1.8460,-1.5990,-1.6483], a=0.5, v=0.3, r=0.002)
  movej([-0.0825,-1.3053,2.0384,-1.9559,-1.5990,-1.6483], a=0.5, v=0.3, r=0.002)
  movej([-0.0825,-1.2609,2.0640,-2.0260,-1.5990,-1.6483], a=0.5, v=0.3, r=0.002)
  movej([-0.0835,-1.2441,2.0687,-2.0474,-1.5993,-1.6492], a=0.5, v=0.3, r=0.002)
  movej([-0.0872,-1.2418,2.0653,-2.0465,-1.6006,-1.6527], a=0.5, v=0.3, r=0.002)
  movej([-0.0823,-1.2439,2.0685,-2.0474,-1.5989,-1.6482], a=0.5, v=0.3)
  movej([-0.0823,-1.4132,1.9360,-1.7456,-1.5989,-1.6482], a=0.97, v=1.1)
  movej([-0.0823,-1.4132,1.9360,-1.7456,-1.5989,-1.6482], a=0.97, v=1.1)
  movej([-0.0916,-1.4163,1.9397,-1.7466,-1.6021,-1.6569], a=0.97, v=1.1)
  movej([-0.0916,-1.4163,1.9397,-1.7466,-1.6021,-1.6569], a=0.5, v=0.3, r=0.002)
  movej([-0.0916,-1.4049,1.9534,-1.7716,-1.6021,-1.6569], a=0.5, v=0.3, r=0.002)
  movej([-0.0916,-1.3680,1.9914,-1.8466,-1.6021,-1.6569], a=0.5, v=0.3, r=0.002)
  movej([-0.0916,-1.3059,2.0393,-1.9565,-1.6021,-1.6569], a=0.5, v=0.3, r=0.002)
  movej([-0.0916,-1.2613,2.0650,-2.0268,-1.6021,-1.6569], a=0.5, v=0.3, r=0.002)
  movej([-0.0933,-1.2446,2.0696,-2.0482,-1.6027,-1.6585], a=0.5, v=0.3, r=0.002)
  movej([-0.0965,-1.2488,2.0762,-2.0507,-1.6038,-1.6615], a=0.5, v=0.3, r=0.002)
  movej([-0.0918,-1.2484,2.0755,-2.0502,-1.6022,-1.6571], a=0.5, v=0.3)
  movej([-0.0918,-1.4186,1.9426,-1.7470,-1.6022,-1.6571], a=0.97, v=1.1)
  movej([-0.1053,-1.4182,1.9423,-1.7476,-1.6067,-1.6698], a=0.97, v=1.1)
  movej([-0.1053,-1.4182,1.9423,-1.7476,-1.6067,-1.6698], a=0.5, v=0.3, r=0.002)
  movej([-0.1053,-1.4068,1.9559,-1.7726,-1.6067,-1.6698], a=0.5, v=0.3, r=0.002)
  movej([-0.1053,-1.3699,1.9940,-1.8476,-1.6067,-1.6698], a=0.5, v=0.3, r=0.002)
  movej([-0.1053,-1.3079,2.0418,-1.9574,-1.6067,-1.6698], a=0.5, v=0.3, r=0.002)
  movej([-0.1053,-1.2635,2.0674,-2.0274,-1.6067,-1.6698], a=0.5, v=0.3, r=0.002)
  movej([-0.1094,-1.2536,2.0838,-2.0539,-1.6082,-1.6737], a=0.5, v=0.3, r=0.002)
  movej([-0.1297,-1.2806,2.1250,-2.0688,-1.6151,-1.6928], a=0.5, v=0.3, r=0.002)
  movej([-0.1367,-1.2895,2.1384,-2.0737,-1.6174,-1.6993], a=0.5, v=0.3, r=0.002)
  movej([-0.1190,-1.2664,2.1034,-2.0610,-1.6114,-1.6827], a=0.5, v=0.3, r=0.002)
  movej([-0.1071,-1.2503,2.0788,-2.0520,-1.6074,-1.6715], a=0.5, v=0.3)
  movej([-0.1071,-1.4211,1.9457,-1.7482,-1.6074,-1.6715], a=0.97, v=1.1)
  movej([-0.0936,-1.4034,1.9242,-1.7439,-1.6028,-1.6588], a=0.97, v=1.1)
  movej([-0.0936,-1.4034,1.9242,-1.7439,-1.6028,-1.6588], a=0.5, v=0.3, r=0.002)
  movej([-0.0936,-1.3921,1.9379,-1.7689,-1.6028,-1.6588], a=0.5, v=0.3, r=0.002)
  movej([-0.0936,-1.3552,1.9760,-1.8439,-1.6028,-1.6588], a=0.5, v=0.3, r=0.002)
  movej([-0.0936,-1.2936,2.0236,-1.9531,-1.6028,-1.6588], a=0.5, v=0.3, r=0.002)
  movej([-0.0936,-1.2501,2.0488,-2.0218,-1.6028,-1.6588], a=0.5, v=0.3, r=0.002)
  movej([-0.0973,-1.2400,2.0626,-2.0458,-1.6040,-1.6623], a=0.5, v=0.3, r=0.002)
  movej([-0.0923,-1.2339,2.0532,-2.0424,-1.6023,-1.6575], a=0.5, v=0.3, r=0.002)
  movej([-0.0919,-1.2335,2.0525,-2.0421,-1.6022,-1.6571], a=0.5, v=0.3)
  movej([-0.0919,-1.4007,1.9209,-1.7433,-1.6022,-1.6571], a=0.97, v=1.1)
  movej([-0.0919,-1.4007,1.9209,-1.7433,-1.6022,-1.6571], a=0.97, v=1.1)
  movej([-0.0838,-1.3915,1.9094,-1.7408,-1.5994,-1.6496], a=0.97, v=1.1)
  movej([-0.0838,-1.3915,1.9094,-1.7408,-1.5994,-1.6496], a=0.5, v=0.3, r=0.002)
  movej([-0.0838,-1.3801,1.9231,-1.7658,-1.5994,-1.6496], a=0.5, v=0.3, r=0.002)
  movej([-0.0838,-1.3434,1.9613,-1.8408,-1.5994,-1.6496], a=0.5, v=0.3, r=0.002)
  movej([-0.0838,-1.2820,2.0088,-1.9496,-1.5994,-1.6496], a=0.5, v=0.3, r=0.002)
  movej([-0.0838,-1.2389,2.0337,-2.0176,-1.5994,-1.6496], a=0.5, v=0.3, r=0.002)
  movej([-0.0862,-1.2281,2.0441,-2.0389,-1.6002,-1.6518], a=0.5, v=0.3, r=0.002)
  movej([-0.0821,-1.2234,2.0366,-2.0360,-1.5989,-1.6480], a=0.5, v=0.3)
  movej([-0.0821,-1.3886,1.9059,-1.7401,-1.5989,-1.6480], a=0.97, v=1.1)
  movej([-0.0821,-1.3886,1.9059,-1.7401,-1.5989,-1.6480], a=0.97, v=1.1)
  movej([-0.0743,-1.3816,1.8971,-1.7381,-1.5962,-1.6406], a=0.97, v=1.1)
  movej([-0.0743,-1.3816,1.8971,-1.7381,-1.5962,-1.6406], a=0.5, v=0.3, r=0.002)
  movej([-0.0743,-1.3703,1.9108,-1.7631,-1.5962,-1.6406], a=0.5, v=0.3, r=0.002)
  movej([-0.0743,-1.3336,1.9491,-1.8381,-1.5962,-1.6406], a=0.5, v=0.3, r=0.002)
  movej([-0.0743,-1.2726,1.9964,-1.9465,-1.5962,-1.6406], a=0.5, v=0.3, r=0.002)
  movej([-0.0743,-1.2299,2.0211,-2.0138,-1.5962,-1.6406], a=0.5, v=0.3, r=0.002)
  movej([-0.0767,-1.2192,2.0300,-2.0335,-1.5970,-1.6429], a=0.5, v=0.3, r=0.002)
  movej([-0.0727,-1.2152,2.0237,-2.0310,-1.5956,-1.6391], a=0.5, v=0.3)
  movej([-0.0727,-1.3788,1.8936,-1.7374,-1.5956,-1.6391], a=0.97, v=1.1)
  movej([-0.0044,-1.3227,1.8211,-1.7201,-1.5723,-1.5749], a=0.97, v=1.1)
  movej([-0.0044,-1.3227,1.8211,-1.7201,-1.5723,-1.5749], a=0.5, v=0.3, r=0.002)
  movej([-0.0044,-1.3116,1.8350,-1.7451,-1.5723,-1.5749], a=0.5, v=0.3, r=0.002)
  movej([-0.0044,-1.2753,1.8737,-1.8201,-1.5723,-1.5749], a=0.5, v=0.3, r=0.002)
  movej([-0.0044,-1.2165,1.9199,-1.9251,-1.5723,-1.5749], a=0.5, v=0.3, r=0.002)
  movej([-0.0044,-1.1776,1.9428,-1.9869,-1.5723,-1.5749], a=0.5, v=0.3, r=0.002)
  movej([-0.0062,-1.1688,1.9488,-2.0017,-1.5729,-1.5767], a=0.5, v=0.3, r=0.002)
  movej([-0.0029,-1.1676,1.9469,-2.0010,-1.5718,-1.5735], a=0.5, v=0.3)
  movej([-0.0029,-1.3221,1.8203,-1.7199,-1.5718,-1.5735], a=0.97, v=1.1)
  movej([0.0557,-1.3701,1.8824,-1.7346,-1.5518,-1.5185], a=0.97, v=1.1)
  movej([0.0557,-1.3701,1.8824,-1.7346,-1.5518,-1.5185], a=0.5, v=0.3, r=0.002)
  movej([0.0557,-1.3588,1.8962,-1.7596,-1.5518,-1.5185], a=0.5, v=0.3, r=0.002)
  movej([0.0557,-1.3222,1.9345,-1.8346,-1.5518,-1.5185], a=0.5, v=0.3, r=0.002)
  movej([0.0557,-1.2617,1.9816,-1.9421,-1.5518,-1.5185], a=0.5, v=0.3, r=0.002)
  movej([0.0557,-1.2201,2.0058,-2.0080,-1.5518,-1.5185], a=0.5, v=0.3, r=0.002)
  movej([0.0498,-1.2103,2.0157,-2.0275,-1.5538,-1.5240], a=0.5, v=0.3, r=0.002)
  movej([0.0560,-1.2078,2.0117,-2.0262,-1.5517,-1.5182], a=0.5, v=0.3, r=0.002)
  movej([0.0572,-1.2073,2.0110,-2.0259,-1.5512,-1.5171], a=0.5, v=0.3)
  movej([0.0572,-1.3693,1.8815,-1.7344,-1.5512,-1.5171], a=0.97, v=1.1)
  movej([0.0572,-1.3693,1.8815,-1.7344,-1.5512,-1.5171], a=0.97, v=1.1)
  movej([0.0629,-1.3621,1.8724,-1.7327,-1.5493,-1.5117], a=0.97, v=1.1)
  movej([0.0629,-1.3621,1.8724,-1.7327,-1.5493,-1.5117], a=0.5, v=0.3, r=0.002)
  movej([0.0629,-1.3509,1.8862,-1.7577,-1.5493,-1.5117], a=0.5, v=0.3, r=0.002)
  movej([0.0629,-1.3143,1.9246,-1.8327,-1.5493,-1.5117], a=0.5, v=0.3, r=0.002)
  movej([0.0629,-1.2542,1.9714,-1.9396,-1.5493,-1.5117], a=0.5, v=0.3, r=0.002)
  movej([0.0629,-1.2133,1.9953,-2.0044,-1.5493,-1.5117], a=0.5, v=0.3, r=0.002)
  movej([0.0555,-1.2039,2.0055,-2.0239,-1.5518,-1.5186], a=0.5, v=0.3, r=0.002)
  movej([0.0171,-1.2205,2.0315,-2.0328,-1.5649,-1.5547], a=0.5, v=0.3, r=0.002)
  movej([-0.0323,-1.2430,2.0667,-2.0455,-1.5818,-1.6011], a=0.5, v=0.3, r=0.002)
  movej([-0.0658,-1.2545,2.0844,-2.0524,-1.5933,-1.6327], a=0.5, v=0.3, r=0.002)
  movej([-0.0732,-1.2444,2.0691,-2.0473,-1.5958,-1.6396], a=0.5, v=0.3, r=0.002)
  movej([-0.0741,-1.2386,2.0601,-2.0442,-1.5961,-1.6404], a=0.5, v=0.3, r=0.002)
  movej([-0.0686,-1.2548,2.0849,-2.0527,-1.5942,-1.6353], a=0.5, v=0.3, r=0.002)
  movej([-0.0432,-1.2461,2.0714,-2.0474,-1.5856,-1.6114], a=0.5, v=0.3, r=0.002)
  movej([0.0067,-1.2268,2.0414,-2.0363,-1.5685,-1.5645], a=0.5, v=0.3, r=0.002)
  movej([0.0519,-1.2051,2.0074,-2.0245,-1.5531,-1.5221], a=0.5, v=0.3, r=0.002)
  movej([0.0643,-1.2007,2.0005,-2.0222,-1.5488,-1.5104], a=0.5, v=0.3)
  movej([0.0643,-1.3614,1.8716,-1.7325,-1.5488,-1.5104], a=0.97, v=1.1)
  movej([0.0643,-1.3614,1.8716,-1.7325,-1.5488,-1.5104], a=0.97, v=1.1)
  movej([0.0663,-1.3692,1.8815,-1.7347,-1.5481,-1.5085], a=0.97, v=1.1)
  movej([0.0663,-1.3692,1.8815,-1.7347,-1.5481,-1.5085], a=0.5, v=0.3, r=0.002)
  movej([0.0663,-1.3579,1.8952,-1.7597,-1.5481,-1.5085], a=0.5, v=0.3, r=0.002)
  movej([0.0663,-1.3213,1.9335,-1.8347,-1.5481,-1.5085], a=0.5, v=0.3, r=0.002)
  movej([0.0663,-1.2607,1.9806,-1.9423,-1.5481,-1.5085], a=0.5, v=0.3, r=0.002)
  movej([0.0663,-1.2190,2.0048,-2.0082,-1.5481,-1.5085], a=0.5, v=0.3, r=0.002)
  movej([0.0645,-1.2059,2.0089,-2.0253,-1.5487,-1.5101], a=0.5, v=0.3, r=0.002)
  movej([0.0664,-1.2090,2.0138,-2.0272,-1.5481,-1.5084], a=0.5, v=0.3)
  movej([0.0664,-1.3714,1.8842,-1.7352,-1.5481,-1.5084], a=0.97, v=1.1)
  movej([-0.0450,-1.5491,2.0876,-1.7606,-1.5862,-1.6131], a=0.97, v=1.1)
  movej([-0.0450,-1.5491,2.0876,-1.7606,-1.5862,-1.6131], a=0.5, v=0.3, r=0.002)
  movej([-0.0450,-1.5376,2.1011,-1.7856,-1.5862,-1.6131], a=0.5, v=0.3, r=0.002)
  movej([-0.0450,-1.5004,2.1389,-1.8606,-1.5862,-1.6131], a=0.5, v=0.3, r=0.002)
  movej([-0.0450,-1.4348,2.1896,-1.9768,-1.5862,-1.6131], a=0.5, v=0.3, r=0.002)
  movej([-0.0450,-1.3821,2.2200,-2.0599,-1.5862,-1.6131], a=0.5, v=0.3, r=0.002)
  movej([-0.0449,-1.3581,2.2300,-2.0939,-1.5862,-1.6130], a=0.5, v=0.3, r=0.002)
  movej([-0.0448,-1.3522,2.2268,-2.0966,-1.5861,-1.6129], a=0.5, v=0.3, r=0.002)
  movej([-0.0474,-1.3615,2.2396,-2.1002,-1.5870,-1.6154], a=0.5, v=0.3, r=0.002)
  movej([-0.0451,-1.3582,2.2351,-2.0990,-1.5862,-1.6132], a=0.5, v=0.3)
  movej([-0.0451,-1.5514,2.0900,-1.7606,-1.5862,-1.6132], a=0.97, v=1.1)
  movej([-0.0136,-1.5242,2.0614,-1.7590,-1.5755,-1.5836], a=0.97, v=1.1)
  movej([-0.0136,-1.5242,2.0614,-1.7590,-1.5755,-1.5836], a=0.5, v=0.3, r=0.002)
  movej([-0.0136,-1.5127,2.0749,-1.7840,-1.5755,-1.5836], a=0.5, v=0.3, r=0.002)
  movej([-0.0136,-1.4755,2.1127,-1.8590,-1.5755,-1.5836], a=0.5, v=0.3, r=0.002)
  movej([-0.0136,-1.4101,2.1631,-1.9747,-1.5755,-1.5836], a=0.5, v=0.3, r=0.002)
  movej([-0.0136,-1.3582,2.1929,-2.0565,-1.5755,-1.5836], a=0.5, v=0.3, r=0.002)
  movej([-0.0140,-1.3369,2.2039,-2.0888,-1.5756,-1.5840], a=0.5, v=0.3, r=0.002)
  movej([-0.0280,-1.3344,2.2018,-2.0892,-1.5804,-1.5971], a=0.5, v=0.3, r=0.002)
  movej([-0.0381,-1.3356,2.2035,-2.0899,-1.5838,-1.6066], a=0.5, v=0.3, r=0.002)
  movej([-0.0175,-1.3376,2.2063,-2.0904,-1.5768,-1.5872], a=0.5, v=0.3, r=0.002)
  movej([-0.0154,-1.3383,2.2073,-2.0907,-1.5761,-1.5853], a=0.5, v=0.3)
  movej([-0.0154,-1.5272,2.0646,-1.7592,-1.5761,-1.5853], a=0.97, v=1.1)
  movej([0.0451,-1.4489,1.9779,-1.7510,-1.5554,-1.5284], a=0.97, v=1.1)
  movej([0.0451,-1.4489,1.9779,-1.7510,-1.5554,-1.5284], a=0.5, v=0.3, r=0.002)
  movej([0.0451,-1.4375,1.9915,-1.7760,-1.5554,-1.5284], a=0.5, v=0.3, r=0.002)
  movej([0.0451,-1.4005,2.0295,-1.8510,-1.5554,-1.5284], a=0.5, v=0.3, r=0.002)
  movej([0.0451,-1.3375,2.0780,-1.9626,-1.5554,-1.5284], a=0.5, v=0.3, r=0.002)
  movej([0.0451,-1.2910,2.1048,-2.0358,-1.5554,-1.5284], a=0.5, v=0.3, r=0.002)
  movej([0.0447,-1.2773,2.1183,-2.0630,-1.5555,-1.5288], a=0.5, v=0.3, r=0.002)
  movej([0.0360,-1.2796,2.1222,-2.0645,-1.5585,-1.5369], a=0.5, v=0.3, r=0.002)
  movej([0.0296,-1.2946,2.1444,-2.0717,-1.5607,-1.5430], a=0.5, v=0.3, r=0.002)
  movej([0.0295,-1.2932,2.1423,-2.0710,-1.5607,-1.5431], a=0.5, v=0.3, r=0.002)
  movej([0.0368,-1.2780,2.1198,-2.0637,-1.5582,-1.5362], a=0.5, v=0.3, r=0.002)
  movej([0.0441,-1.2734,2.1130,-2.0616,-1.5557,-1.5294], a=0.5, v=0.3, r=0.002)
  movej([0.0376,-1.2690,2.1063,-2.0592,-1.5579,-1.5354], a=0.5, v=0.3, r=0.002)
  movej([0.0356,-1.2655,2.1009,-2.0574,-1.5586,-1.5374], a=0.5, v=0.3, r=0.002)
  movej([0.0377,-1.2601,2.0928,-2.0547,-1.5579,-1.5354], a=0.5, v=0.3, r=0.002)
  movej([0.0380,-1.2483,2.0748,-2.0485,-1.5578,-1.5351], a=0.5, v=0.3, r=0.002)
  movej([0.0414,-1.2649,2.1001,-2.0572,-1.5566,-1.5319], a=0.5, v=0.3, r=0.002)
  movej([0.0450,-1.2718,2.1105,-2.0608,-1.5554,-1.5285], a=0.5, v=0.3)
  movej([0.0450,-1.4467,1.9753,-1.7507,-1.5554,-1.5285], a=0.97, v=1.1)
  movej([0.0812,-1.4284,1.9541,-1.7485,-1.5431,-1.4945], a=0.97, v=1.1)
  movej([0.0812,-1.4284,1.9541,-1.7485,-1.5431,-1.4945], a=0.5, v=0.3, r=0.002)
  movej([0.0812,-1.4170,1.9677,-1.7735,-1.5431,-1.4945], a=0.5, v=0.3, r=0.002)
  movej([0.0812,-1.3800,2.0057,-1.8485,-1.5431,-1.4945], a=0.5, v=0.3, r=0.002)
  movej([0.0812,-1.3177,2.0538,-1.9588,-1.5431,-1.4945], a=0.5, v=0.3, r=0.002)
  movej([0.0812,-1.2728,2.0797,-2.0297,-1.5431,-1.4945], a=0.5, v=0.3, r=0.002)
  movej([0.0807,-1.2545,2.0840,-2.0523,-1.5432,-1.4950], a=0.5, v=0.3, r=0.002)
  movej([0.0738,-1.2387,2.0604,-2.0443,-1.5456,-1.5014], a=0.5, v=0.3, r=0.002)
  movej([0.0749,-1.2415,2.0647,-2.0458,-1.5452,-1.5004], a=0.5, v=0.3, r=0.002)
  movej([0.0789,-1.2655,2.1014,-2.0586,-1.5438,-1.4967], a=0.5, v=0.3, r=0.002)
  movej([0.0763,-1.2818,2.1258,-2.0667,-1.5447,-1.4990], a=0.5, v=0.3, r=0.002)
  movej([0.0797,-1.2676,2.1045,-2.0597,-1.5436,-1.4959], a=0.5, v=0.3, r=0.002)
  movej([0.0813,-1.2584,2.0906,-2.0550,-1.5430,-1.4944], a=0.5, v=0.3)
  movej([0.0813,-1.4306,1.9567,-1.7489,-1.5430,-1.4944], a=0.97, v=1.1)
  movej([0.0891,-1.4467,1.9757,-1.7520,-1.5403,-1.4870], a=0.97, v=1.1)
  movej([0.0891,-1.4467,1.9757,-1.7520,-1.5403,-1.4870], a=0.5, v=0.3, r=0.002)
  movej([0.0891,-1.4353,1.9893,-1.7770,-1.5403,-1.4870], a=0.5, v=0.3, r=0.002)
  movej([0.0891,-1.3982,2.0273,-1.8520,-1.5403,-1.4870], a=0.5, v=0.3, r=0.002)
  movej([0.0891,-1.3353,2.0757,-1.9634,-1.5403,-1.4870], a=0.5, v=0.3, r=0.002)
  movej([0.0891,-1.2892,2.1023,-2.0361,-1.5403,-1.4870], a=0.5, v=0.3, r=0.002)
  movej([0.0881,-1.2701,2.1075,-2.0604,-1.5407,-1.4880], a=0.5, v=0.3, r=0.002)
  movej([0.0890,-1.2728,2.1126,-2.0628,-1.5404,-1.4871], a=0.5, v=0.3, r=0.002)
  movej([0.0893,-1.2735,2.1137,-2.0632,-1.5403,-1.4868], a=0.5, v=0.3)
  movej([0.0893,-1.4489,1.9783,-1.7524,-1.5403,-1.4868], a=0.97, v=1.1)
  movej([0.1128,-1.4179,1.9421,-1.7479,-1.5323,-1.4647], a=0.97, v=1.1)
  movej([0.1128,-1.4179,1.9421,-1.7479,-1.5323,-1.4647], a=0.5, v=0.3, r=0.002)
  movej([0.1128,-1.4066,1.9557,-1.7729,-1.5323,-1.4647], a=0.5, v=0.3, r=0.002)
  movej([0.1128,-1.3696,1.9937,-1.8479,-1.5323,-1.4647], a=0.5, v=0.3, r=0.002)
  movej([0.1128,-1.3078,2.0414,-1.9574,-1.5323,-1.4647], a=0.5, v=0.3, r=0.002)
  movej([0.1128,-1.2639,2.0668,-2.0268,-1.5323,-1.4647], a=0.5, v=0.3, r=0.002)
  movej([0.1119,-1.2450,2.0698,-2.0486,-1.5326,-1.4656], a=0.5, v=0.3, r=0.002)
  movej([0.1126,-1.2493,2.0773,-2.0518,-1.5324,-1.4649], a=0.5, v=0.3, r=0.002)
  movej([0.1114,-1.2869,2.1340,-2.0708,-1.5328,-1.4661], a=0.5, v=0.3, r=0.002)
  movej([0.1119,-1.2755,2.1169,-2.0652,-1.5326,-1.4656], a=0.5, v=0.3, r=0.002)
  movej([0.1130,-1.2505,2.0791,-2.0524,-1.5322,-1.4646], a=0.5, v=0.3, r=0.002)
  movej([0.1131,-1.2494,2.0775,-2.0519,-1.5322,-1.4645], a=0.5, v=0.3)
  movej([0.1131,-1.4200,1.9445,-1.7483,-1.5322,-1.4645], a=0.97, v=1.1)
  movej([0.0967,-1.4201,1.9444,-1.7475,-1.5378,-1.4799], a=0.97, v=1.1)
  movej([0.0967,-1.4201,1.9444,-1.7475,-1.5378,-1.4799], a=0.5, v=0.3, r=0.002)
  movej([0.0967,-1.4087,1.9580,-1.7725,-1.5378,-1.4799], a=0.5, v=0.3, r=0.002)
  movej([0.0967,-1.3718,1.9961,-1.8475,-1.5378,-1.4799], a=0.5, v=0.3, r=0.002)
  movej([0.0967,-1.3098,2.0439,-1.9574,-1.5378,-1.4799], a=0.5, v=0.3, r=0.002)
  movej([0.0967,-1.2655,2.0695,-2.0273,-1.5378,-1.4799], a=0.5, v=0.3, r=0.002)
  movej([0.0957,-1.2554,2.0861,-2.0539,-1.5381,-1.4808], a=0.5, v=0.3, r=0.002)
  movej([0.0904,-1.2869,2.1337,-2.0698,-1.5399,-1.4858], a=0.5, v=0.3, r=0.002)
  movej([0.0938,-1.2668,2.1035,-2.0599,-1.5387,-1.4826], a=0.5, v=0.3, r=0.002)
  movej([0.0940,-1.2384,2.0601,-2.0449,-1.5387,-1.4824], a=0.5, v=0.3, r=0.002)
  movej([0.0727,-1.2292,2.0456,-2.0390,-1.5460,-1.5025], a=0.5, v=0.3, r=0.002)
  movej([0.0789,-1.2285,2.0446,-2.0388,-1.5439,-1.4967], a=0.5, v=0.3, r=0.002)
  movej([0.0957,-1.2401,2.0628,-2.0459,-1.5381,-1.4809], a=0.5, v=0.3, r=0.002)
  movej([0.0965,-1.2478,2.0746,-2.0501,-1.5378,-1.4801], a=0.5, v=0.3)
  movej([0.0965,-1.4179,1.9418,-1.7471,-1.5378,-1.4801], a=0.97, v=1.1)
  movej([0.0986,-1.2975,1.7882,-1.7139,-1.5371,-1.4781], a=0.97, v=1.1)
  movej([0.0986,-1.2975,1.7882,-1.7139,-1.5371,-1.4781], a=0.5, v=0.3, r=0.002)
  movej([0.0986,-1.2865,1.8021,-1.7389,-1.5371,-1.4781], a=0.5, v=0.3, r=0.002)
  movej([0.0986,-1.2504,1.8410,-1.8139,-1.5371,-1.4781], a=0.5, v=0.3, r=0.002)
  movej([0.0986,-1.1927,1.8867,-1.9173,-1.5371,-1.4781], a=0.5, v=0.3, r=0.002)
  movej([0.0986,-1.1556,1.9087,-1.9764,-1.5371,-1.4781], a=0.5, v=0.3, r=0.002)
  movej([0.0941,-1.1465,1.9130,-1.9896,-1.5387,-1.4823], a=0.5, v=0.3, r=0.002)
  movej([0.0971,-1.1474,1.9145,-1.9903,-1.5376,-1.4795], a=0.5, v=0.3)
  movej([0.0971,-1.2983,1.7892,-1.7141,-1.5376,-1.4795], a=0.97, v=1.1)
  movej([0.1670,-1.3302,1.8328,-1.7289,-1.5139,-1.4137], a=0.97, v=1.1)
  movej([0.1670,-1.3302,1.8328,-1.7289,-1.5139,-1.4137], a=0.5, v=0.3, r=0.002)
  movej([0.1670,-1.3190,1.8467,-1.7539,-1.5139,-1.4137], a=0.5, v=0.3, r=0.002)
  movej([0.1670,-1.2825,1.8852,-1.8289,-1.5139,-1.4137], a=0.5, v=0.3, r=0.002)
  movej([0.1670,-1.2237,1.9312,-1.9338,-1.5139,-1.4137], a=0.5, v=0.3, r=0.002)
  movej([0.1670,-1.1848,1.9540,-1.9954,-1.5139,-1.4137], a=0.5, v=0.3, r=0.002)
  movej([0.1599,-1.1703,1.9535,-2.0090,-1.5163,-1.4204], a=0.5, v=0.3, r=0.002)
  movej([0.1366,-1.1578,1.9324,-1.9993,-1.5242,-1.4423], a=0.5, v=0.3, r=0.002)
  movej([0.1326,-1.1700,1.9523,-2.0068,-1.5256,-1.4461], a=0.5, v=0.3, r=0.002)
  movej([0.1228,-1.1822,1.9719,-2.0138,-1.5289,-1.4554], a=0.5, v=0.3, r=0.002)
  movej([0.0902,-1.1970,1.9950,-2.0210,-1.5400,-1.4860], a=0.5, v=0.3, r=0.002)
  movej([0.0649,-1.2152,2.0235,-2.0307,-1.5486,-1.5098], a=0.5, v=0.3, r=0.002)
  movej([0.0645,-1.2154,2.0238,-2.0308,-1.5488,-1.5102], a=0.5, v=0.3, r=0.002)
  movej([0.0906,-1.1982,1.9970,-2.0218,-1.5399,-1.4857], a=0.5, v=0.3, r=0.002)
  movej([0.1197,-1.1838,1.9744,-2.0146,-1.5299,-1.4582], a=0.5, v=0.3, r=0.002)
  movej([0.1335,-1.1703,1.9528,-2.0070,-1.5253,-1.4453], a=0.5, v=0.3, r=0.002)
  movej([0.1287,-1.1541,1.9262,-1.9964,-1.5269,-1.4498], a=0.5, v=0.3, r=0.002)
  movej([0.1268,-1.1536,1.9253,-1.9960,-1.5275,-1.4516], a=0.5, v=0.3, r=0.002)
  movej([0.1593,-1.1697,1.9523,-2.0085,-1.5165,-1.4209], a=0.5, v=0.3, r=0.002)
  movej([0.1652,-1.1730,1.9579,-2.0111,-1.5145,-1.4154], a=0.5, v=0.3)
  movej([0.1652,-1.3290,1.8313,-1.7284,-1.5145,-1.4154], a=0.97, v=1.1)
  movej([0.1804,-1.3461,1.8539,-1.7347,-1.5094,-1.4011], a=0.97, v=1.1)
  movej([0.1804,-1.3461,1.8539,-1.7347,-1.5094,-1.4011], a=0.5, v=0.3, r=0.002)
  movej([0.1804,-1.3348,1.8676,-1.7597,-1.5094,-1.4011], a=0.5, v=0.3, r=0.002)
  movej([0.1804,-1.2982,1.9060,-1.8347,-1.5094,-1.4011], a=0.5, v=0.3, r=0.002)
  movej([0.1804,-1.2387,1.9524,-1.9407,-1.5094,-1.4011], a=0.5, v=0.3, r=0.002)
  movej([0.1804,-1.1987,1.9756,-2.0039,-1.5094,-1.4011], a=0.5, v=0.3, r=0.002)
  movej([0.1770,-1.1841,1.9762,-2.0189,-1.5105,-1.4043], a=0.5, v=0.3, r=0.002)
  movej([0.1729,-1.1806,1.9705,-2.0164,-1.5119,-1.4081], a=0.5, v=0.3, r=0.002)
  movej([0.1786,-1.1863,1.9799,-2.0204,-1.5100,-1.4028], a=0.5, v=0.3)
  movej([0.1786,-1.3450,1.8524,-1.7343,-1.5100,-1.4028], a=0.97, v=1.1)
  movej([0.1889,-1.3584,1.8699,-1.7390,-1.5065,-1.3931], a=0.97, v=1.1)
  movej([0.1889,-1.3584,1.8699,-1.7390,-1.5065,-1.3931], a=0.5, v=0.3, r=0.002)
  movej([0.1889,-1.3472,1.8837,-1.7640,-1.5065,-1.3931], a=0.5, v=0.3, r=0.002)
  movej([0.1889,-1.3104,1.9219,-1.8390,-1.5065,-1.3931], a=0.5, v=0.3, r=0.002)
  movej([0.1889,-1.2504,1.9685,-1.9456,-1.5065,-1.3931], a=0.5, v=0.3, r=0.002)
  movej([0.1889,-1.2096,1.9921,-2.0100,-1.5065,-1.3931], a=0.5, v=0.3, r=0.002)
  movej([0.1866,-1.1948,1.9938,-2.0263,-1.5073,-1.3952], a=0.5, v=0.3, r=0.002)
  movej([0.1870,-1.1966,1.9968,-2.0275,-1.5072,-1.3948], a=0.5, v=0.3)
  movej([0.1870,-1.3573,1.8685,-1.7385,-1.5072,-1.3948], a=0.97, v=1.1)
  movej([0.1682,-1.4121,1.9361,-1.7503,-1.5135,-1.4126], a=0.97, v=1.1)
  movej([0.1682,-1.4121,1.9361,-1.7503,-1.5135,-1.4126], a=0.5, v=0.3, r=0.002)
  movej([0.1682,-1.4007,1.9497,-1.7753,-1.5135,-1.4126], a=0.5, v=0.3, r=0.002)
  movej([0.1682,-1.3637,1.9877,-1.8503,-1.5135,-1.4126], a=0.5, v=0.3, r=0.002)
  movej([0.1682,-1.3020,2.0352,-1.9594,-1.5135,-1.4126], a=0.5, v=0.3, r=0.002)
  movej([0.1682,-1.2584,2.0603,-2.0282,-1.5135,-1.4126], a=0.5, v=0.3, r=0.002)
  movej([0.1675,-1.2395,2.0628,-2.0495,-1.5137,-1.4132], a=0.5, v=0.3, r=0.002)
  movej([0.1559,-1.2210,2.0345,-2.0391,-1.5177,-1.4241], a=0.5, v=0.3, r=0.002)
  movej([0.1278,-1.2126,2.0205,-2.0323,-1.5272,-1.4506], a=0.5, v=0.3, r=0.002)
  movej([0.0821,-1.2160,2.0249,-2.0318,-1.5428,-1.4936], a=0.5, v=0.3, r=0.002)
  movej([0.0393,-1.2285,2.0442,-2.0376,-1.5573,-1.5338], a=0.5, v=0.3, r=0.002)
  movej([-0.0001,-1.2366,2.0567,-2.0418,-1.5708,-1.5709], a=0.5, v=0.3, r=0.002)
  movej([0.0269,-1.2295,2.0456,-2.0380,-1.5616,-1.5455], a=0.5, v=0.3, r=0.002)
  movej([0.0707,-1.2191,2.0298,-2.0332,-1.5466,-1.5044], a=0.5, v=0.3, r=0.002)
  movej([0.1150,-1.2141,2.0226,-2.0323,-1.5316,-1.4627], a=0.5, v=0.3, r=0.002)
  movej([0.1464,-1.2179,2.0293,-2.0366,-1.5209,-1.4331], a=0.5, v=0.3, r=0.002)
  movej([0.1674,-1.2391,2.0629,-2.0501,-1.5138,-1.4133], a=0.5, v=0.3, r=0.002)
  movej([0.1701,-1.2434,2.0697,-2.0527,-1.5129,-1.4108], a=0.5, v=0.3)
  movej([0.1701,-1.4132,1.9375,-1.7507,-1.5129,-1.4108], a=0.97, v=1.1)
  movej([0.2184,-1.5349,2.0761,-1.7706,-1.4966,-1.3652], a=0.97, v=1.1)
  movej([0.2184,-1.5349,2.0761,-1.7706,-1.4966,-1.3652], a=0.5, v=0.3, r=0.002)
  movej([0.2184,-1.5234,2.0895,-1.7956,-1.4966,-1.3652], a=0.5, v=0.3, r=0.002)
  movej([0.2184,-1.4860,2.1272,-1.8706,-1.4966,-1.3652], a=0.5, v=0.3, r=0.002)
  movej([0.2184,-1.4204,2.1773,-1.9864,-1.4966,-1.3652], a=0.5, v=0.3, r=0.002)
  movej([0.2184,-1.3681,2.2072,-2.0685,-1.4966,-1.3652], a=0.5, v=0.3, r=0.002)
  movej([0.2181,-1.3473,2.2207,-2.1028,-1.4967,-1.3655], a=0.5, v=0.3, r=0.002)
  movej([0.2181,-1.3477,2.2249,-2.1065,-1.4967,-1.3654], a=0.5, v=0.3, r=0.002)
  movej([0.2197,-1.3409,2.2153,-2.1040,-1.4962,-1.3640], a=0.5, v=0.3)
  movej([0.2197,-1.5317,2.0728,-1.7705,-1.4962,-1.3640], a=0.97, v=1.1)
  movej([0.2087,-1.5808,2.1225,-1.7704,-1.4999,-1.3744], a=0.97, v=1.1)
  movej([0.2087,-1.5808,2.1225,-1.7704,-1.4999,-1.3744], a=0.5, v=0.3, r=0.002)
  movej([0.2087,-1.5692,2.1359,-1.7954,-1.4999,-1.3744], a=0.5, v=0.3, r=0.002)
  movej([0.2087,-1.5319,2.1736,-1.8704,-1.4999,-1.3744], a=0.5, v=0.3, r=0.002)
  movej([0.2087,-1.4653,2.2248,-1.9882,-1.4999,-1.3744], a=0.5, v=0.3, r=0.002)
  movej([0.2087,-1.4099,2.2566,-2.0754,-1.4999,-1.3744], a=0.5, v=0.3, r=0.002)
  movej([0.2082,-1.3852,2.2702,-2.1137,-1.5000,-1.3748], a=0.5, v=0.3, r=0.002)
  movej([0.1984,-1.4029,2.2987,-2.1238,-1.5033,-1.3840], a=0.5, v=0.3, r=0.002)
  movej([0.2032,-1.3929,2.2857,-2.1211,-1.5017,-1.3796], a=0.5, v=0.3, r=0.002)
  movej([0.2099,-1.3786,2.2668,-2.1171,-1.4995,-1.3732], a=0.5, v=0.3)
  movej([0.2099,-1.5776,2.1193,-1.7706,-1.4995,-1.3732], a=0.97, v=1.1)

  movej([1.0470,-1.5700,1.5700,-1.5700,-1.5700,0.0000], a=0.97, v=1.1)
end