def draw_face():
  set_tcp(p[0.0393,0.0000,-0.1081,0.0000,0.3491,0.0000])

  movej([1.0470,-1.5700,1.5700,-1.5700,-1.5700,0.0000], a=2.0, v=2.5)

  movej([1.0470,-1.5700,1.5700,-1.5700,-1.5700,1.5708], a=2.0, v=2.5)
  movej([0.0822,-1.5012,2.0100,-1.7317,-1.5427,0.0773], a=2.0, v=2.5)
  movej([0.0822,-1.5012,2.0100,-1.7317,-1.5427,0.0773], a=1.1, v=0.7, r=0.002)
  movej([0.0822,-1.4902,2.0240,-1.7567,-1.5427,0.0773], a=1.1, v=0.7, r=0.002)
  movej([0.0822,-1.4545,2.0634,-1.8317,-1.5427,0.0773], a=1.1, v=0.7, r=0.002)
  movej([0.0822,-1.3928,2.1147,-1.9447,-1.5427,0.0773], a=1.1, v=0.7, r=0.002)
  movej([0.0822,-1.3460,2.1439,-2.0207,-1.5427,0.0773], a=1.1, v=0.7, r=0.002)
  movej([0.0801,-1.3316,2.1611,-2.0523,-1.5434,0.0753], a=1.1, v=0.7, r=0.002)
  movej([0.0687,-1.3453,2.1817,-2.0589,-1.5473,0.0646], a=1.1, v=0.7, r=0.002)
  movej([0.0775,-1.3357,2.1685,-2.0555,-1.5443,0.0728], a=1.1, v=0.7, r=0.002)
  movej([0.0818,-1.3218,2.1491,-2.0501,-1.5428,0.0769], a=1.1, v=0.7, r=0.002)
  movej([0.0821,-1.3251,2.1537,-2.0514,-1.5427,0.0772], a=1.1, v=0.7)
  movej([0.0821,-1.5003,2.0091,-1.7316,-1.5427,0.0772], a=2.0, v=2.5)
  movej([0.0535,-1.4534,1.9562,-1.7250,-1.5525,0.0503], a=2.0, v=2.5)
  movej([0.0535,-1.4534,1.9562,-1.7250,-1.5525,0.0503], a=1.1, v=0.7, r=0.002)
  movej([0.0535,-1.4425,1.9703,-1.7500,-1.5525,0.0503], a=1.1, v=0.7, r=0.002)
  movej([0.0535,-1.4070,2.0098,-1.8250,-1.5525,0.0503], a=1.1, v=0.7, r=0.002)
  movej([0.0535,-1.3464,2.0603,-1.9361,-1.5525,0.0503], a=1.1, v=0.7, r=0.002)
  movej([0.0535,-1.3019,2.0881,-2.0083,-1.5525,0.0503], a=1.1, v=0.7, r=0.002)
  movej([0.0527,-1.2894,2.1018,-2.0346,-1.5528,0.0495], a=1.1, v=0.7, r=0.002)
  movej([0.0467,-1.2992,2.1162,-2.0392,-1.5548,0.0439], a=1.1, v=0.7, r=0.002)
  movej([0.0509,-1.2853,2.0960,-2.0329,-1.5534,0.0478], a=1.1, v=0.7, r=0.002)
  movej([0.0535,-1.2850,2.0957,-2.0329,-1.5525,0.0502], a=1.1, v=0.7)
  movej([0.0535,-1.4526,1.9552,-1.7248,-1.5525,0.0503], a=2.0, v=2.5)
  movej([0.0362,-1.4510,1.9533,-1.7242,-1.5584,0.0340], a=2.0, v=2.5)
  movej([0.0362,-1.4510,1.9533,-1.7242,-1.5584,0.0340], a=1.1, v=0.7, r=0.002)
  movej([0.0362,-1.4400,1.9673,-1.7492,-1.5584,0.0340], a=1.1, v=0.7, r=0.002)
  movej([0.0362,-1.4045,2.0068,-1.8242,-1.5584,0.0340], a=1.1, v=0.7, r=0.002)
  movej([0.0362,-1.3441,2.0572,-1.9351,-1.5584,0.0340], a=1.1, v=0.7, r=0.002)
  movej([0.0362,-1.2999,2.0849,-2.0069,-1.5584,0.0340], a=1.1, v=0.7, r=0.002)
  movej([0.0317,-1.2828,2.0920,-2.0311,-1.5600,0.0298], a=1.1, v=0.7, r=0.002)
  movej([0.0186,-1.2824,2.0916,-2.0310,-1.5644,0.0175], a=1.1, v=0.7, r=0.002)
  movej([0.0344,-1.2831,2.0927,-2.0316,-1.5590,0.0324], a=1.1, v=0.7, r=0.002)
  movej([0.0354,-1.2833,2.0930,-2.0317,-1.5587,0.0332], a=1.1, v=0.7)
  movej([0.0354,-1.4505,1.9527,-1.7242,-1.5587,0.0332], a=2.0, v=2.5)
  movej([-0.0601,-1.4616,1.9657,-1.7264,-1.5913,-0.0565], a=2.0, v=2.5)
  movej([-0.0601,-1.4616,1.9657,-1.7264,-1.5913,-0.0565], a=1.1, v=0.7, r=0.002)
  movej([-0.0601,-1.4507,1.9797,-1.7514,-1.5913,-0.0565], a=1.1, v=0.7, r=0.002)
  movej([-0.0601,-1.4151,2.0192,-1.8264,-1.5913,-0.0565], a=1.1, v=0.7, r=0.002)
  movej([-0.0601,-1.3543,2.0698,-1.9379,-1.5913,-0.0565], a=1.1, v=0.7, r=0.002)
  movej([-0.0601,-1.3093,2.0980,-2.0110,-1.5913,-0.0565], a=1.1, v=0.7, r=0.002)
  movej([-0.0626,-1.2964,2.1121,-2.0381,-1.5922,-0.0588], a=1.1, v=0.7, r=0.002)
  movej([-0.0699,-1.3065,2.1270,-2.0431,-1.5947,-0.0657], a=1.1, v=0.7, r=0.002)
  movej([-0.0606,-1.2927,2.1070,-2.0366,-1.5915,-0.0570], a=1.1, v=0.7, r=0.002)
  movej([-0.0601,-1.2919,2.1058,-2.0362,-1.5913,-0.0564], a=1.1, v=0.7)
  movej([-0.0601,-1.4607,1.9647,-1.7262,-1.5913,-0.0564], a=2.0, v=2.5)
  movej([-0.0995,-1.3508,1.8318,-1.7043,-1.6048,-0.0935], a=2.0, v=2.5)
  movej([-0.0995,-1.3508,1.8318,-1.7043,-1.6048,-0.0935], a=1.1, v=0.7, r=0.002)
  movej([-0.0995,-1.3401,1.8461,-1.7293,-1.6048,-0.0935], a=1.1, v=0.7, r=0.002)
  movej([-0.0995,-1.3051,1.8861,-1.8043,-1.6048,-0.0935], a=1.1, v=0.7, r=0.002)
  movej([-0.0995,-1.2479,1.9346,-1.9100,-1.6048,-0.0935], a=1.1, v=0.7, r=0.002)
  movej([-0.0995,-1.2095,1.9590,-1.9728,-1.6048,-0.0935], a=1.1, v=0.7, r=0.002)
  movej([-0.1062,-1.1984,1.9644,-1.9896,-1.6071,-0.0999], a=1.1, v=0.7, r=0.002)
  movej([-0.1111,-1.1978,1.9636,-1.9895,-1.6087,-0.1045], a=1.1, v=0.7, r=0.002)
  movej([-0.1003,-1.1982,1.9640,-1.9891,-1.6050,-0.0943], a=1.1, v=0.7)
  movej([-0.1003,-1.3501,1.8308,-1.7041,-1.6050,-0.0943], a=2.0, v=2.5)
  movej([-0.0799,-1.3748,1.8619,-1.7099,-1.5981,-0.0751], a=2.0, v=2.5)
  movej([-0.0799,-1.3748,1.8619,-1.7099,-1.5981,-0.0751], a=1.1, v=0.7, r=0.002)
  movej([-0.0799,-1.3640,1.8762,-1.7349,-1.5981,-0.0751], a=1.1, v=0.7, r=0.002)
  movej([-0.0799,-1.3289,1.9160,-1.8099,-1.5981,-0.0751], a=1.1, v=0.7, r=0.002)
  movej([-0.0799,-1.2710,1.9648,-1.9166,-1.5981,-0.0751], a=1.1, v=0.7, r=0.002)
  movej([-0.0799,-1.2315,1.9898,-1.9811,-1.5981,-0.0751], a=1.1, v=0.7, r=0.002)
  movej([-0.0875,-1.2181,1.9949,-1.9998,-1.6007,-0.0823], a=1.1, v=0.7, r=0.002)
  movej([-0.1133,-1.2135,1.9883,-1.9986,-1.6095,-0.1065], a=1.1, v=0.7, r=0.002)
  movej([-0.0984,-1.2160,1.9919,-1.9992,-1.6044,-0.0925], a=1.1, v=0.7, r=0.002)
  movej([-0.0806,-1.2187,1.9958,-1.9999,-1.5983,-0.0758], a=1.1, v=0.7)
  movej([-0.0806,-1.3742,1.8611,-1.7097,-1.5983,-0.0758], a=2.0, v=2.5)
  movej([-0.0806,-1.3742,1.8611,-1.7097,-1.5983,-0.0758], a=2.0, v=2.5)
  movej([-0.0708,-1.3772,1.8648,-1.7101,-1.5950,-0.0665], a=2.0, v=2.5)
  movej([-0.0708,-1.3772,1.8648,-1.7101,-1.5950,-0.0665], a=1.1, v=0.7, r=0.002)
  movej([-0.0708,-1.3664,1.8790,-1.7351,-1.5950,-0.0665], a=1.1, v=0.7, r=0.002)
  movej([-0.0708,-1.3312,1.9188,-1.8101,-1.5950,-0.0665], a=1.1, v=0.7, r=0.002)
  movej([-0.0708,-1.2730,1.9678,-1.9173,-1.5950,-0.0665], a=1.1, v=0.7, r=0.002)
  movej([-0.0708,-1.2330,1.9932,-1.9827,-1.5950,-0.0665], a=1.1, v=0.7, r=0.002)
  movej([-0.0749,-1.2204,1.9983,-2.0006,-1.5964,-0.0704], a=1.1, v=0.7, r=0.002)
  movej([-0.0716,-1.2207,1.9988,-2.0006,-1.5953,-0.0673], a=1.1, v=0.7)
  movej([-0.0716,-1.3765,1.8639,-1.7100,-1.5953,-0.0673], a=2.0, v=2.5)
  movej([-0.0587,-1.3835,1.8725,-1.7113,-1.5908,-0.0551], a=2.0, v=2.5)
  movej([-0.0587,-1.3835,1.8725,-1.7113,-1.5908,-0.0551], a=1.1, v=0.7, r=0.002)
  movej([-0.0587,-1.3727,1.8868,-1.7363,-1.5908,-0.0551], a=1.1, v=0.7, r=0.002)
  movej([-0.0587,-1.3375,1.9266,-1.8113,-1.5908,-0.0551], a=1.1, v=0.7, r=0.002)
  movej([-0.0587,-1.2792,1.9756,-1.9187,-1.5908,-0.0551], a=1.1, v=0.7, r=0.002)
  movej([-0.0587,-1.2390,2.0010,-1.9843,-1.5908,-0.0551], a=1.1, v=0.7, r=0.002)
  movej([-0.0640,-1.2241,2.0039,-2.0023,-1.5927,-0.0602], a=1.1, v=0.7, r=0.002)
  movej([-0.0595,-1.2262,2.0072,-2.0033,-1.5911,-0.0559], a=1.1, v=0.7)
  movej([-0.0595,-1.3829,1.8719,-1.7112,-1.5911,-0.0559], a=2.0, v=2.5)
  movej([0.0649,-1.3802,1.8685,-1.7107,-1.5486,0.0610], a=2.0, v=2.5)
  movej([0.0649,-1.3802,1.8685,-1.7107,-1.5486,0.0610], a=1.1, v=0.7, r=0.002)
  movej([0.0649,-1.3694,1.8827,-1.7357,-1.5486,0.0610], a=1.1, v=0.7, r=0.002)
  movej([0.0649,-1.3342,1.9225,-1.8107,-1.5486,0.0610], a=1.1, v=0.7, r=0.002)
  movej([0.0649,-1.2761,1.9715,-1.9179,-1.5486,0.0610], a=1.1, v=0.7, r=0.002)
  movej([0.0649,-1.2360,1.9969,-1.9832,-1.5486,0.0610], a=1.1, v=0.7, r=0.002)
  movej([0.0571,-1.2264,2.0074,-2.0033,-1.5513,0.0537], a=1.1, v=0.7, r=0.002)
  movej([0.0333,-1.2337,2.0186,-2.0067,-1.5594,0.0313], a=1.1, v=0.7, r=0.002)
  movej([0.0477,-1.2272,2.0086,-2.0035,-1.5545,0.0449], a=1.1, v=0.7, r=0.002)
  movej([0.0640,-1.2235,2.0031,-2.0019,-1.5489,0.0601], a=1.1, v=0.7)
  movej([0.0640,-1.3798,1.8680,-1.7106,-1.5489,0.0601], a=2.0, v=2.5)
  movej([0.1284,-1.3646,1.8497,-1.7095,-1.5270,0.1207], a=2.0, v=2.5)
  movej([0.1284,-1.3646,1.8497,-1.7095,-1.5270,0.1207], a=1.1, v=0.7, r=0.002)
  movej([0.1284,-1.3538,1.8640,-1.7345,-1.5270,0.1207], a=1.1, v=0.7, r=0.002)
  movej([0.1284,-1.3187,1.9038,-1.8095,-1.5270,0.1207], a=1.1, v=0.7, r=0.002)
  movej([0.1284,-1.2611,1.9524,-1.9157,-1.5270,0.1207], a=1.1, v=0.7, r=0.002)
  movej([0.1284,-1.2222,1.9771,-1.9792,-1.5270,0.1207], a=1.1, v=0.7, r=0.002)
  movej([0.1196,-1.2120,1.9860,-1.9981,-1.5300,0.1124], a=1.1, v=0.7, r=0.002)
  movej([0.1066,-1.2145,1.9897,-1.9987,-1.5344,0.1002], a=1.1, v=0.7, r=0.002)
  movej([0.1276,-1.2112,1.9849,-1.9981,-1.5272,0.1200], a=1.1, v=0.7, r=0.002)
  movej([0.1285,-1.2110,1.9847,-1.9981,-1.5270,0.1208], a=1.1, v=0.7)
  movej([0.1285,-1.3654,1.8507,-1.7097,-1.5270,0.1208], a=2.0, v=2.5)
  movej([0.1445,-1.3407,1.8195,-1.7039,-1.5215,0.1359], a=2.0, v=2.5)
  movej([0.1445,-1.3407,1.8195,-1.7039,-1.5215,0.1359], a=1.1, v=0.7, r=0.002)
  movej([0.1445,-1.3301,1.8339,-1.7289,-1.5215,0.1359], a=1.1, v=0.7, r=0.002)
  movej([0.1445,-1.2951,1.8739,-1.8039,-1.5215,0.1359], a=1.1, v=0.7, r=0.002)
  movej([0.1445,-1.2384,1.9220,-1.9087,-1.5215,0.1359], a=1.1, v=0.7, r=0.002)
  movej([0.1445,-1.2008,1.9459,-1.9702,-1.5215,0.1359], a=1.1, v=0.7, r=0.002)
  movej([0.1346,-1.1921,1.9550,-1.9876,-1.5249,0.1266], a=1.1, v=0.7, r=0.002)
  movej([0.0945,-1.2036,1.9724,-1.9920,-1.5385,0.0889], a=1.1, v=0.7, r=0.002)
  movej([0.0670,-1.2074,1.9780,-1.9931,-1.5479,0.0629], a=1.1, v=0.7, r=0.002)
  movej([0.0289,-1.2267,2.0077,-2.0029,-1.5609,0.0272], a=1.1, v=0.7, r=0.002)
  movej([-0.0208,-1.2536,2.0487,-2.0169,-1.5779,-0.0195], a=1.1, v=0.7, r=0.002)
  movej([-0.0361,-1.2537,2.0489,-2.0171,-1.5831,-0.0339], a=1.1, v=0.7, r=0.002)
  movej([-0.0531,-1.2211,1.9992,-2.0003,-1.5890,-0.0499], a=1.1, v=0.7, r=0.002)
  movej([-0.0777,-1.1687,1.9166,-1.9706,-1.5973,-0.0730], a=1.1, v=0.7, r=0.002)
  movej([-0.1034,-1.1394,1.8694,-1.9535,-1.6061,-0.0972], a=1.1, v=0.7, r=0.002)
  movej([-0.1043,-1.1392,1.8691,-1.9534,-1.6064,-0.0981], a=1.1, v=0.7, r=0.002)
  movej([-0.0784,-1.1673,1.9144,-1.9698,-1.5976,-0.0737], a=1.1, v=0.7, r=0.002)
  movej([-0.0536,-1.2171,1.9930,-1.9981,-1.5891,-0.0504], a=1.1, v=0.7, r=0.002)
  movej([-0.0386,-1.2538,2.0492,-2.0173,-1.5840,-0.0363], a=1.1, v=0.7, r=0.002)
  movej([-0.0442,-1.2650,2.0659,-2.0230,-1.5859,-0.0415], a=1.1, v=0.7, r=0.002)
  movej([-0.0483,-1.2578,2.0552,-2.0195,-1.5873,-0.0454], a=1.1, v=0.7, r=0.002)
  movej([-0.0797,-1.2657,2.0674,-2.0245,-1.5980,-0.0749], a=1.1, v=0.7, r=0.002)
  movej([-0.0969,-1.2707,2.0751,-2.0277,-1.6039,-0.0911], a=1.1, v=0.7, r=0.002)
  movej([-0.0866,-1.2717,2.0765,-2.0277,-1.6004,-0.0814], a=1.1, v=0.7, r=0.002)
  movej([-0.0684,-1.2673,2.0697,-2.0248,-1.5942,-0.0643], a=1.1, v=0.7, r=0.002)
  movej([-0.0447,-1.2680,2.0704,-2.0245,-1.5861,-0.0420], a=1.1, v=0.7, r=0.002)
  movej([-0.0529,-1.2840,2.0941,-2.0323,-1.5889,-0.0497], a=1.1, v=0.7, r=0.002)
  movej([-0.0493,-1.2803,2.0887,-2.0305,-1.5877,-0.0464], a=1.1, v=0.7, r=0.002)
  movej([-0.0135,-1.2489,2.0416,-2.0145,-1.5754,-0.0127], a=1.1, v=0.7, r=0.002)
  movej([0.0454,-1.2174,1.9934,-1.9981,-1.5553,0.0426], a=1.1, v=0.7, r=0.002)
  movej([0.0721,-1.2063,1.9763,-1.9926,-1.5462,0.0677], a=1.1, v=0.7, r=0.002)
  movej([0.0710,-1.2170,1.9930,-1.9986,-1.5465,0.0668], a=1.1, v=0.7, r=0.002)
  movej([0.0741,-1.2274,2.0091,-2.0044,-1.5455,0.0697], a=1.1, v=0.7, r=0.002)
  movej([0.0826,-1.2311,2.0150,-2.0067,-1.5426,0.0776], a=1.1, v=0.7, r=0.002)
  movej([0.0801,-1.2220,2.0009,-2.0017,-1.5434,0.0753], a=1.1, v=0.7, r=0.002)
  movej([0.0932,-1.2157,1.9914,-1.9988,-1.5390,0.0876], a=1.1, v=0.7, r=0.002)
  movej([0.0766,-1.2198,1.9975,-2.0003,-1.5446,0.0720], a=1.1, v=0.7, r=0.002)
  movej([0.0791,-1.2098,1.9820,-1.9949,-1.5438,0.0744], a=1.1, v=0.7, r=0.002)
  movej([0.1191,-1.1951,1.9595,-1.9884,-1.5301,0.1120], a=1.1, v=0.7, r=0.002)
  movej([0.1452,-1.1897,1.9514,-1.9869,-1.5213,0.1366], a=1.1, v=0.7, r=0.002)
  movej([0.1452,-1.1897,1.9514,-1.9869,-1.5213,0.1366], a=1.1, v=0.7)
  movej([0.1452,-1.3403,1.8190,-1.7038,-1.5213,0.1366], a=2.0, v=2.5)
  movej([0.1463,-1.3870,1.8782,-1.7163,-1.5209,0.1376], a=2.0, v=2.5)
  movej([0.1463,-1.3870,1.8782,-1.7163,-1.5209,0.1376], a=1.1, v=0.7, r=0.002)
  movej([0.1463,-1.3762,1.8924,-1.7413,-1.5209,0.1376], a=1.1, v=0.7, r=0.002)
  movej([0.1463,-1.3409,1.9321,-1.8163,-1.5209,0.1376], a=1.1, v=0.7, r=0.002)
  movej([0.1463,-1.2829,1.9807,-1.9230,-1.5209,0.1376], a=1.1, v=0.7, r=0.002)
  movej([0.1463,-1.2434,2.0057,-1.9874,-1.5209,0.1376], a=1.1, v=0.7, r=0.002)
  movej([0.1445,-1.2241,2.0050,-2.0060,-1.5215,0.1359], a=1.1, v=0.7, r=0.002)
  movej([0.1385,-1.2151,1.9913,-2.0010,-1.5236,0.1302], a=1.1, v=0.7, r=0.002)
  movej([0.1357,-1.2217,2.0014,-2.0044,-1.5245,0.1276], a=1.1, v=0.7, r=0.002)
  movej([0.1455,-1.2296,2.0139,-2.0094,-1.5212,0.1368], a=1.1, v=0.7, r=0.002)
  movej([0.1458,-1.2337,2.0202,-2.0117,-1.5211,0.1371], a=1.1, v=0.7, r=0.002)
  movej([0.1464,-1.2300,2.0145,-2.0097,-1.5209,0.1377], a=1.1, v=0.7)
  movej([0.1464,-1.3878,1.8791,-1.7165,-1.5209,0.1377], a=2.0, v=2.5)
  movej([0.1922,-1.3878,1.8801,-1.7200,-1.5054,0.1809], a=2.0, v=2.5)
  movej([0.1922,-1.3878,1.8801,-1.7200,-1.5054,0.1809], a=1.1, v=0.7, r=0.002)
  movej([0.1922,-1.3769,1.8943,-1.7450,-1.5054,0.1809], a=1.1, v=0.7, r=0.002)
  movej([0.1922,-1.3416,1.9339,-1.8200,-1.5054,0.1809], a=1.1, v=0.7, r=0.002)
  movej([0.1922,-1.2831,1.9828,-1.9274,-1.5054,0.1809], a=1.1, v=0.7, r=0.002)
  movej([0.1922,-1.2428,2.0081,-1.9929,-1.5054,0.1809], a=1.1, v=0.7, r=0.002)
  movej([0.1900,-1.2259,2.0094,-2.0110,-1.5062,0.1788], a=1.1, v=0.7, r=0.002)
  movej([0.1759,-1.2030,1.9734,-1.9971,-1.5109,0.1655], a=1.1, v=0.7, r=0.002)
  movej([0.1536,-1.1903,1.9526,-1.9879,-1.5184,0.1445], a=1.1, v=0.7, r=0.002)
  movej([0.1587,-1.1914,1.9545,-1.9889,-1.5167,0.1492], a=1.1, v=0.7, r=0.002)
  movej([0.1813,-1.2112,1.9864,-2.0022,-1.5091,0.1706], a=1.1, v=0.7, r=0.002)
  movej([0.1909,-1.2396,2.0305,-2.0185,-1.5058,0.1797], a=1.1, v=0.7, r=0.002)
  movej([0.1814,-1.2786,2.0889,-2.0373,-1.5090,0.1707], a=1.1, v=0.7, r=0.002)
  movej([0.1460,-1.3229,2.1519,-2.0542,-1.5210,0.1373], a=1.1, v=0.7, r=0.002)
  movej([0.1048,-1.3468,2.1844,-2.0611,-1.5350,0.0986], a=1.1, v=0.7, r=0.002)
  movej([0.0842,-1.3492,2.1874,-2.0610,-1.5420,0.0792], a=1.1, v=0.7, r=0.002)
  movej([0.1014,-1.3383,2.1726,-2.0577,-1.5362,0.0953], a=1.1, v=0.7, r=0.002)
  movej([0.1289,-1.3214,2.1493,-2.0524,-1.5268,0.1212], a=1.1, v=0.7, r=0.002)
  movej([0.1125,-1.3331,2.1655,-2.0562,-1.5324,0.1058], a=1.1, v=0.7, r=0.002)
  movej([0.0746,-1.3503,2.1887,-2.0610,-1.5453,0.0701], a=1.1, v=0.7, r=0.002)
  movej([0.0558,-1.3711,2.2167,-2.0679,-1.5517,0.0525], a=1.1, v=0.7, r=0.002)
  movej([0.0056,-1.3744,2.2208,-2.0682,-1.5689,0.0053], a=1.1, v=0.7, r=0.002)
  movej([-0.0394,-1.3781,2.2259,-2.0698,-1.5843,-0.0370], a=1.1, v=0.7, r=0.002)
  movej([-0.0543,-1.3685,2.2132,-2.0669,-1.5894,-0.0510], a=1.1, v=0.7, r=0.002)
  movej([-0.0425,-1.3835,2.2330,-2.0716,-1.5853,-0.0399], a=1.1, v=0.7, r=0.002)
  movej([-0.0536,-1.4206,2.2811,-2.0827,-1.5891,-0.0504], a=1.1, v=0.7, r=0.002)
  movej([-0.0800,-1.4915,2.3667,-2.0980,-1.5981,-0.0752], a=1.1, v=0.7, r=0.002)
  movej([-0.1104,-1.5525,2.4336,-2.1048,-1.6085,-0.1038], a=1.1, v=0.7, r=0.002)
  movej([-0.1502,-1.6091,2.4901,-2.1064,-1.6220,-0.1412], a=1.1, v=0.7, r=0.002)
  movej([-0.1815,-1.6504,2.5281,-2.1047,-1.6326,-0.1707], a=1.1, v=0.7, r=0.002)
  movej([-0.1780,-1.6484,2.5263,-2.1047,-1.6314,-0.1675], a=1.1, v=0.7, r=0.002)
  movej([-0.1443,-1.6030,2.4842,-2.1063,-1.6200,-0.1357], a=1.1, v=0.7, r=0.002)
  movej([-0.1096,-1.5524,2.4335,-2.1047,-1.6082,-0.1030], a=1.1, v=0.7, r=0.002)
  movej([-0.0892,-1.5088,2.3863,-2.1005,-1.6013,-0.0839], a=1.1, v=0.7, r=0.002)
  movej([-0.0609,-1.4409,2.3065,-2.0879,-1.5916,-0.0572], a=1.1, v=0.7, r=0.002)
  movej([-0.0467,-1.3911,2.2431,-2.0741,-1.5867,-0.0438], a=1.1, v=0.7, r=0.002)
  movej([-0.0313,-1.3802,2.2287,-2.0704,-1.5815,-0.0294], a=1.1, v=0.7, r=0.002)
  movej([0.0101,-1.3740,2.2203,-2.0681,-1.5673,0.0095], a=1.1, v=0.7, r=0.002)
  movej([0.0570,-1.3706,2.2160,-2.0677,-1.5513,0.0536], a=1.1, v=0.7, r=0.002)
  movej([0.0770,-1.3539,2.1937,-2.0625,-1.5445,0.0724], a=1.1, v=0.7, r=0.002)
  movej([0.1198,-1.3415,2.1774,-2.0599,-1.5299,0.1126], a=1.1, v=0.7, r=0.002)
  movej([0.1623,-1.3079,2.1310,-2.0491,-1.5155,0.1527], a=1.1, v=0.7, r=0.002)
  movej([0.1879,-1.2625,2.0650,-2.0300,-1.5069,0.1768], a=1.1, v=0.7, r=0.002)
  movej([0.1922,-1.2329,2.0204,-2.0151,-1.5054,0.1809], a=1.1, v=0.7, r=0.002)
  movej([0.1924,-1.2304,2.0165,-2.0138,-1.5054,0.1810], a=1.1, v=0.7)
  movej([0.1924,-1.3887,1.8813,-1.7202,-1.5054,0.1810], a=2.0, v=2.5)

  movej([1.0470,-1.5700,1.5700,-1.5700,-1.5700,0.0000], a=2.0, v=2.5)
end