def draw_face():
  set_tcp(p[0.0393,0.0000,-0.1081,0.0000,0.3491,0.0000])

  movej([1.0470,-1.5700,1.5700,-1.5700,-1.5700,0.0000], a=0.97, v=1.1)

  movej([0.1862,-1.6235,2.1357,-1.7395,-1.5074,-1.3956], a=0.97, v=1.1)
  movej([0.1862,-1.6235,2.1357,-1.7395,-1.5074,-1.3956], a=0.5, v=0.3, r=0.002)
  movej([0.1862,-1.6125,2.1496,-1.7645,-1.5074,-1.3956], a=0.5, v=0.3, r=0.002)
  movej([0.1862,-1.5768,2.1889,-1.8395,-1.5074,-1.3956], a=0.5, v=0.3, r=0.002)
  movej([0.1862,-1.5123,2.2429,-1.9579,-1.5074,-1.3956], a=0.5, v=0.3, r=0.002)
  movej([0.1862,-1.4578,2.2771,-2.0466,-1.5074,-1.3956], a=0.5, v=0.3, r=0.002)
  movej([0.1851,-1.4330,2.2928,-2.0871,-1.5078,-1.3966], a=0.5, v=0.3, r=0.002)
  movej([0.1682,-1.4487,2.3184,-2.0959,-1.5135,-1.4126], a=0.5, v=0.3, r=0.002)
  movej([0.1169,-1.4761,2.3497,-2.0975,-1.5309,-1.4608], a=0.5, v=0.3, r=0.002)
  movej([0.0613,-1.4909,2.3658,-2.0973,-1.5498,-1.5132], a=0.5, v=0.3, r=0.002)
  movej([0.1336,-1.4697,2.3425,-2.0974,-1.5252,-1.4451], a=0.5, v=0.3, r=0.002)
  movej([0.1764,-1.4411,2.3093,-2.0949,-1.5108,-1.4049], a=0.5, v=0.3, r=0.002)
  movej([0.1858,-1.4258,2.2906,-2.0921,-1.5076,-1.3960], a=0.5, v=0.3)
  movej([0.1858,-1.6214,2.1337,-1.7396,-1.5076,-1.3960], a=0.97, v=1.1)
  movej([0.1824,-1.5813,2.0951,-1.7409,-1.5087,-1.3992], a=0.97, v=1.1)
  movej([0.1824,-1.5813,2.0951,-1.7409,-1.5087,-1.3992], a=0.5, v=0.3, r=0.002)
  movej([0.1824,-1.5702,2.1090,-1.7659,-1.5087,-1.3992], a=0.5, v=0.3, r=0.002)
  movej([0.1824,-1.5344,2.1483,-1.8409,-1.5087,-1.3992], a=0.5, v=0.3, r=0.002)
  movej([0.1824,-1.4706,2.2013,-1.9578,-1.5087,-1.3992], a=0.5, v=0.3, r=0.002)
  movej([0.1824,-1.4185,2.2338,-2.0424,-1.5087,-1.3992], a=0.5, v=0.3, r=0.002)
  movej([0.1809,-1.3968,2.2491,-2.0793,-1.5092,-1.4006], a=0.5, v=0.3, r=0.002)
  movej([0.1644,-1.4177,2.2798,-2.0881,-1.5148,-1.4162], a=0.5, v=0.3, r=0.002)
  movej([0.1108,-1.4497,2.3180,-2.0921,-1.5330,-1.4666], a=0.5, v=0.3, r=0.002)
  movej([0.0459,-1.4880,2.3623,-2.0964,-1.5551,-1.5277], a=0.5, v=0.3, r=0.002)
  movej([-0.0255,-1.5158,2.3934,-2.0995,-1.5795,-1.5947], a=0.5, v=0.3, r=0.002)
  movej([-0.0301,-1.5166,2.3944,-2.0996,-1.5811,-1.5991], a=0.5, v=0.3, r=0.002)
  movej([0.0409,-1.4903,2.3649,-2.0966,-1.5568,-1.5323], a=0.5, v=0.3, r=0.002)
  movej([0.1024,-1.4545,2.3237,-2.0926,-1.5358,-1.4745], a=0.5, v=0.3, r=0.002)
  movej([0.1363,-1.4352,2.3009,-2.0904,-1.5243,-1.4426], a=0.5, v=0.3, r=0.002)
  movej([0.1622,-1.4203,2.2830,-2.0886,-1.5155,-1.4182], a=0.5, v=0.3, r=0.002)
  movej([0.1821,-1.3916,2.2467,-2.0821,-1.5088,-1.3994], a=0.5, v=0.3, r=0.002)
  movej([0.1836,-1.3894,2.2439,-2.0816,-1.5083,-1.3980], a=0.5, v=0.3)
  movej([0.1836,-1.5779,2.0918,-1.7410,-1.5083,-1.3980], a=0.97, v=1.1)
  movej([0.2144,-1.5642,2.0789,-1.7438,-1.4980,-1.3690], a=0.97, v=1.1)
  movej([0.2144,-1.5642,2.0789,-1.7438,-1.4980,-1.3690], a=0.5, v=0.3, r=0.002)
  movej([0.2144,-1.5531,2.0929,-1.7688,-1.4980,-1.3690], a=0.5, v=0.3, r=0.002)
  movej([0.2144,-1.5173,2.1320,-1.8438,-1.4980,-1.3690], a=0.5, v=0.3, r=0.002)
  movej([0.2144,-1.4537,2.1846,-1.9601,-1.4980,-1.3690], a=0.5, v=0.3, r=0.002)
  movej([0.2144,-1.4023,2.2165,-2.0433,-1.4980,-1.3690], a=0.5, v=0.3, r=0.002)
  movej([0.2136,-1.3814,2.2307,-2.0784,-1.4982,-1.3697], a=0.5, v=0.3, r=0.002)
  movej([0.2030,-1.4029,2.2621,-2.0875,-1.5018,-1.3798], a=0.5, v=0.3, r=0.002)
  movej([0.2103,-1.3867,2.2412,-2.0834,-1.4993,-1.3728], a=0.5, v=0.3, r=0.002)
  movej([0.2155,-1.3750,2.2259,-2.0801,-1.4976,-1.3679], a=0.5, v=0.3)
  movej([0.2155,-1.5610,2.0758,-1.7439,-1.4976,-1.3679], a=0.97, v=1.1)
  movej([0.1845,-1.4101,1.9073,-1.7243,-1.5080,-1.3972], a=0.97, v=1.1)
  movej([0.1845,-1.4101,1.9073,-1.7243,-1.5080,-1.3972], a=0.5, v=0.3, r=0.002)
  movej([0.1845,-1.3993,1.9214,-1.7493,-1.5080,-1.3972], a=0.5, v=0.3, r=0.002)
  movej([0.1845,-1.3638,1.9609,-1.8243,-1.5080,-1.3972], a=0.5, v=0.3, r=0.002)
  movej([0.1845,-1.3046,2.0102,-1.9328,-1.5080,-1.3972], a=0.5, v=0.3, r=0.002)
  movej([0.1845,-1.2630,2.0362,-2.0004,-1.5080,-1.3972], a=0.5, v=0.3, r=0.002)
  movej([0.1828,-1.2452,2.0386,-2.0204,-1.5086,-1.3988], a=0.5, v=0.3, r=0.002)
  movej([0.1692,-1.2219,2.0026,-2.0071,-1.5132,-1.4116], a=0.5, v=0.3, r=0.002)
  movej([0.1438,-1.2033,1.9729,-1.9947,-1.5218,-1.4355], a=0.5, v=0.3, r=0.002)
  movej([0.1047,-1.2030,1.9716,-1.9921,-1.5350,-1.4724], a=0.5, v=0.3, r=0.002)
  movej([0.0445,-1.2164,1.9918,-1.9975,-1.5556,-1.5290], a=0.5, v=0.3, r=0.002)
  movej([-0.0247,-1.2363,2.0224,-2.0079,-1.5793,-1.5940], a=0.5, v=0.3, r=0.002)
  movej([-0.0573,-1.2540,2.0496,-2.0178,-1.5904,-1.6247], a=0.5, v=0.3, r=0.002)
  movej([-0.0589,-1.2567,2.0536,-2.0192,-1.5909,-1.6262], a=0.5, v=0.3, r=0.002)
  movej([-0.0317,-1.2389,2.0265,-2.0095,-1.5816,-1.6006], a=0.5, v=0.3, r=0.002)
  movej([0.0344,-1.2193,1.9962,-1.9989,-1.5590,-1.5385], a=0.5, v=0.3, r=0.002)
  movej([0.0966,-1.2044,1.9738,-1.9926,-1.5378,-1.4800], a=0.5, v=0.3, r=0.002)
  movej([0.1387,-1.2029,1.9722,-1.9941,-1.5235,-1.4404], a=0.5, v=0.3, r=0.002)
  movej([0.1676,-1.2204,2.0003,-2.0061,-1.5137,-1.4132], a=0.5, v=0.3, r=0.002)
  movej([0.1836,-1.2475,2.0424,-2.0220,-1.5083,-1.3981], a=0.5, v=0.3, r=0.002)
  movej([0.1848,-1.2503,2.0466,-2.0235,-1.5079,-1.3969], a=0.5, v=0.3)
  movej([0.1848,-1.4121,1.9096,-1.7248,-1.5079,-1.3969], a=0.97, v=1.1)
  movej([0.1820,-1.3372,1.8158,-1.7056,-1.5088,-1.3995], a=0.97, v=1.1)
  movej([0.1820,-1.3372,1.8158,-1.7056,-1.5088,-1.3995], a=0.5, v=0.3, r=0.002)
  movej([0.1820,-1.3266,1.8302,-1.7306,-1.5088,-1.3995], a=0.5, v=0.3, r=0.002)
  movej([0.1820,-1.2916,1.8702,-1.8056,-1.5088,-1.3995], a=0.5, v=0.3, r=0.002)
  movej([0.1820,-1.2347,1.9183,-1.9106,-1.5088,-1.3995], a=0.5, v=0.3, r=0.002)
  movej([0.1820,-1.1970,1.9422,-1.9723,-1.5088,-1.3995], a=0.5, v=0.3, r=0.002)
  movej([0.1758,-1.1862,1.9468,-1.9873,-1.5109,-1.4054], a=0.5, v=0.3, r=0.002)
  movej([0.1548,-1.1775,1.9322,-1.9803,-1.5180,-1.4252], a=0.5, v=0.3, r=0.002)
  movej([0.1238,-1.1753,1.9280,-1.9769,-1.5286,-1.4544], a=0.5, v=0.3, r=0.002)
  movej([0.0831,-1.1909,1.9523,-1.9842,-1.5424,-1.4927], a=0.5, v=0.3, r=0.002)
  movej([0.0587,-1.2049,1.9740,-1.9914,-1.5507,-1.5156], a=0.5, v=0.3, r=0.002)
  movej([0.0821,-1.1918,1.9536,-1.9846,-1.5427,-1.4936], a=0.5, v=0.3, r=0.002)
  movej([0.1220,-1.1758,1.9287,-1.9771,-1.5292,-1.4561], a=0.5, v=0.3, r=0.002)
  movej([0.1536,-1.1777,1.9326,-1.9804,-1.5185,-1.4264], a=0.5, v=0.3, r=0.002)
  movej([0.1777,-1.1871,1.9483,-1.9880,-1.5103,-1.4036], a=0.5, v=0.3, r=0.002)
  movej([0.1835,-1.1860,1.9467,-1.9878,-1.5083,-1.3981], a=0.5, v=0.3)
  movej([0.1835,-1.3363,1.8146,-1.7055,-1.5083,-1.3981], a=0.97, v=1.1)
  movej([0.1706,-1.3133,1.7842,-1.6973,-1.5127,-1.4103], a=0.97, v=1.1)
  movej([0.1706,-1.3133,1.7842,-1.6973,-1.5127,-1.4103], a=0.5, v=0.3, r=0.002)
  movej([0.1706,-1.3027,1.7986,-1.7223,-1.5127,-1.4103], a=0.5, v=0.3, r=0.002)
  movej([0.1706,-1.2680,1.8388,-1.7973,-1.5127,-1.4103], a=0.5, v=0.3, r=0.002)
  movej([0.1706,-1.2120,1.8865,-1.9009,-1.5127,-1.4103], a=0.5, v=0.3, r=0.002)
  movej([0.1706,-1.1757,1.9098,-1.9605,-1.5127,-1.4103], a=0.5, v=0.3, r=0.002)
  movej([0.1639,-1.1625,1.9084,-1.9720,-1.5150,-1.4166], a=0.5, v=0.3, r=0.002)
  movej([0.1632,-1.1621,1.9077,-1.9716,-1.5152,-1.4173], a=0.5, v=0.3, r=0.002)
  movej([0.1723,-1.1675,1.9167,-1.9757,-1.5121,-1.4087], a=0.5, v=0.3)
  movej([0.1723,-1.3145,1.7858,-1.6978,-1.5121,-1.4087], a=0.97, v=1.1)
  movej([0.1334,-1.2897,1.7517,-1.6866,-1.5253,-1.4454], a=0.97, v=1.1)
  movej([0.1334,-1.2897,1.7517,-1.6866,-1.5253,-1.4454], a=0.5, v=0.3, r=0.002)
  movej([0.1334,-1.2792,1.7662,-1.7116,-1.5253,-1.4454], a=0.5, v=0.3, r=0.002)
  movej([0.1334,-1.2447,1.8067,-1.7866,-1.5253,-1.4454], a=0.5, v=0.3, r=0.002)
  movej([0.1334,-1.1898,1.8541,-1.8889,-1.5253,-1.4454], a=0.5, v=0.3, r=0.002)
  movej([0.1334,-1.1549,1.8768,-1.9465,-1.5253,-1.4454], a=0.5, v=0.3, r=0.002)
  movej([0.1286,-1.1451,1.8793,-1.9585,-1.5269,-1.4499], a=0.5, v=0.3, r=0.002)
  movej([0.1350,-1.1476,1.8834,-1.9605,-1.5247,-1.4438], a=0.5, v=0.3)
  movej([0.1350,-1.2910,1.7535,-1.6872,-1.5247,-1.4438], a=0.97, v=1.1)
  movej([0.1197,-1.2845,1.7445,-1.6840,-1.5299,-1.4583], a=0.97, v=1.1)
  movej([0.1197,-1.2845,1.7445,-1.6840,-1.5299,-1.4583], a=0.5, v=0.3, r=0.002)
  movej([0.1197,-1.2741,1.7590,-1.7090,-1.5299,-1.4583], a=0.5, v=0.3, r=0.002)
  movej([0.1197,-1.2396,1.7996,-1.7840,-1.5299,-1.4583], a=0.5, v=0.3, r=0.002)
  movej([0.1197,-1.1848,1.8470,-1.8863,-1.5299,-1.4583], a=0.5, v=0.3, r=0.002)
  movej([0.1197,-1.1499,1.8697,-1.9439,-1.5299,-1.4583], a=0.5, v=0.3, r=0.002)
  movej([0.1165,-1.1419,1.8737,-1.9558,-1.5310,-1.4612], a=0.5, v=0.3, r=0.002)
  movej([0.1213,-1.1432,1.8759,-1.9568,-1.5294,-1.4568], a=0.5, v=0.3)
  movej([0.1213,-1.2857,1.7461,-1.6845,-1.5294,-1.4568], a=0.97, v=1.1)
  movej([0.0529,-1.2848,1.7441,-1.6815,-1.5527,-1.5211], a=0.97, v=1.1)
  movej([0.0529,-1.2848,1.7441,-1.6815,-1.5527,-1.5211], a=0.5, v=0.3, r=0.002)
  movej([0.0529,-1.2744,1.7587,-1.7065,-1.5527,-1.5211], a=0.5, v=0.3, r=0.002)
  movej([0.0529,-1.2400,1.7993,-1.7815,-1.5527,-1.5211], a=0.5, v=0.3, r=0.002)
  movej([0.0529,-1.1851,1.8469,-1.8840,-1.5527,-1.5211], a=0.5, v=0.3, r=0.002)
  movej([0.0529,-1.1500,1.8697,-1.9418,-1.5527,-1.5211], a=0.5, v=0.3, r=0.002)
  movej([0.0497,-1.1439,1.8762,-1.9544,-1.5538,-1.5241], a=0.5, v=0.3, r=0.002)
  movej([0.0514,-1.1432,1.8750,-1.9539,-1.5532,-1.5224], a=0.5, v=0.3)
  movej([0.0514,-1.2855,1.7450,-1.6817,-1.5532,-1.5225], a=0.97, v=1.1)
  movej([0.0514,-1.2855,1.7450,-1.6817,-1.5532,-1.5225], a=0.97, v=1.1)
  movej([0.0417,-1.2879,1.7483,-1.6824,-1.5565,-1.5316], a=0.97, v=1.1)
  movej([0.0417,-1.2879,1.7483,-1.6824,-1.5565,-1.5316], a=0.5, v=0.3, r=0.002)
  movej([0.0417,-1.2775,1.7628,-1.7074,-1.5565,-1.5316], a=0.5, v=0.3, r=0.002)
  movej([0.0417,-1.2431,1.8034,-1.7824,-1.5565,-1.5316], a=0.5, v=0.3, r=0.002)
  movej([0.0417,-1.1883,1.8509,-1.8846,-1.5565,-1.5316], a=0.5, v=0.3, r=0.002)
  movej([0.0417,-1.1535,1.8735,-1.9420,-1.5565,-1.5316], a=0.5, v=0.3, r=0.002)
  movej([0.0281,-1.1507,1.8871,-1.9582,-1.5612,-1.5444], a=0.5, v=0.3, r=0.002)
  movej([0.0403,-1.1458,1.8792,-1.9554,-1.5570,-1.5329], a=0.5, v=0.3)
  movej([0.0403,-1.2886,1.7492,-1.6826,-1.5570,-1.5329], a=0.97, v=1.1)
  movej([0.0209,-1.2975,1.7611,-1.6854,-1.5637,-1.5512], a=0.97, v=1.1)
  movej([0.0209,-1.2975,1.7611,-1.6854,-1.5637,-1.5512], a=0.5, v=0.3, r=0.002)
  movej([0.0209,-1.2870,1.7756,-1.7104,-1.5637,-1.5512], a=0.5, v=0.3, r=0.002)
  movej([0.0209,-1.2525,1.8161,-1.7854,-1.5637,-1.5512], a=0.5, v=0.3, r=0.002)
  movej([0.0209,-1.1973,1.8638,-1.8883,-1.5637,-1.5512], a=0.5, v=0.3, r=0.002)
  movej([0.0209,-1.1618,1.8868,-1.9469,-1.5637,-1.5512], a=0.5, v=0.3, r=0.002)
  movej([0.0118,-1.1569,1.8971,-1.9620,-1.5668,-1.5597], a=0.5, v=0.3, r=0.002)
  movej([0.0195,-1.1540,1.8925,-1.9602,-1.5641,-1.5525], a=0.5, v=0.3)
  movej([0.0195,-1.2981,1.7620,-1.6856,-1.5641,-1.5525], a=0.97, v=1.1)
  movej([0.0055,-1.3065,1.7731,-1.6884,-1.5689,-1.5656], a=0.97, v=1.1)
  movej([0.0055,-1.3065,1.7731,-1.6884,-1.5689,-1.5656], a=0.5, v=0.3, r=0.002)
  movej([0.0055,-1.2959,1.7876,-1.7134,-1.5689,-1.5656], a=0.5, v=0.3, r=0.002)
  movej([0.0055,-1.2613,1.8280,-1.7884,-1.5689,-1.5656], a=0.5, v=0.3, r=0.002)
  movej([0.0055,-1.2056,1.8759,-1.8920,-1.5689,-1.5656], a=0.5, v=0.3, r=0.002)
  movej([0.0055,-1.1694,1.8992,-1.9516,-1.5689,-1.5656], a=0.5, v=0.3, r=0.002)
  movej([0.0021,-1.1624,1.9060,-1.9653,-1.5701,-1.5688], a=0.5, v=0.3, r=0.002)
  movej([0.0041,-1.1617,1.9049,-1.9649,-1.5694,-1.5669], a=0.5, v=0.3)
  movej([0.0041,-1.3071,1.7739,-1.6886,-1.5694,-1.5669], a=0.97, v=1.1)
  movej([-0.0490,-1.3500,1.8301,-1.7023,-1.5876,-1.6169], a=0.97, v=1.1)
  movej([-0.0490,-1.3500,1.8301,-1.7023,-1.5876,-1.6169], a=0.5, v=0.3, r=0.002)
  movej([-0.0490,-1.3393,1.8445,-1.7273,-1.5876,-1.6169], a=0.5, v=0.3, r=0.002)
  movej([-0.0490,-1.3043,1.8845,-1.8023,-1.5876,-1.6169], a=0.5, v=0.3, r=0.002)
  movej([-0.0490,-1.2471,1.9330,-1.9081,-1.5876,-1.6169], a=0.5, v=0.3, r=0.002)
  movej([-0.0490,-1.2086,1.9575,-1.9711,-1.5876,-1.6169], a=0.5, v=0.3, r=0.002)
  movej([-0.0547,-1.2030,1.9709,-1.9902,-1.5895,-1.6222], a=0.5, v=0.3, r=0.002)
  movej([-0.0505,-1.1987,1.9641,-1.9876,-1.5881,-1.6183], a=0.5, v=0.3)
  movej([-0.0505,-1.3505,1.8308,-1.7025,-1.5881,-1.6183], a=0.97, v=1.1)
  movej([-0.0942,-1.4030,1.8969,-1.7170,-1.6030,-1.6594], a=0.97, v=1.1)
  movej([-0.0942,-1.4030,1.8969,-1.7170,-1.6030,-1.6594], a=0.5, v=0.3, r=0.002)
  movej([-0.0942,-1.3922,1.9111,-1.7420,-1.6030,-1.6594], a=0.5, v=0.3, r=0.002)
  movej([-0.0942,-1.3569,1.9507,-1.8170,-1.6030,-1.6594], a=0.5, v=0.3, r=0.002)
  movej([-0.0942,-1.2980,2.0001,-1.9253,-1.6030,-1.6594], a=0.5, v=0.3, r=0.002)
  movej([-0.0942,-1.2568,2.0261,-1.9925,-1.6030,-1.6594], a=0.5, v=0.3, r=0.002)
  movej([-0.0994,-1.2501,2.0443,-2.0174,-1.6047,-1.6642], a=0.5, v=0.3, r=0.002)
  movej([-0.1236,-1.2826,2.0932,-2.0348,-1.6130,-1.6870], a=0.5, v=0.3, r=0.002)
  movej([-0.0989,-1.2495,2.0434,-2.0171,-1.6046,-1.6638], a=0.5, v=0.3, r=0.002)
  movej([-0.0960,-1.2455,2.0372,-2.0149,-1.6036,-1.6610], a=0.5, v=0.3)
  movej([-0.0960,-1.4059,1.9004,-1.7177,-1.6036,-1.6610], a=0.97, v=1.1)
  movej([0.0470,-1.3558,1.8376,-1.7039,-1.5547,-1.5266], a=0.97, v=1.1)
  movej([0.0470,-1.3558,1.8376,-1.7039,-1.5547,-1.5266], a=0.5, v=0.3, r=0.002)
  movej([0.0470,-1.3451,1.8519,-1.7289,-1.5547,-1.5266], a=0.5, v=0.3, r=0.002)
  movej([0.0470,-1.3101,1.8919,-1.8039,-1.5547,-1.5266], a=0.5, v=0.3, r=0.002)
  movej([0.0470,-1.2527,1.9405,-1.9098,-1.5547,-1.5266], a=0.5, v=0.3, r=0.002)
  movej([0.0470,-1.2140,1.9651,-1.9731,-1.5547,-1.5266], a=0.5, v=0.3, r=0.002)
  movej([0.0415,-1.2044,1.9730,-1.9907,-1.5566,-1.5318], a=0.5, v=0.3, r=0.002)
  movej([0.0456,-1.2018,1.9691,-1.9893,-1.5552,-1.5280], a=0.5, v=0.3)
  movej([0.0456,-1.3542,1.8356,-1.7034,-1.5552,-1.5280], a=0.97, v=1.1)
  movej([0.0625,-1.3393,1.8165,-1.6996,-1.5494,-1.5120], a=0.97, v=1.1)
  movej([0.0625,-1.3393,1.8165,-1.6996,-1.5494,-1.5120], a=0.5, v=0.3, r=0.002)
  movej([0.0625,-1.3286,1.8308,-1.7246,-1.5494,-1.5120], a=0.5, v=0.3, r=0.002)
  movej([0.0625,-1.2937,1.8709,-1.7996,-1.5494,-1.5120], a=0.5, v=0.3, r=0.002)
  movej([0.0625,-1.2370,1.9192,-1.9046,-1.5494,-1.5120], a=0.5, v=0.3, r=0.002)
  movej([0.0625,-1.1992,1.9434,-1.9665,-1.5494,-1.5120], a=0.5, v=0.3, r=0.002)
  movej([0.0527,-1.1932,1.9555,-1.9845,-1.5528,-1.5212], a=0.5, v=0.3, r=0.002)
  movej([0.0136,-1.2135,1.9871,-1.9954,-1.5662,-1.5581], a=0.5, v=0.3, r=0.002)
  movej([-0.0378,-1.2342,2.0193,-2.0071,-1.5837,-1.6063], a=0.5, v=0.3, r=0.002)
  movej([-0.0813,-1.2595,2.0581,-2.0214,-1.5986,-1.6472], a=0.5, v=0.3, r=0.002)
  movej([-0.1259,-1.3012,2.1204,-2.0435,-1.6138,-1.6892], a=0.5, v=0.3, r=0.002)
  movej([-0.1385,-1.3191,2.1464,-2.0521,-1.6180,-1.7010], a=0.5, v=0.3, r=0.002)
  movej([-0.1276,-1.3047,2.1255,-2.0451,-1.6143,-1.6907], a=0.5, v=0.3, r=0.002)
  movej([-0.0851,-1.2628,2.0631,-2.0232,-1.5999,-1.6508], a=0.5, v=0.3, r=0.002)
  movej([-0.0445,-1.2363,2.0226,-2.0083,-1.5860,-1.6127], a=0.5, v=0.3, r=0.002)
  movej([0.0028,-1.2203,1.9977,-1.9992,-1.5698,-1.5682], a=0.5, v=0.3, r=0.002)
  movej([0.0150,-1.2115,1.9840,-1.9943,-1.5657,-1.5567], a=0.5, v=0.3, r=0.002)
  movej([0.0479,-1.1945,1.9575,-1.9851,-1.5544,-1.5258], a=0.5, v=0.3, r=0.002)
  movej([0.0527,-1.1969,1.9614,-1.9867,-1.5528,-1.5213], a=0.5, v=0.3, r=0.002)
  movej([0.0547,-1.1996,1.9656,-1.9882,-1.5521,-1.5194], a=0.5, v=0.3, r=0.002)
  movej([0.0633,-1.1888,1.9486,-1.9822,-1.5492,-1.5113], a=0.5, v=0.3, r=0.002)
  movej([0.0640,-1.1885,1.9481,-1.9820,-1.5489,-1.5106], a=0.5, v=0.3)
  movej([0.0640,-1.3385,1.8155,-1.6994,-1.5489,-1.5106], a=0.97, v=1.1)
  movej([0.0444,-1.4060,1.9001,-1.7161,-1.5556,-1.5290], a=0.97, v=1.1)
  movej([0.0444,-1.4060,1.9001,-1.7161,-1.5556,-1.5290], a=0.5, v=0.3, r=0.002)
  movej([0.0444,-1.3952,1.9142,-1.7411,-1.5556,-1.5290], a=0.5, v=0.3, r=0.002)
  movej([0.0444,-1.3599,1.9539,-1.8161,-1.5556,-1.5290], a=0.5, v=0.3, r=0.002)
  movej([0.0444,-1.3009,2.0034,-1.9245,-1.5556,-1.5290], a=0.5, v=0.3, r=0.002)
  movej([0.0444,-1.2595,2.0294,-1.9919,-1.5556,-1.5290], a=0.5, v=0.3, r=0.002)
  movej([0.0440,-1.2520,2.0464,-2.0164,-1.5558,-1.5295], a=0.5, v=0.3, r=0.002)
  movej([0.0427,-1.2672,2.0692,-2.0240,-1.5562,-1.5306], a=0.5, v=0.3, r=0.002)
  movej([0.0425,-1.2534,2.0486,-2.0172,-1.5563,-1.5308], a=0.5, v=0.3, r=0.002)
  movej([0.0460,-1.2451,2.0360,-2.0130,-1.5551,-1.5276], a=0.5, v=0.3)
  movej([0.0460,-1.4053,1.8992,-1.7160,-1.5551,-1.5276], a=0.97, v=1.1)
  movej([0.0817,-1.4029,1.8966,-1.7165,-1.5429,-1.4940], a=0.97, v=1.1)
  movej([0.0817,-1.4029,1.8966,-1.7165,-1.5429,-1.4940], a=0.5, v=0.3, r=0.002)
  movej([0.0817,-1.3920,1.9107,-1.7415,-1.5429,-1.4940], a=0.5, v=0.3, r=0.002)
  movej([0.0817,-1.3567,1.9504,-1.8165,-1.5429,-1.4940], a=0.5, v=0.3, r=0.002)
  movej([0.0817,-1.2982,1.9995,-1.9240,-1.5429,-1.4940], a=0.5, v=0.3, r=0.002)
  movej([0.0817,-1.2579,2.0250,-1.9899,-1.5429,-1.4940], a=0.5, v=0.3, r=0.002)
  movej([0.0807,-1.2382,2.0252,-2.0098,-1.5432,-1.4949], a=0.5, v=0.3, r=0.002)
  movej([0.0714,-1.2197,1.9972,-2.0001,-1.5464,-1.5037], a=0.5, v=0.3, r=0.002)
  movej([0.0535,-1.2230,2.0021,-2.0013,-1.5525,-1.5205], a=0.5, v=0.3, r=0.002)
  movej([0.0544,-1.2217,2.0001,-2.0006,-1.5522,-1.5197], a=0.5, v=0.3, r=0.002)
  movej([0.0708,-1.2229,2.0022,-2.0018,-1.5466,-1.5043], a=0.5, v=0.3, r=0.002)
  movej([0.0807,-1.2498,2.0435,-2.0165,-1.5432,-1.4949], a=0.5, v=0.3, r=0.002)
  movej([0.0790,-1.2871,2.0991,-2.0346,-1.5438,-1.4966], a=0.5, v=0.3, r=0.002)
  movej([0.0787,-1.2965,2.1127,-2.0390,-1.5439,-1.4968], a=0.5, v=0.3, r=0.002)
  movej([0.0778,-1.2733,2.0787,-2.0281,-1.5442,-1.4977], a=0.5, v=0.3, r=0.002)
  movej([0.0815,-1.2465,2.0384,-2.0148,-1.5430,-1.4942], a=0.5, v=0.3, r=0.002)
  movej([0.0818,-1.2449,2.0361,-2.0140,-1.5428,-1.4939], a=0.5, v=0.3)
  movej([0.0818,-1.4051,1.8993,-1.7170,-1.5428,-1.4939], a=0.97, v=1.1)
  movej([0.0523,-1.5117,2.0212,-1.7317,-1.5529,-1.5216], a=0.97, v=1.1)
  movej([0.0523,-1.5117,2.0212,-1.7317,-1.5529,-1.5216], a=0.5, v=0.3, r=0.002)
  movej([0.0523,-1.5007,2.0352,-1.7567,-1.5529,-1.5216], a=0.5, v=0.3, r=0.002)
  movej([0.0523,-1.4651,2.0745,-1.8317,-1.5529,-1.5216], a=0.5, v=0.3, r=0.002)
  movej([0.0523,-1.4028,2.1263,-1.9456,-1.5529,-1.5216], a=0.5, v=0.3, r=0.002)
  movej([0.0523,-1.3548,2.1563,-2.0236,-1.5529,-1.5216], a=0.5, v=0.3, r=0.002)
  movej([0.0494,-1.3333,2.1638,-2.0526,-1.5539,-1.5244], a=0.5, v=0.3, r=0.002)
  movej([0.0261,-1.3161,2.1404,-2.0462,-1.5619,-1.5462], a=0.5, v=0.3, r=0.002)
  movej([0.0255,-1.2920,2.1057,-2.0355,-1.5621,-1.5468], a=0.5, v=0.3, r=0.002)
  movej([0.0341,-1.2491,2.0420,-2.0148,-1.5591,-1.5387], a=0.5, v=0.3, r=0.002)
  movej([0.0237,-1.3011,2.1188,-2.0396,-1.5627,-1.5486], a=0.5, v=0.3, r=0.002)
  movej([0.0299,-1.3237,2.1512,-2.0494,-1.5606,-1.5427], a=0.5, v=0.3, r=0.002)
  movej([0.0524,-1.3366,2.1695,-2.0551,-1.5529,-1.5215], a=0.5, v=0.3)
  movej([0.0524,-1.5139,2.0235,-1.7318,-1.5529,-1.5215], a=0.97, v=1.1)
  movej([0.0533,-1.5322,2.0430,-1.7330,-1.5526,-1.5207], a=0.97, v=1.1)
  movej([0.0533,-1.5322,2.0430,-1.7330,-1.5526,-1.5207], a=0.5, v=0.3, r=0.002)
  movej([0.0533,-1.5212,2.0570,-1.7580,-1.5526,-1.5207], a=0.5, v=0.3, r=0.002)
  movej([0.0533,-1.4855,2.0963,-1.8330,-1.5526,-1.5207], a=0.5, v=0.3, r=0.002)
  movej([0.0533,-1.4227,2.1486,-1.9481,-1.5526,-1.5207], a=0.5, v=0.3, r=0.002)
  movej([0.0533,-1.3732,2.1795,-2.0285,-1.5526,-1.5207], a=0.5, v=0.3, r=0.002)
  movej([0.0513,-1.3542,2.1926,-2.0606,-1.5533,-1.5226], a=0.5, v=0.3, r=0.002)
  movej([0.0303,-1.3733,2.2195,-2.0681,-1.5604,-1.5423], a=0.5, v=0.3, r=0.002)
  movej([0.0268,-1.3788,2.2268,-2.0698,-1.5616,-1.5456], a=0.5, v=0.3, r=0.002)
  movej([0.0494,-1.3553,2.1953,-2.0621,-1.5539,-1.5244], a=0.5, v=0.3, r=0.002)
  movej([0.0549,-1.3513,2.1898,-2.0608,-1.5520,-1.5192], a=0.5, v=0.3)
  movej([0.0549,-1.5314,2.0422,-1.7330,-1.5520,-1.5192], a=0.97, v=1.1)
  movej([0.0017,-1.5838,2.0952,-1.7332,-1.5702,-1.5692], a=0.97, v=1.1)
  movej([0.0017,-1.5838,2.0952,-1.7332,-1.5702,-1.5692], a=0.5, v=0.3, r=0.002)
  movej([0.0017,-1.5728,2.1092,-1.7582,-1.5702,-1.5692], a=0.5, v=0.3, r=0.002)
  movej([0.0017,-1.5371,2.1486,-1.8332,-1.5702,-1.5692], a=0.5, v=0.3, r=0.002)
  movej([0.0017,-1.4734,2.2019,-1.9502,-1.5702,-1.5692], a=0.5, v=0.3, r=0.002)
  movej([0.0017,-1.4212,2.2346,-2.0351,-1.5702,-1.5692], a=0.5, v=0.3, r=0.002)
  movej([0.0009,-1.3990,2.2490,-2.0718,-1.5705,-1.5699], a=0.5, v=0.3, r=0.002)
  movej([-0.0118,-1.4092,2.2665,-2.0790,-1.5748,-1.5819], a=0.5, v=0.3, r=0.002)
  movej([0.0007,-1.3988,2.2530,-2.0759,-1.5705,-1.5701], a=0.5, v=0.3, r=0.002)
  movej([0.0017,-1.3973,2.2510,-2.0755,-1.5702,-1.5692], a=0.5, v=0.3)
  movej([0.0017,-1.5862,2.0977,-1.7332,-1.5702,-1.5692], a=0.97, v=1.1)
  movej([-0.0747,-1.6517,2.1594,-1.7303,-1.5963,-1.6410], a=0.97, v=1.1)
  movej([-0.0747,-1.6517,2.1594,-1.7303,-1.5963,-1.6410], a=0.5, v=0.3, r=0.002)
  movej([-0.0747,-1.6407,2.1734,-1.7553,-1.5963,-1.6410], a=0.5, v=0.3, r=0.002)
  movej([-0.0747,-1.6052,2.2129,-1.8303,-1.5963,-1.6410], a=0.5, v=0.3, r=0.002)
  movej([-0.0747,-1.5405,2.2677,-1.9499,-1.5963,-1.6410], a=0.5, v=0.3, r=0.002)
  movej([-0.0747,-1.4842,2.3034,-2.0418,-1.5963,-1.6410], a=0.5, v=0.3, r=0.002)
  movej([-0.0748,-1.4564,2.3177,-2.0840,-1.5964,-1.6411], a=0.5, v=0.3, r=0.002)
  movej([-0.0810,-1.4341,2.2983,-2.0871,-1.5985,-1.6469], a=0.5, v=0.3, r=0.002)
  movej([-0.0905,-1.4055,2.2624,-2.0799,-1.6017,-1.6559], a=0.5, v=0.3, r=0.002)
  movej([-0.0880,-1.4139,2.2732,-2.0822,-1.6009,-1.6535], a=0.5, v=0.3, r=0.002)
  movej([-0.0768,-1.4485,2.3161,-2.0902,-1.5970,-1.6430], a=0.5, v=0.3, r=0.002)
  movej([-0.0749,-1.4542,2.3230,-2.0914,-1.5964,-1.6412], a=0.5, v=0.3)
  movej([-0.0749,-1.6543,2.1617,-1.7300,-1.5964,-1.6412], a=0.97, v=1.1)
  movej([0.0065,-1.4895,1.9968,-1.7290,-1.5686,-1.5647], a=0.97, v=1.1)
  movej([0.0065,-1.4895,1.9968,-1.7290,-1.5686,-1.5647], a=0.5, v=0.3, r=0.002)
  movej([0.0065,-1.4786,2.0108,-1.7540,-1.5686,-1.5647], a=0.5, v=0.3, r=0.002)
  movej([0.0065,-1.4429,2.0502,-1.8290,-1.5686,-1.5647], a=0.5, v=0.3, r=0.002)
  movej([0.0065,-1.3813,2.1014,-1.9418,-1.5686,-1.5647], a=0.5, v=0.3, r=0.002)
  movej([0.0065,-1.3348,2.1305,-2.0175,-1.5686,-1.5647], a=0.5, v=0.3, r=0.002)
  movej([0.0029,-1.3149,2.1379,-2.0447,-1.5698,-1.5680], a=0.5, v=0.3, r=0.002)
  movej([-0.0150,-1.3160,2.1402,-2.0460,-1.5759,-1.5849], a=0.5, v=0.3, r=0.002)
  movej([-0.0271,-1.3418,2.1765,-2.0566,-1.5801,-1.5962], a=0.5, v=0.3, r=0.002)
  movej([-0.0366,-1.3783,2.2262,-2.0698,-1.5833,-1.6052], a=0.5, v=0.3, r=0.002)
  movej([-0.0325,-1.3880,2.2389,-2.0729,-1.5819,-1.6013], a=0.5, v=0.3, r=0.002)
  movej([-0.0367,-1.3640,2.2070,-2.0650,-1.5834,-1.6053], a=0.5, v=0.3, r=0.002)
  movej([-0.0244,-1.3296,2.1595,-2.0517,-1.5791,-1.5937], a=0.5, v=0.3, r=0.002)
  movej([-0.0056,-1.3125,2.1353,-2.0445,-1.5727,-1.5760], a=0.5, v=0.3, r=0.002)
  movej([0.0065,-1.3212,2.1476,-2.0481,-1.5686,-1.5646], a=0.5, v=0.3, r=0.002)
  movej([0.0082,-1.3175,2.1424,-2.0466,-1.5680,-1.5631], a=0.5, v=0.3)
  movej([0.0082,-1.4911,1.9986,-1.7292,-1.5680,-1.5631], a=0.97, v=1.1)
  movej([-0.0518,-1.4860,1.9931,-1.7292,-1.5885,-1.6195], a=0.97, v=1.1)
  movej([-0.0518,-1.4860,1.9931,-1.7292,-1.5885,-1.6195], a=0.5, v=0.3, r=0.002)
  movej([-0.0518,-1.4750,2.0071,-1.7542,-1.5885,-1.6195], a=0.5, v=0.3, r=0.002)
  movej([-0.0518,-1.4394,2.0465,-1.8292,-1.5885,-1.6195], a=0.5, v=0.3, r=0.002)
  movej([-0.0518,-1.3779,2.0977,-1.9420,-1.5885,-1.6195], a=0.5, v=0.3, r=0.002)
  movej([-0.0518,-1.3314,2.1267,-2.0175,-1.5885,-1.6195], a=0.5, v=0.3, r=0.002)
  movej([-0.0524,-1.3159,2.1395,-2.0458,-1.5887,-1.6200], a=0.5, v=0.3, r=0.002)
  movej([-0.0611,-1.3308,2.1615,-2.0530,-1.5917,-1.6283], a=0.5, v=0.3, r=0.002)
  movej([-0.0640,-1.3348,2.1671,-2.0547,-1.5927,-1.6309], a=0.5, v=0.3, r=0.002)
  movej([-0.0590,-1.3263,2.1551,-2.0511,-1.5910,-1.6263], a=0.5, v=0.3, r=0.002)
  movej([-0.0525,-1.3086,2.1299,-2.0435,-1.5887,-1.6201], a=0.5, v=0.3, r=0.002)
  movej([-0.0517,-1.3113,2.1338,-2.0446,-1.5885,-1.6194], a=0.5, v=0.3)
  movej([-0.0517,-1.4838,1.9906,-1.7290,-1.5885,-1.6194], a=0.97, v=1.1)
  movej([-0.0517,-1.4838,1.9906,-1.7290,-1.5885,-1.6194], a=0.97, v=1.1)
  movej([-0.0561,-1.4761,1.9821,-1.7282,-1.5900,-1.6235], a=0.97, v=1.1)
  movej([-0.0561,-1.4761,1.9821,-1.7282,-1.5900,-1.6235], a=0.5, v=0.3, r=0.002)
  movej([-0.0561,-1.4652,1.9961,-1.7532,-1.5900,-1.6235], a=0.5, v=0.3, r=0.002)
  movej([-0.0561,-1.4296,2.0355,-1.8282,-1.5900,-1.6235], a=0.5, v=0.3, r=0.002)
  movej([-0.0561,-1.3684,2.0864,-1.9403,-1.5900,-1.6235], a=0.5, v=0.3, r=0.002)
  movej([-0.0561,-1.3227,2.1150,-2.0145,-1.5900,-1.6235], a=0.5, v=0.3, r=0.002)
  movej([-0.0592,-1.3095,2.1308,-2.0435,-1.5910,-1.6265], a=0.5, v=0.3, r=0.002)
  movej([-0.0772,-1.3381,2.1718,-2.0564,-1.5972,-1.6433], a=0.5, v=0.3, r=0.002)
  movej([-0.0874,-1.3629,2.2061,-2.0661,-1.6006,-1.6529], a=0.5, v=0.3, r=0.002)
  movej([-0.0827,-1.3520,2.1911,-2.0619,-1.5991,-1.6486], a=0.5, v=0.3, r=0.002)
  movej([-0.0648,-1.3154,2.1397,-2.0467,-1.5929,-1.6317], a=0.5, v=0.3, r=0.002)
  movej([-0.0578,-1.3054,2.1253,-2.0422,-1.5905,-1.6251], a=0.5, v=0.3)
  movej([-0.0578,-1.4768,1.9828,-1.7283,-1.5905,-1.6251], a=0.97, v=1.1)
  movej([-0.0651,-1.5237,2.0341,-1.7328,-1.5931,-1.6320], a=0.97, v=1.1)
  movej([-0.0651,-1.5237,2.0341,-1.7328,-1.5931,-1.6320], a=0.5, v=0.3, r=0.002)
  movej([-0.0651,-1.5127,2.0481,-1.7578,-1.5931,-1.6320], a=0.5, v=0.3, r=0.002)
  movej([-0.0651,-1.4770,2.0874,-1.8328,-1.5931,-1.6320], a=0.5, v=0.3, r=0.002)
  movej([-0.0651,-1.4144,2.1395,-1.9475,-1.5931,-1.6320], a=0.5, v=0.3, r=0.002)
  movej([-0.0651,-1.3653,2.1701,-2.0272,-1.5931,-1.6320], a=0.5, v=0.3, r=0.002)
  movej([-0.0675,-1.3470,2.1832,-2.0587,-1.5939,-1.6342], a=0.5, v=0.3, r=0.002)
  movej([-0.0719,-1.3532,2.1926,-2.0620,-1.5954,-1.6383], a=0.5, v=0.3, r=0.002)
  movej([-0.0652,-1.3468,2.1838,-2.0594,-1.5931,-1.6321], a=0.5, v=0.3)
  movej([-0.0652,-1.5261,2.0367,-1.7330,-1.5931,-1.6321], a=0.97, v=1.1)
  movej([-0.1597,-1.5378,2.0504,-1.7385,-1.6252,-1.7210], a=0.97, v=1.1)
  movej([-0.1597,-1.5378,2.0504,-1.7385,-1.6252,-1.7210], a=0.5, v=0.3, r=0.002)
  movej([-0.1597,-1.5268,2.0644,-1.7635,-1.6252,-1.7210], a=0.5, v=0.3, r=0.002)
  movej([-0.1597,-1.4910,2.1036,-1.8385,-1.6252,-1.7210], a=0.5, v=0.3, r=0.002)
  movej([-0.1597,-1.4279,2.1559,-1.9538,-1.6252,-1.7210], a=0.5, v=0.3, r=0.002)
  movej([-0.1597,-1.3779,2.1869,-2.0349,-1.6252,-1.7210], a=0.5, v=0.3, r=0.002)
  movej([-0.1600,-1.3579,2.1991,-2.0670,-1.6253,-1.7213], a=0.5, v=0.3, r=0.002)
  movej([-0.1597,-1.3549,2.1968,-2.0678,-1.6252,-1.7210], a=0.5, v=0.3, r=0.002)
  movej([-0.1593,-1.3539,2.1955,-2.0674,-1.6251,-1.7207], a=0.5, v=0.3)
  movej([-0.1593,-1.5353,2.0478,-1.7383,-1.6251,-1.7207], a=0.97, v=1.1)
  movej([-0.1705,-1.5795,2.0930,-1.7399,-1.6289,-1.7312], a=0.97, v=1.1)
  movej([-0.1705,-1.5795,2.0930,-1.7399,-1.6289,-1.7312], a=0.5, v=0.3, r=0.002)
  movej([-0.1705,-1.5685,2.1070,-1.7649,-1.6289,-1.7312], a=0.5, v=0.3, r=0.002)
  movej([-0.1705,-1.5327,2.1462,-1.8399,-1.6289,-1.7312], a=0.5, v=0.3, r=0.002)
  movej([-0.1705,-1.4689,2.1993,-1.9568,-1.6289,-1.7312], a=0.5, v=0.3, r=0.002)
  movej([-0.1705,-1.4167,2.2318,-2.0415,-1.6289,-1.7312], a=0.5, v=0.3, r=0.002)
  movej([-0.1704,-1.3930,2.2432,-2.0767,-1.6288,-1.7311], a=0.5, v=0.3, r=0.002)
  movej([-0.1697,-1.3860,2.2390,-2.0793,-1.6286,-1.7304], a=0.5, v=0.3, r=0.002)
  movej([-0.1702,-1.3887,2.2425,-2.0802,-1.6287,-1.7309], a=0.5, v=0.3)
  movej([-0.1702,-1.5769,2.0904,-1.7399,-1.6287,-1.7309], a=0.97, v=1.1)
  movej([-0.1799,-1.6294,2.1410,-1.7385,-1.6320,-1.7401], a=0.97, v=1.1)
  movej([-0.1799,-1.6294,2.1410,-1.7385,-1.6320,-1.7401], a=0.5, v=0.3, r=0.002)
  movej([-0.1799,-1.6184,2.1550,-1.7635,-1.6320,-1.7401], a=0.5, v=0.3, r=0.002)
  movej([-0.1799,-1.5827,2.1943,-1.8385,-1.6320,-1.7401], a=0.5, v=0.3, r=0.002)
  movej([-0.1799,-1.5183,2.2484,-1.9570,-1.6320,-1.7401], a=0.5, v=0.3, r=0.002)
  movej([-0.1799,-1.4636,2.2827,-2.0461,-1.6320,-1.7401], a=0.5, v=0.3, r=0.002)
  movej([-0.1797,-1.4365,2.2954,-2.0859,-1.6320,-1.7399], a=0.5, v=0.3, r=0.002)
  movej([-0.1760,-1.4115,2.2722,-2.0874,-1.6307,-1.7364], a=0.5, v=0.3, r=0.002)
  movej([-0.1776,-1.4203,2.2834,-2.0899,-1.6313,-1.7379], a=0.5, v=0.3, r=0.002)
  movej([-0.1795,-1.4303,2.2961,-2.0927,-1.6319,-1.7397], a=0.5, v=0.3)
  movej([-0.1795,-1.6267,2.1385,-1.7387,-1.6319,-1.7397], a=0.97, v=1.1)
  movej([-0.1790,-1.6469,2.1569,-1.7369,-1.6317,-1.7393], a=0.97, v=1.1)
  movej([-0.1790,-1.6469,2.1569,-1.7369,-1.6317,-1.7393], a=0.5, v=0.3, r=0.002)
  movej([-0.1790,-1.6359,2.1709,-1.7619,-1.6317,-1.7393], a=0.5, v=0.3, r=0.002)
  movej([-0.1790,-1.6003,2.2103,-1.8369,-1.6317,-1.7393], a=0.5, v=0.3, r=0.002)
  movej([-0.1790,-1.5354,2.2650,-1.9564,-1.6317,-1.7393], a=0.5, v=0.3, r=0.002)
  movej([-0.1790,-1.4790,2.3005,-2.0484,-1.6317,-1.7393], a=0.5, v=0.3, r=0.002)
  movej([-0.1790,-1.4514,2.3149,-2.0903,-1.6317,-1.7393], a=0.5, v=0.3, r=0.002)
  movej([-0.1797,-1.4411,2.3094,-2.0953,-1.6320,-1.7399], a=0.5, v=0.3, r=0.002)
  movej([-0.1805,-1.4454,2.3148,-2.0963,-1.6322,-1.7406], a=0.5, v=0.3)
  movej([-0.1805,-1.6447,2.1550,-1.7372,-1.6322,-1.7406], a=0.97, v=1.1)
  movej([-0.1595,-1.7114,2.2119,-1.7263,-1.6251,-1.7208], a=0.97, v=1.1)
  movej([-0.1595,-1.7114,2.2119,-1.7263,-1.6251,-1.7208], a=0.5, v=0.3, r=0.002)
  movej([-0.1595,-1.7005,2.2260,-1.7513,-1.6251,-1.7208], a=0.5, v=0.3, r=0.002)
  movej([-0.1595,-1.6653,2.2657,-1.8263,-1.6251,-1.7208], a=0.5, v=0.3, r=0.002)
  movej([-0.1595,-1.5999,2.3218,-1.9478,-1.6251,-1.7208], a=0.5, v=0.3, r=0.002)
  movej([-0.1595,-1.5397,2.3603,-2.0464,-1.6251,-1.7208], a=0.5, v=0.3, r=0.002)
  movej([-0.1595,-1.5079,2.3771,-2.0950,-1.6251,-1.7208], a=0.5, v=0.3, r=0.002)
  movej([-0.1671,-1.4867,2.3632,-2.1028,-1.6277,-1.7279], a=0.5, v=0.3, r=0.002)
  movej([-0.1678,-1.4839,2.3600,-2.1024,-1.6280,-1.7287], a=0.5, v=0.3, r=0.002)
  movej([-0.1591,-1.4993,2.3774,-2.1039,-1.6250,-1.7204], a=0.5, v=0.3)
  movej([-0.1591,-1.7086,2.2095,-1.7267,-1.6250,-1.7204], a=0.97, v=1.1)
  movej([-0.1327,-1.7922,2.2733,-1.7056,-1.6161,-1.6956], a=0.97, v=1.1)
  movej([-0.1327,-1.7922,2.2733,-1.7056,-1.6161,-1.6956], a=0.5, v=0.3, r=0.002)
  movej([-0.1327,-1.7815,2.2876,-1.7306,-1.6161,-1.6956], a=0.5, v=0.3, r=0.002)
  movej([-0.1327,-1.7469,2.3280,-1.8056,-1.6161,-1.6956], a=0.5, v=0.3, r=0.002)
  movej([-0.1327,-1.6815,2.3860,-1.9291,-1.6161,-1.6956], a=0.5, v=0.3, r=0.002)
  movej([-0.1327,-1.6167,2.4286,-2.0364,-1.6161,-1.6956], a=0.5, v=0.3, r=0.002)
  movej([-0.1327,-1.5794,2.4485,-2.0937,-1.6161,-1.6956], a=0.5, v=0.3, r=0.002)
  movej([-0.1419,-1.5592,2.4412,-2.1070,-1.6192,-1.7042], a=0.5, v=0.3, r=0.002)
  movej([-0.1639,-1.5294,2.4107,-2.1073,-1.6266,-1.7250], a=0.5, v=0.3, r=0.002)
  movej([-0.1549,-1.5421,2.4238,-2.1074,-1.6236,-1.7165], a=0.5, v=0.3, r=0.002)
  movej([-0.1346,-1.5688,2.4508,-2.1066,-1.6167,-1.6974], a=0.5, v=0.3, r=0.002)
  movej([-0.1346,-1.5689,2.4509,-2.1066,-1.6167,-1.6973], a=0.5, v=0.3)
  movej([-0.1346,-1.7900,2.2717,-1.7064,-1.6167,-1.6973], a=0.97, v=1.1)
  movej([-0.0932,-1.8124,2.2869,-1.6976,-1.6026,-1.6584], a=0.97, v=1.1)
  movej([-0.0932,-1.8124,2.2869,-1.6976,-1.6026,-1.6584], a=0.5, v=0.3, r=0.002)
  movej([-0.0932,-1.8017,2.3013,-1.7226,-1.6026,-1.6584], a=0.5, v=0.3, r=0.002)
  movej([-0.0932,-1.7674,2.3419,-1.7976,-1.6026,-1.6584], a=0.5, v=0.3, r=0.002)
  movej([-0.0932,-1.7022,2.4004,-1.9214,-1.6026,-1.6584], a=0.5, v=0.3, r=0.002)
  movej([-0.0932,-1.6366,2.4439,-2.0304,-1.6026,-1.6584], a=0.5, v=0.3, r=0.002)
  movej([-0.0932,-1.5982,2.4645,-2.0894,-1.6026,-1.6584], a=0.5, v=0.3, r=0.002)
  movej([-0.1015,-1.5859,2.4669,-2.1044,-1.6055,-1.6662], a=0.5, v=0.3, r=0.002)
  movej([-0.0950,-1.5867,2.4676,-2.1041,-1.6033,-1.6601], a=0.5, v=0.3)
  movej([-0.0950,-1.8102,2.2854,-1.6984,-1.6033,-1.6601], a=0.97, v=1.1)
  movej([-0.0742,-1.8149,2.2884,-1.6961,-1.5961,-1.6405], a=0.97, v=1.1)
  movej([-0.0742,-1.8149,2.2884,-1.6961,-1.5961,-1.6405], a=0.5, v=0.3, r=0.002)
  movej([-0.0742,-1.8043,2.3028,-1.7211,-1.5961,-1.6405], a=0.5, v=0.3, r=0.002)
  movej([-0.0742,-1.7700,2.3435,-1.7961,-1.5961,-1.6405], a=0.5, v=0.3, r=0.002)
  movej([-0.0742,-1.7048,2.4021,-1.9199,-1.5961,-1.6405], a=0.5, v=0.3, r=0.002)
  movej([-0.0742,-1.6391,2.4458,-2.0293,-1.5961,-1.6405], a=0.5, v=0.3, r=0.002)
  movej([-0.0742,-1.6005,2.4666,-2.0887,-1.5961,-1.6405], a=0.5, v=0.3, r=0.002)
  movej([-0.0806,-1.5905,2.4711,-2.1033,-1.5983,-1.6466], a=0.5, v=0.3, r=0.002)
  movej([-0.0764,-1.5919,2.4723,-2.1031,-1.5969,-1.6426], a=0.5, v=0.3)
  movej([-0.0764,-1.8160,2.2892,-1.6959,-1.5969,-1.6426], a=0.97, v=1.1)
  movej([0.0795,-1.7602,2.2489,-1.7115,-1.5436,-1.4961], a=0.97, v=1.1)
  movej([0.0795,-1.7602,2.2489,-1.7115,-1.5436,-1.4961], a=0.5, v=0.3, r=0.002)
  movej([0.0795,-1.7494,2.2632,-1.7365,-1.5436,-1.4961], a=0.5, v=0.3, r=0.002)
  movej([0.0795,-1.7146,2.3033,-1.8115,-1.5436,-1.4961], a=0.5, v=0.3, r=0.002)
  movej([0.0795,-1.6492,2.3607,-1.9343,-1.5436,-1.4961], a=0.5, v=0.3, r=0.002)
  movej([0.0795,-1.5860,2.4018,-2.0385,-1.5436,-1.4961], a=0.5, v=0.3, r=0.002)
  movej([0.0795,-1.5506,2.4206,-2.0928,-1.5436,-1.4961], a=0.5, v=0.3, r=0.002)
  movej([0.0756,-1.5459,2.4261,-2.1029,-1.5450,-1.4997], a=0.5, v=0.3, r=0.002)
  movej([0.0817,-1.5427,2.4229,-2.1030,-1.5429,-1.4940], a=0.5, v=0.3)
  movej([0.0817,-1.7589,2.2480,-1.7119,-1.5429,-1.4940], a=0.97, v=1.1)
  movej([0.0653,-1.7122,2.2111,-1.7213,-1.5485,-1.5094], a=0.97, v=1.1)
  movej([0.0653,-1.7122,2.2111,-1.7213,-1.5485,-1.5094], a=0.5, v=0.3, r=0.002)
  movej([0.0653,-1.7014,2.2252,-1.7462,-1.5485,-1.5094], a=0.5, v=0.3, r=0.002)
  movej([0.0653,-1.6662,2.2650,-1.8212,-1.5485,-1.5094], a=0.5, v=0.3, r=0.002)
  movej([0.0653,-1.6009,2.3213,-1.9429,-1.5485,-1.5094], a=0.5, v=0.3, r=0.002)
  movej([0.0653,-1.5406,2.3600,-2.0418,-1.5485,-1.5094], a=0.5, v=0.3, r=0.002)
  movej([0.0653,-1.5085,2.3769,-2.0908,-1.5485,-1.5094], a=0.5, v=0.3, r=0.002)
  movej([0.0638,-1.4987,2.3747,-2.0984,-1.5490,-1.5108], a=0.5, v=0.3, r=0.002)
  movej([0.0491,-1.5169,2.3948,-2.1000,-1.5540,-1.5246], a=0.5, v=0.3, r=0.002)
  movej([-0.0037,-1.5264,2.4050,-2.1003,-1.5721,-1.5743], a=0.5, v=0.3, r=0.002)
  movej([-0.0433,-1.5292,2.4081,-2.1010,-1.5856,-1.6114], a=0.5, v=0.3, r=0.002)
  movej([-0.0909,-1.5341,2.4140,-2.1029,-1.6018,-1.6562], a=0.5, v=0.3, r=0.002)
  movej([-0.1331,-1.5187,2.3983,-2.1041,-1.6162,-1.6960], a=0.5, v=0.3, r=0.002)
  movej([-0.1575,-1.5077,2.3868,-2.1048,-1.6245,-1.7189], a=0.5, v=0.3, r=0.002)
  movej([-0.1717,-1.5118,2.3917,-2.1064,-1.6293,-1.7324], a=0.5, v=0.3, r=0.002)
  movej([-0.1647,-1.5137,2.3936,-2.1060,-1.6269,-1.7257], a=0.5, v=0.3, r=0.002)
  movej([-0.1469,-1.5108,2.3899,-2.1043,-1.6209,-1.7090], a=0.5, v=0.3, r=0.002)
  movej([-0.1135,-1.5301,2.4101,-2.1038,-1.6095,-1.6775], a=0.5, v=0.3, r=0.002)
  movej([-0.0628,-1.5347,2.4141,-2.1019,-1.5923,-1.6298], a=0.5, v=0.3, r=0.002)
  movej([-0.0202,-1.5258,2.4043,-2.1003,-1.5777,-1.5898], a=0.5, v=0.3, r=0.002)
  movej([0.0307,-1.5218,2.4000,-2.1001,-1.5603,-1.5420], a=0.5, v=0.3, r=0.002)
  movej([0.0642,-1.5062,2.3831,-2.0993,-1.5489,-1.5105], a=0.5, v=0.3, r=0.002)
  movej([0.0655,-1.5053,2.3822,-2.0993,-1.5484,-1.5093], a=0.5, v=0.3)
  movej([0.0655,-1.7149,2.2132,-1.7208,-1.5484,-1.5093], a=0.97, v=1.1)
  movej([0.0443,-1.6567,2.1636,-1.7289,-1.5557,-1.5292], a=0.97, v=1.1)
  movej([0.0443,-1.6567,2.1636,-1.7289,-1.5557,-1.5292], a=0.5, v=0.3, r=0.002)
  movej([0.0443,-1.6457,2.1776,-1.7539,-1.5557,-1.5292], a=0.5, v=0.3, r=0.002)
  movej([0.0443,-1.6103,2.2172,-1.8289,-1.5557,-1.5292], a=0.5, v=0.3, r=0.002)
  movej([0.0443,-1.5455,2.2721,-1.9486,-1.5557,-1.5292], a=0.5, v=0.3, r=0.002)
  movej([0.0443,-1.4891,2.3079,-2.0408,-1.5557,-1.5292], a=0.5, v=0.3, r=0.002)
  movej([0.0443,-1.4612,2.3223,-2.0832,-1.5557,-1.5292], a=0.5, v=0.3, r=0.002)
  movej([0.0423,-1.4394,2.3044,-2.0871,-1.5563,-1.5310], a=0.5, v=0.3, r=0.002)
  movej([0.0421,-1.4380,2.3028,-2.0868,-1.5564,-1.5312], a=0.5, v=0.3, r=0.002)
  movej([0.0410,-1.4661,2.3367,-2.0927,-1.5568,-1.5323], a=0.5, v=0.3, r=0.002)
  movej([0.0444,-1.4584,2.3277,-2.0913,-1.5556,-1.5291], a=0.5, v=0.3)
  movej([0.0444,-1.6592,2.1658,-1.7287,-1.5556,-1.5291], a=0.97, v=1.1)
  movej([0.0862,-1.5939,2.1056,-1.7347,-1.5414,-1.4898], a=0.97, v=1.1)
  movej([0.0862,-1.5939,2.1056,-1.7347,-1.5414,-1.4898], a=0.5, v=0.3, r=0.002)
  movej([0.0862,-1.5828,2.1196,-1.7597,-1.5414,-1.4898], a=0.5, v=0.3, r=0.002)
  movej([0.0862,-1.5472,2.1589,-1.8347,-1.5414,-1.4898], a=0.5, v=0.3, r=0.002)
  movej([0.0862,-1.4833,2.2124,-1.9520,-1.5414,-1.4898], a=0.5, v=0.3, r=0.002)
  movej([0.0862,-1.4305,2.2455,-2.0380,-1.5414,-1.4898], a=0.5, v=0.3, r=0.002)
  movej([0.0862,-1.4074,2.2597,-2.0752,-1.5413,-1.4898], a=0.5, v=0.3, r=0.002)
  movej([0.0869,-1.4270,2.2896,-2.0856,-1.5411,-1.4892], a=0.5, v=0.3, r=0.002)
  movej([0.0729,-1.4614,2.3315,-2.0927,-1.5459,-1.5023], a=0.5, v=0.3, r=0.002)
  movej([0.0619,-1.4648,2.3354,-2.0930,-1.5496,-1.5126], a=0.5, v=0.3, r=0.002)
  movej([0.0737,-1.4593,2.3290,-2.0923,-1.5456,-1.5015], a=0.5, v=0.3, r=0.002)
  movej([0.0862,-1.4210,2.2820,-2.0840,-1.5413,-1.4897], a=0.5, v=0.3, r=0.002)
  movej([0.0840,-1.3822,2.2319,-2.0725,-1.5421,-1.4919], a=0.5, v=0.3, r=0.002)
  movej([0.0842,-1.3829,2.2329,-2.0728,-1.5420,-1.4917], a=0.5, v=0.3, r=0.002)
  movej([0.0860,-1.4015,2.2571,-2.0786,-1.5414,-1.4900], a=0.5, v=0.3, r=0.002)
  movej([0.0860,-1.4015,2.2572,-2.0786,-1.5414,-1.4900], a=0.5, v=0.3)
  movej([0.0860,-1.5915,2.1033,-1.7347,-1.5414,-1.4900], a=0.97, v=1.1)
  movej([0.1667,-1.6648,2.1726,-1.7339,-1.5140,-1.4140], a=0.97, v=1.1)
  movej([0.1667,-1.6648,2.1726,-1.7339,-1.5140,-1.4140], a=0.5, v=0.3, r=0.002)
  movej([0.1667,-1.6538,2.1866,-1.7589,-1.5140,-1.4140], a=0.5, v=0.3, r=0.002)
  movej([0.1667,-1.6183,2.2261,-1.8339,-1.5140,-1.4140], a=0.5, v=0.3, r=0.002)
  movej([0.1667,-1.5533,2.2811,-1.9540,-1.5140,-1.4140], a=0.5, v=0.3, r=0.002)
  movej([0.1667,-1.4959,2.3174,-2.0477,-1.5140,-1.4140], a=0.5, v=0.3, r=0.002)
  movej([0.1665,-1.4673,2.3328,-2.0917,-1.5141,-1.4142], a=0.5, v=0.3, r=0.002)
  movej([0.1608,-1.4688,2.3422,-2.0993,-1.5160,-1.4195], a=0.5, v=0.3, r=0.002)
  movej([0.1647,-1.4635,2.3361,-2.0987,-1.5147,-1.4158], a=0.5, v=0.3)
  movej([0.1647,-1.6661,2.1736,-1.7336,-1.5147,-1.4158], a=0.97, v=1.1)

  movej([1.0470,-1.5700,1.5700,-1.5700,-1.5700,0.0000], a=0.97, v=1.1)
end