def draw_face():
  set_tcp(p[0.0393,0.0000,-0.1081,0.0000,0.3491,0.0000])

  movej([1.0470,-1.5700,1.5700,-1.5700,-1.5700,0.0000], a=0.97, v=1.1)

  movej([1.0470,-1.5700,1.5700,-1.5700,-1.5700,-3.1416], a=0.97, v=1.1)
  movej([0.2024,-1.4432,1.9469,-1.7321,-1.5020,-4.5219], a=0.97, v=1.1)
  movej([0.2024,-1.4432,1.9469,-1.7321,-1.5020,-4.5219], a=0.5, v=0.3, r=0.002)
  movej([0.2024,-1.4322,1.9610,-1.7571,-1.5020,-4.5219], a=0.5, v=0.3, r=0.002)
  movej([0.2024,-1.3966,2.0003,-1.8321,-1.5020,-4.5219], a=0.5, v=0.3, r=0.002)
  movej([0.2024,-1.3362,2.0503,-1.9424,-1.5020,-4.5219], a=0.5, v=0.3, r=0.002)
  movej([0.2024,-1.2927,2.0774,-2.0131,-1.5020,-4.5219], a=0.5, v=0.3, r=0.002)
  movej([0.2020,-1.2825,2.0949,-2.0407,-1.5021,-4.5223], a=0.5, v=0.3, r=0.002)
  movej([0.1969,-1.3140,2.1408,-2.0547,-1.5039,-4.5271], a=0.5, v=0.3, r=0.002)
  movej([0.1727,-1.3586,2.2022,-2.0702,-1.5120,-4.5499], a=0.5, v=0.3, r=0.002)
  movej([0.1285,-1.3946,2.2491,-2.0789,-1.5270,-4.5916], a=0.5, v=0.3, r=0.002)
  movej([0.0796,-1.4111,2.2694,-2.0811,-1.5436,-4.6375], a=0.5, v=0.3, r=0.002)
  movej([0.0562,-1.4272,2.2895,-2.0845,-1.5516,-4.6595], a=0.5, v=0.3, r=0.002)
  movej([0.0150,-1.4361,2.3003,-2.0860,-1.5657,-4.6983], a=0.5, v=0.3, r=0.002)
  movej([-0.0444,-1.4406,2.3060,-2.0875,-1.5860,-4.7541], a=0.5, v=0.3, r=0.002)
  movej([-0.0637,-1.4514,2.3193,-2.0903,-1.5926,-4.7722], a=0.5, v=0.3, r=0.002)
  movej([-0.0809,-1.4867,2.3612,-2.0973,-1.5984,-4.7884], a=0.5, v=0.3, r=0.002)
  movej([-0.1101,-1.5407,2.4212,-2.1042,-1.6084,-4.8159], a=0.5, v=0.3, r=0.002)
  movej([-0.1565,-1.6149,2.4956,-2.1064,-1.6241,-4.8596], a=0.5, v=0.3, r=0.002)
  movej([-0.1761,-1.6453,2.5235,-2.1049,-1.6307,-4.8781], a=0.5, v=0.3, r=0.002)
  movej([-0.1647,-1.6273,2.5072,-2.1060,-1.6269,-4.8673], a=0.5, v=0.3, r=0.002)
  movej([-0.1234,-1.5614,2.4430,-2.1057,-1.6129,-4.8285], a=0.5, v=0.3, r=0.002)
  movej([-0.0851,-1.4979,2.3740,-2.0990,-1.5999,-4.7924], a=0.5, v=0.3, r=0.002)
  movej([-0.0694,-1.4610,2.3309,-2.0925,-1.5945,-4.7776], a=0.5, v=0.3, r=0.002)
  movej([-0.0640,-1.4395,2.3049,-2.0878,-1.5927,-4.7725], a=0.5, v=0.3, r=0.002)
  movej([-0.0773,-1.4436,2.3101,-2.0892,-1.5972,-4.7851], a=0.5, v=0.3, r=0.002)
  movej([-0.0722,-1.4379,2.3030,-2.0876,-1.5955,-4.7803], a=0.5, v=0.3, r=0.002)
  movej([-0.0791,-1.4260,2.2883,-2.0850,-1.5978,-4.7868], a=0.5, v=0.3, r=0.002)
  movej([-0.0632,-1.4352,2.2995,-2.0867,-1.5924,-4.7718], a=0.5, v=0.3, r=0.002)
  movej([-0.0241,-1.4379,2.3025,-2.0865,-1.5790,-4.7350], a=0.5, v=0.3, r=0.002)
  movej([0.0335,-1.4343,2.2982,-2.0858,-1.5593,-4.6809], a=0.5, v=0.3, r=0.002)
  movej([0.0608,-1.4196,2.2800,-2.0827,-1.5500,-4.6552], a=0.5, v=0.3, r=0.002)
  movej([0.0926,-1.4086,2.2664,-2.0810,-1.5392,-4.6253], a=0.5, v=0.3, r=0.002)
  movej([0.1383,-1.3869,2.2392,-2.0771,-1.5236,-4.5824], a=0.5, v=0.3, r=0.002)
  movej([0.1797,-1.3482,2.1883,-2.0669,-1.5096,-4.5433], a=0.5, v=0.3, r=0.002)
  movej([0.1989,-1.3035,2.1258,-2.0504,-1.5032,-4.5252], a=0.5, v=0.3, r=0.002)
  movej([0.1978,-1.2632,2.0665,-2.0313,-1.5035,-4.5262], a=0.5, v=0.3, r=0.002)
  movej([0.1720,-1.2380,2.0276,-2.0160,-1.5122,-4.5505], a=0.5, v=0.3, r=0.002)
  movej([0.1445,-1.2359,2.0236,-2.0128,-1.5215,-4.5765], a=0.5, v=0.3, r=0.002)
  movej([0.0967,-1.2512,2.0458,-2.0179,-1.5378,-4.6214], a=0.5, v=0.3, r=0.002)
  movej([0.0720,-1.2625,2.0626,-2.0226,-1.5462,-4.6448], a=0.5, v=0.3, r=0.002)
  movej([0.0840,-1.2653,2.0668,-2.0244,-1.5421,-4.6335], a=0.5, v=0.3, r=0.002)
  movej([0.1176,-1.2588,2.0577,-2.0229,-1.5307,-4.6019], a=0.5, v=0.3, r=0.002)
  movej([0.1087,-1.2610,2.0608,-2.0235,-1.5337,-4.6102], a=0.5, v=0.3, r=0.002)
  movej([0.0855,-1.2691,2.0725,-2.0263,-1.5416,-4.6320], a=0.5, v=0.3, r=0.002)
  movej([0.0891,-1.2912,2.1052,-2.0370,-1.5404,-4.6286], a=0.5, v=0.3, r=0.002)
  movej([0.0853,-1.3144,2.1386,-2.0471,-1.5417,-4.6322], a=0.5, v=0.3, r=0.002)
  movej([0.0867,-1.3061,2.1268,-2.0436,-1.5412,-4.6309], a=0.5, v=0.3, r=0.002)
  movej([0.0881,-1.2777,2.0853,-2.0306,-1.5407,-4.6296], a=0.5, v=0.3, r=0.002)
  movej([0.0756,-1.2666,2.0686,-2.0247,-1.5450,-4.6413], a=0.5, v=0.3, r=0.002)
  movej([0.0639,-1.2664,2.0682,-2.0242,-1.5490,-4.6524], a=0.5, v=0.3, r=0.002)
  movej([0.0678,-1.2559,2.0525,-2.0191,-1.5476,-4.6486], a=0.5, v=0.3, r=0.002)
  movej([0.0561,-1.2556,2.0520,-2.0186,-1.5516,-4.6597], a=0.5, v=0.3, r=0.002)
  movej([0.0127,-1.2782,2.0854,-2.0290,-1.5664,-4.7004], a=0.5, v=0.3, r=0.002)
  movej([-0.0215,-1.2905,2.1035,-2.0348,-1.5781,-4.7326], a=0.5, v=0.3, r=0.002)
  movej([-0.0402,-1.3004,2.1179,-2.0396,-1.5845,-4.7502], a=0.5, v=0.3, r=0.002)
  movej([-0.0492,-1.3044,2.1239,-2.0416,-1.5876,-4.7586], a=0.5, v=0.3, r=0.002)
  movej([-0.0730,-1.3076,2.1287,-2.0437,-1.5957,-4.7810], a=0.5, v=0.3, r=0.002)
  movej([-0.0800,-1.3079,2.1293,-2.0441,-1.5981,-4.7876], a=0.5, v=0.3, r=0.002)
  movej([-0.0618,-1.2981,2.1149,-2.0391,-1.5919,-4.7705], a=0.5, v=0.3, r=0.002)
  movej([-0.0283,-1.2941,2.1088,-2.0365,-1.5805,-4.7390], a=0.5, v=0.3, r=0.002)
  movej([-0.0228,-1.2733,2.0782,-2.0267,-1.5786,-4.7338], a=0.5, v=0.3, r=0.002)
  movej([-0.0312,-1.2233,2.0024,-2.0010,-1.5815,-4.7417], a=0.5, v=0.3, r=0.002)
  movej([-0.0498,-1.1589,1.9005,-1.9638,-1.5878,-4.7592], a=0.5, v=0.3, r=0.002)
  movej([-0.0296,-1.2312,2.0146,-2.0053,-1.5809,-4.7402], a=0.5, v=0.3, r=0.002)
  movej([-0.0216,-1.2742,2.0795,-2.0271,-1.5782,-4.7327], a=0.5, v=0.3, r=0.002)
  movej([-0.0130,-1.2857,2.0964,-2.0325,-1.5752,-4.7246], a=0.5, v=0.3, r=0.002)
  movej([0.0241,-1.2723,2.0767,-2.0263,-1.5625,-4.6897], a=0.5, v=0.3, r=0.002)
  movej([0.0654,-1.2521,2.0468,-2.0171,-1.5485,-4.6509], a=0.5, v=0.3, r=0.002)
  movej([0.0855,-1.2549,2.0513,-2.0193,-1.5416,-4.6320], a=0.5, v=0.3, r=0.002)
  movej([0.1235,-1.2415,2.0316,-2.0143,-1.5287,-4.5963], a=0.5, v=0.3, r=0.002)
  movej([0.1582,-1.2343,2.0215,-2.0129,-1.5169,-4.5636], a=0.5, v=0.3, r=0.002)
  movej([0.1849,-1.2480,2.0432,-2.0224,-1.5079,-4.5384], a=0.5, v=0.3, r=0.002)
  movej([0.2014,-1.2729,2.0810,-2.0364,-1.5023,-4.5228], a=0.5, v=0.3, r=0.002)
  movej([0.2022,-1.2756,2.0851,-2.0378,-1.5020,-4.5220], a=0.5, v=0.3)
  movej([0.2022,-1.4423,1.9459,-1.7319,-1.5020,-4.5220], a=0.97, v=1.1)
  movej([0.1567,-1.4441,1.9470,-1.7285,-1.5174,-4.5650], a=0.97, v=1.1)
  movej([0.1567,-1.4441,1.9470,-1.7285,-1.5174,-4.5650], a=0.5, v=0.3, r=0.002)
  movej([0.1567,-1.4332,1.9610,-1.7535,-1.5174,-4.5650], a=0.5, v=0.3, r=0.002)
  movej([0.1567,-1.3976,2.0004,-1.8285,-1.5174,-4.5650], a=0.5, v=0.3, r=0.002)
  movej([0.1567,-1.3372,2.0506,-1.9390,-1.5174,-4.5650], a=0.5, v=0.3, r=0.002)
  movej([0.1567,-1.2934,2.0779,-2.0102,-1.5174,-4.5650], a=0.5, v=0.3, r=0.002)
  movej([0.1561,-1.2822,2.0932,-2.0366,-1.5176,-4.5656], a=0.5, v=0.3, r=0.002)
  movej([0.1532,-1.2960,2.1135,-2.0430,-1.5186,-4.5683], a=0.5, v=0.3, r=0.002)
  movej([0.1509,-1.2868,2.1001,-2.0386,-1.5194,-4.5705], a=0.5, v=0.3, r=0.002)
  movej([0.1516,-1.2715,2.0775,-2.0314,-1.5191,-4.5698], a=0.5, v=0.3, r=0.002)
  movej([0.1473,-1.2661,2.0694,-2.0285,-1.5206,-4.5738], a=0.5, v=0.3, r=0.002)
  movej([0.1461,-1.2627,2.0642,-2.0267,-1.5210,-4.5749], a=0.5, v=0.3, r=0.002)
  movej([0.1557,-1.2771,2.0859,-2.0344,-1.5177,-4.5659], a=0.5, v=0.3, r=0.002)
  movej([0.1558,-1.2772,2.0861,-2.0345,-1.5177,-4.5659], a=0.5, v=0.3)
  movej([0.1558,-1.4438,1.9466,-1.7284,-1.5177,-4.5658], a=0.97, v=1.1)
  movej([0.1358,-1.4204,1.9185,-1.7228,-1.5245,-4.5847], a=0.97, v=1.1)
  movej([0.1358,-1.4204,1.9185,-1.7228,-1.5245,-4.5847], a=0.5, v=0.3, r=0.002)
  movej([0.1358,-1.4095,1.9326,-1.7478,-1.5245,-4.5847], a=0.5, v=0.3, r=0.002)
  movej([0.1358,-1.3740,1.9721,-1.8228,-1.5245,-4.5847], a=0.5, v=0.3, r=0.002)
  movej([0.1358,-1.3143,2.0219,-1.9324,-1.5245,-4.5847], a=0.5, v=0.3, r=0.002)
  movej([0.1358,-1.2715,2.0486,-2.0018,-1.5245,-4.5847], a=0.5, v=0.3, r=0.002)
  movej([0.1326,-1.2574,2.0559,-2.0231,-1.5256,-4.5877], a=0.5, v=0.3, r=0.002)
  movej([0.1349,-1.2573,2.0558,-2.0232,-1.5248,-4.5856], a=0.5, v=0.3)
  movej([0.1349,-1.4200,1.9180,-1.7227,-1.5248,-4.5856], a=0.97, v=1.1)
  movej([0.0753,-1.4179,1.9146,-1.7194,-1.5451,-4.6416], a=0.97, v=1.1)
  movej([0.0753,-1.4179,1.9146,-1.7194,-1.5451,-4.6416], a=0.5, v=0.3, r=0.002)
  movej([0.0753,-1.4070,1.9287,-1.7444,-1.5451,-4.6416], a=0.5, v=0.3, r=0.002)
  movej([0.0753,-1.3716,1.9683,-1.8194,-1.5451,-4.6416], a=0.5, v=0.3, r=0.002)
  movej([0.0753,-1.3119,2.0182,-1.9290,-1.5451,-4.6416], a=0.5, v=0.3, r=0.002)
  movej([0.0753,-1.2692,2.0450,-1.9984,-1.5451,-4.6416], a=0.5, v=0.3, r=0.002)
  movej([0.0725,-1.2582,2.0561,-2.0204,-1.5460,-4.6442], a=0.5, v=0.3, r=0.002)
  movej([0.0715,-1.2533,2.0487,-2.0179,-1.5464,-4.6452], a=0.5, v=0.3, r=0.002)
  movej([0.0752,-1.2550,2.0513,-2.0189,-1.5451,-4.6417], a=0.5, v=0.3)
  movej([0.0752,-1.4170,1.9136,-1.7192,-1.5451,-4.6417], a=0.97, v=1.1)
  movej([-0.0389,-1.4245,1.9222,-1.7197,-1.5841,-4.7489], a=0.97, v=1.1)
  movej([-0.0389,-1.4245,1.9222,-1.7197,-1.5841,-4.7489], a=0.5, v=0.3, r=0.002)
  movej([-0.0389,-1.4136,1.9363,-1.7447,-1.5841,-4.7489], a=0.5, v=0.3, r=0.002)
  movej([-0.0389,-1.3782,1.9759,-1.8197,-1.5841,-4.7489], a=0.5, v=0.3, r=0.002)
  movej([-0.0389,-1.3187,2.0257,-1.9289,-1.5841,-4.7489], a=0.5, v=0.3, r=0.002)
  movej([-0.0389,-1.2765,2.0522,-1.9977,-1.5841,-4.7489], a=0.5, v=0.3, r=0.002)
  movej([-0.0423,-1.2578,2.0548,-2.0191,-1.5852,-4.7521], a=0.5, v=0.3, r=0.002)
  movej([-0.0490,-1.2334,2.0182,-2.0068,-1.5876,-4.7584], a=0.5, v=0.3, r=0.002)
  movej([-0.0556,-1.1792,1.9332,-1.9763,-1.5898,-4.7647], a=0.5, v=0.3, r=0.002)
  movej([-0.0517,-1.2011,1.9680,-1.9890,-1.5885,-4.7609], a=0.5, v=0.3, r=0.002)
  movej([-0.0478,-1.2462,2.0377,-2.0135,-1.5871,-4.7573], a=0.5, v=0.3, r=0.002)
  movej([-0.0397,-1.2609,2.0598,-2.0209,-1.5844,-4.7497], a=0.5, v=0.3)
  movej([-0.0397,-1.4239,1.9215,-1.7196,-1.5844,-4.7497], a=0.97, v=1.1)
  movej([-0.0404,-1.4686,1.9735,-1.7269,-1.5846,-4.7503], a=0.97, v=1.1)
  movej([-0.0404,-1.4686,1.9735,-1.7269,-1.5846,-4.7503], a=0.5, v=0.3, r=0.002)
  movej([-0.0404,-1.4577,1.9876,-1.7519,-1.5846,-4.7503], a=0.5, v=0.3, r=0.002)
  movej([-0.0404,-1.4221,2.0270,-1.8269,-1.5846,-4.7503], a=0.5, v=0.3, r=0.002)
  movej([-0.0404,-1.3609,2.0780,-1.9391,-1.5846,-4.7503], a=0.5, v=0.3, r=0.002)
  movej([-0.0404,-1.3151,2.1065,-2.0135,-1.5846,-4.7503], a=0.5, v=0.3, r=0.002)
  movej([-0.0427,-1.3004,2.1179,-2.0396,-1.5854,-4.7525], a=0.5, v=0.3, r=0.002)
  movej([-0.0446,-1.2964,2.1122,-2.0379,-1.5860,-4.7543], a=0.5, v=0.3, r=0.002)
  movej([-0.0404,-1.2978,2.1143,-2.0384,-1.5846,-4.7503], a=0.5, v=0.3)
  movej([-0.0404,-1.4678,1.9725,-1.7267,-1.5846,-4.7503], a=0.97, v=1.1)
  movej([-0.0503,-1.4835,1.9903,-1.7289,-1.5880,-4.7597], a=0.97, v=1.1)
  movej([-0.0503,-1.4835,1.9903,-1.7289,-1.5880,-4.7597], a=0.5, v=0.3, r=0.002)
  movej([-0.0503,-1.4726,2.0043,-1.7539,-1.5880,-4.7597], a=0.5, v=0.3, r=0.002)
  movej([-0.0503,-1.4370,2.0437,-1.8289,-1.5880,-4.7597], a=0.5, v=0.3, r=0.002)
  movej([-0.0503,-1.3754,2.0949,-1.9417,-1.5880,-4.7597], a=0.5, v=0.3, r=0.002)
  movej([-0.0503,-1.3288,2.1240,-2.0173,-1.5880,-4.7597], a=0.5, v=0.3, r=0.002)
  movej([-0.0528,-1.3134,2.1364,-2.0452,-1.5889,-4.7620], a=0.5, v=0.3, r=0.002)
  movej([-0.0494,-1.3108,2.1330,-2.0443,-1.5877,-4.7588], a=0.5, v=0.3)
  movej([-0.0494,-1.4832,1.9899,-1.7288,-1.5877,-4.7588], a=0.97, v=1.1)
  movej([0.0327,-1.5116,2.0209,-1.7313,-1.5596,-4.6816], a=0.97, v=1.1)
  movej([0.0327,-1.5116,2.0209,-1.7313,-1.5596,-4.6816], a=0.5, v=0.3, r=0.002)
  movej([0.0327,-1.5006,2.0349,-1.7563,-1.5596,-4.6816], a=0.5, v=0.3, r=0.002)
  movej([0.0327,-1.4649,2.0743,-1.8313,-1.5596,-4.6816], a=0.5, v=0.3, r=0.002)
  movej([0.0327,-1.4027,2.1260,-1.9452,-1.5596,-4.6816], a=0.5, v=0.3, r=0.002)
  movej([0.0327,-1.3547,2.1560,-2.0232,-1.5596,-4.6816], a=0.5, v=0.3, r=0.002)
  movej([0.0304,-1.3344,2.1650,-2.0525,-1.5604,-4.6838], a=0.5, v=0.3, r=0.002)
  movej([0.0178,-1.3320,2.1629,-2.0527,-1.5647,-4.6957], a=0.5, v=0.3, r=0.002)
  movej([0.0330,-1.3348,2.1669,-2.0540,-1.5595,-4.6814], a=0.5, v=0.3, r=0.002)
  movej([0.0336,-1.3350,2.1672,-2.0541,-1.5593,-4.6808], a=0.5, v=0.3)
  movej([0.0336,-1.5120,2.0214,-1.7313,-1.5593,-4.6808], a=0.97, v=1.1)
  movej([0.0569,-1.5209,2.0311,-1.7324,-1.5513,-4.6589], a=0.97, v=1.1)
  movej([0.0569,-1.5209,2.0311,-1.7324,-1.5513,-4.6589], a=0.5, v=0.3, r=0.002)
  movej([0.0569,-1.5099,2.0451,-1.7574,-1.5513,-4.6589], a=0.5, v=0.3, r=0.002)
  movej([0.0569,-1.4742,2.0844,-1.8324,-1.5513,-4.6589], a=0.5, v=0.3, r=0.002)
  movej([0.0569,-1.4118,2.1364,-1.9469,-1.5513,-4.6589], a=0.5, v=0.3, r=0.002)
  movej([0.0569,-1.3631,2.1667,-2.0259,-1.5513,-4.6589], a=0.5, v=0.3, r=0.002)
  movej([0.0566,-1.3428,2.1761,-2.0555,-1.5514,-4.6592], a=0.5, v=0.3, r=0.002)
  movej([0.0495,-1.3354,2.1678,-2.0545,-1.5539,-4.6659], a=0.5, v=0.3, r=0.002)
  movej([0.0529,-1.3483,2.1858,-2.0596,-1.5527,-4.6627], a=0.5, v=0.3, r=0.002)
  movej([0.0173,-1.3722,2.2179,-2.0675,-1.5649,-4.6961], a=0.5, v=0.3, r=0.002)
  movej([0.0542,-1.3474,2.1845,-2.0593,-1.5523,-4.6615], a=0.5, v=0.3, r=0.002)
  movej([0.0569,-1.3433,2.1789,-2.0578,-1.5513,-4.6589], a=0.5, v=0.3)
  movej([0.0569,-1.5219,2.0322,-1.7325,-1.5513,-4.6589], a=0.97, v=1.1)
  movej([0.0826,-1.5547,2.0666,-1.7347,-1.5426,-4.6348], a=0.97, v=1.1)
  movej([0.0826,-1.5547,2.0666,-1.7347,-1.5426,-4.6348], a=0.5, v=0.3, r=0.002)
  movej([0.0826,-1.5437,2.0806,-1.7597,-1.5426,-4.6348], a=0.5, v=0.3, r=0.002)
  movej([0.0826,-1.5080,2.1199,-1.8347,-1.5426,-4.6348], a=0.5, v=0.3, r=0.002)
  movej([0.0826,-1.4446,2.1726,-1.9508,-1.5426,-4.6348], a=0.5, v=0.3, r=0.002)
  movej([0.0826,-1.3936,2.2045,-2.0337,-1.5426,-4.6348], a=0.5, v=0.3, r=0.002)
  movej([0.0826,-1.3719,2.2158,-2.0667,-1.5426,-4.6348], a=0.5, v=0.3, r=0.002)
  movej([0.0829,-1.3749,2.2221,-2.0701,-1.5425,-4.6345], a=0.5, v=0.3, r=0.002)
  movej([0.0699,-1.4003,2.2554,-2.0776,-1.5469,-4.6467], a=0.5, v=0.3, r=0.002)
  movej([0.0750,-1.3978,2.2522,-2.0770,-1.5452,-4.6419], a=0.5, v=0.3, r=0.002)
  movej([0.0832,-1.3731,2.2197,-2.0695,-1.5424,-4.6342], a=0.5, v=0.3, r=0.002)
  movej([0.0835,-1.3710,2.2170,-2.0688,-1.5423,-4.6339], a=0.5, v=0.3)
  movej([0.0835,-1.5551,2.0670,-1.7348,-1.5423,-4.6339], a=0.97, v=1.1)
  movej([-0.0904,-1.6705,2.1761,-1.7287,-1.6017,-4.7973], a=0.97, v=1.1)
  movej([-0.0904,-1.6705,2.1761,-1.7287,-1.6017,-4.7973], a=0.5, v=0.3, r=0.002)
  movej([-0.0904,-1.6595,2.1902,-1.7537,-1.6017,-4.7973], a=0.5, v=0.3, r=0.002)
  movej([-0.0904,-1.6241,2.2297,-1.8287,-1.6017,-4.7973], a=0.5, v=0.3, r=0.002)
  movej([-0.0904,-1.5590,2.2851,-1.9491,-1.6017,-4.7973], a=0.5, v=0.3, r=0.002)
  movej([-0.0904,-1.5010,2.3219,-2.0439,-1.6017,-4.7973], a=0.5, v=0.3, r=0.002)
  movej([-0.0904,-1.4716,2.3373,-2.0887,-1.6017,-4.7973], a=0.5, v=0.3, r=0.002)
  movej([-0.0934,-1.4662,2.3376,-2.0945,-1.6027,-4.8002], a=0.5, v=0.3, r=0.002)
  movej([-0.0914,-1.4672,2.3387,-2.0946,-1.6020,-4.7983], a=0.5, v=0.3)
  movej([-0.0914,-1.6699,2.1756,-1.7288,-1.6020,-4.7983], a=0.97, v=1.1)
  movej([-0.1300,-1.7042,2.2054,-1.7256,-1.6151,-4.8346], a=0.97, v=1.1)
  movej([-0.1300,-1.7042,2.2054,-1.7256,-1.6151,-4.8346], a=0.5, v=0.3, r=0.002)
  movej([-0.1300,-1.6933,2.2195,-1.7506,-1.6151,-4.8346], a=0.5, v=0.3, r=0.002)
  movej([-0.1300,-1.6581,2.2592,-1.8256,-1.6151,-4.8346], a=0.5, v=0.3, r=0.002)
  movej([-0.1300,-1.5927,2.3152,-1.9469,-1.6151,-4.8346], a=0.5, v=0.3, r=0.002)
  movej([-0.1300,-1.5329,2.3534,-2.0449,-1.6151,-4.8346], a=0.5, v=0.3, r=0.002)
  movej([-0.1300,-1.5015,2.3700,-2.0929,-1.6151,-4.8346], a=0.5, v=0.3, r=0.002)
  movej([-0.1465,-1.5034,2.3817,-2.1034,-1.6207,-4.8501], a=0.5, v=0.3, r=0.002)
  movej([-0.1434,-1.5024,2.3804,-2.1031,-1.6197,-4.8472], a=0.5, v=0.3, r=0.002)
  movej([-0.1311,-1.4971,2.3742,-2.1015,-1.6155,-4.8357], a=0.5, v=0.3)
  movej([-0.1311,-1.7057,2.2066,-1.7254,-1.6155,-4.8357], a=0.97, v=1.1)
  movej([-0.1588,-1.8360,2.3040,-1.6938,-1.6249,-4.8618], a=0.97, v=1.1)
  movej([-0.1588,-1.8360,2.3040,-1.6938,-1.6249,-4.8618], a=0.5, v=0.3, r=0.002)
  movej([-0.1588,-1.8255,2.3185,-1.7188,-1.6249,-4.8618], a=0.5, v=0.3, r=0.002)
  movej([-0.1588,-1.7913,2.3593,-1.7938,-1.6249,-4.8618], a=0.5, v=0.3, r=0.002)
  movej([-0.1588,-1.7262,2.4183,-1.9178,-1.6249,-4.8618], a=0.5, v=0.3, r=0.002)
  movej([-0.1588,-1.6598,2.4627,-2.0287,-1.6249,-4.8618], a=0.5, v=0.3, r=0.002)
  movej([-0.1588,-1.6202,2.4841,-2.0896,-1.6249,-4.8618], a=0.5, v=0.3, r=0.002)
  movej([-0.1680,-1.6146,2.4959,-2.1075,-1.6280,-4.8704], a=0.5, v=0.3, r=0.002)
  movej([-0.1590,-1.6096,2.4909,-2.1071,-1.6250,-4.8619], a=0.5, v=0.3, r=0.002)
  movej([-0.1590,-1.6096,2.4909,-2.1071,-1.6250,-4.8619], a=0.5, v=0.3)
  movej([-0.1590,-1.8372,2.3048,-1.6934,-1.6250,-4.8619], a=0.97, v=1.1)

  movej([1.0470,-1.5700,1.5700,-1.5700,-1.5700,0.0000], a=0.97, v=1.1)
end