def draw_face():
  set_tcp(p[0.0393,0.0000,-0.1081,0.0000,0.3491,0.0000])

  movej([1.0470,-1.5700,1.5700,-1.5700,-1.5700,0.0000], a=0.97, v=1.1)

  movej([0.1643,-1.5242,2.0362,-1.7381,-1.5148,-1.4162], a=0.97, v=1.1)
  movej([0.1643,-1.5242,2.0362,-1.7381,-1.5148,-1.4162], a=0.5, v=0.3, r=0.002)
  movej([0.1643,-1.5132,2.0502,-1.7631,-1.5148,-1.4162], a=0.5, v=0.3, r=0.002)
  movej([0.1643,-1.4774,2.0894,-1.8381,-1.5148,-1.4162], a=0.5, v=0.3, r=0.002)
  movej([0.1643,-1.4149,2.1412,-1.9523,-1.5148,-1.4162], a=0.5, v=0.3, r=0.002)
  movej([0.1643,-1.3665,2.1713,-2.0309,-1.5148,-1.4162], a=0.5, v=0.3, r=0.002)
  movej([0.1616,-1.3498,2.1877,-2.0639,-1.5157,-1.4188], a=0.5, v=0.3, r=0.002)
  movej([0.1582,-1.3551,2.1970,-2.0677,-1.5169,-1.4219], a=0.5, v=0.3, r=0.002)
  movej([0.1636,-1.3423,2.1796,-2.0633,-1.5151,-1.4169], a=0.5, v=0.3, r=0.002)
  movej([0.1642,-1.3440,2.1819,-2.0640,-1.5149,-1.4164], a=0.5, v=0.3)
  movej([0.1642,-1.5234,2.0354,-1.7380,-1.5149,-1.4164], a=0.97, v=1.1)
  movej([0.2039,-1.4505,1.9555,-1.7334,-1.5015,-1.3789], a=0.97, v=1.1)
  movej([0.2039,-1.4505,1.9555,-1.7334,-1.5015,-1.3789], a=0.5, v=0.3, r=0.002)
  movej([0.2039,-1.4395,1.9695,-1.7584,-1.5015,-1.3789], a=0.5, v=0.3, r=0.002)
  movej([0.2039,-1.4039,2.0089,-1.8334,-1.5015,-1.3789], a=0.5, v=0.3, r=0.002)
  movej([0.2039,-1.3434,2.0589,-1.9438,-1.5015,-1.3789], a=0.5, v=0.3, r=0.002)
  movej([0.2039,-1.2997,2.0861,-2.0149,-1.5015,-1.3789], a=0.5, v=0.3, r=0.002)
  movej([0.2017,-1.2793,2.0895,-2.0385,-1.5022,-1.3810], a=0.5, v=0.3, r=0.002)
  movej([0.1891,-1.2583,2.0589,-2.0280,-1.5065,-1.3928], a=0.5, v=0.3, r=0.002)
  movej([0.1658,-1.2455,2.0388,-2.0194,-1.5143,-1.4149], a=0.5, v=0.3, r=0.002)
  movej([0.1331,-1.2590,2.0583,-2.0239,-1.5254,-1.4456], a=0.5, v=0.3, r=0.002)
  movej([0.1017,-1.2696,2.0735,-2.0273,-1.5361,-1.4752], a=0.5, v=0.3, r=0.002)
  movej([0.0804,-1.2721,2.0770,-2.0276,-1.5433,-1.4952], a=0.5, v=0.3, r=0.002)
  movej([0.0294,-1.3007,2.1184,-2.0395,-1.5607,-1.5431], a=0.5, v=0.3, r=0.002)
  movej([-0.0034,-1.3173,2.1421,-2.0465,-1.5720,-1.5740], a=0.5, v=0.3, r=0.002)
  movej([-0.0168,-1.3023,2.1206,-2.0401,-1.5765,-1.5866], a=0.5, v=0.3, r=0.002)
  movej([-0.0382,-1.2629,2.0628,-2.0218,-1.5839,-1.6067], a=0.5, v=0.3, r=0.002)
  movej([-0.0532,-1.2473,2.0393,-2.0143,-1.5890,-1.6208], a=0.5, v=0.3, r=0.002)
  movej([-0.0396,-1.2631,2.0631,-2.0220,-1.5843,-1.6080], a=0.5, v=0.3, r=0.002)
  movej([-0.0174,-1.3020,2.1201,-2.0399,-1.5768,-1.5872], a=0.5, v=0.3, r=0.002)
  movej([-0.0169,-1.3201,2.1461,-2.0478,-1.5766,-1.5867], a=0.5, v=0.3, r=0.002)
  movej([-0.0420,-1.3234,2.1509,-2.0495,-1.5852,-1.6102], a=0.5, v=0.3, r=0.002)
  movej([-0.0598,-1.3328,2.1643,-2.0538,-1.5912,-1.6270], a=0.5, v=0.3, r=0.002)
  movej([-0.0545,-1.3358,2.1684,-2.0548,-1.5894,-1.6220], a=0.5, v=0.3, r=0.002)
  movej([-0.0263,-1.3290,2.1587,-2.0515,-1.5798,-1.5955], a=0.5, v=0.3, r=0.002)
  movej([-0.0204,-1.3359,2.1683,-2.0542,-1.5778,-1.5900], a=0.5, v=0.3, r=0.002)
  movej([-0.0172,-1.3267,2.1554,-2.0505,-1.5767,-1.5870], a=0.5, v=0.3, r=0.002)
  movej([-0.0004,-1.3178,2.1429,-2.0467,-1.5709,-1.5712], a=0.5, v=0.3, r=0.002)
  movej([0.0441,-1.2914,2.1050,-2.0356,-1.5557,-1.5293], a=0.5, v=0.3, r=0.002)
  movej([0.0822,-1.2705,2.0746,-2.0269,-1.5427,-1.4935], a=0.5, v=0.3, r=0.002)
  movej([0.0851,-1.2758,2.0825,-2.0296,-1.5417,-1.4908], a=0.5, v=0.3, r=0.002)
  movej([0.0942,-1.2722,2.0773,-2.0283,-1.5386,-1.4823], a=0.5, v=0.3, r=0.002)
  movej([0.1044,-1.2768,2.0844,-2.0310,-1.5352,-1.4727], a=0.5, v=0.3, r=0.002)
  movej([0.1298,-1.2694,2.0739,-2.0289,-1.5265,-1.4488], a=0.5, v=0.3, r=0.002)
  movej([0.1308,-1.2670,2.0703,-2.0278,-1.5262,-1.4478], a=0.5, v=0.3, r=0.002)
  movej([0.1426,-1.2554,2.0531,-2.0228,-1.5222,-1.4367], a=0.5, v=0.3, r=0.002)
  movej([0.1712,-1.2456,2.0391,-2.0199,-1.5125,-1.4098], a=0.5, v=0.3, r=0.002)
  movej([0.1942,-1.2661,2.0707,-2.0324,-1.5048,-1.3881], a=0.5, v=0.3, r=0.002)
  movej([0.2026,-1.2981,2.1181,-2.0483,-1.5019,-1.3801], a=0.5, v=0.3, r=0.002)
  movej([0.1836,-1.3452,2.1842,-2.0661,-1.5083,-1.3981], a=0.5, v=0.3, r=0.002)
  movej([0.1401,-1.3835,2.2348,-2.0762,-1.5230,-1.4390], a=0.5, v=0.3, r=0.002)
  movej([0.1026,-1.4046,2.2615,-2.0803,-1.5358,-1.4744], a=0.5, v=0.3, r=0.002)
  movej([0.0960,-1.3957,2.2499,-2.0774,-1.5380,-1.4805], a=0.5, v=0.3, r=0.002)
  movej([0.1313,-1.3767,2.2256,-2.0733,-1.5260,-1.4473], a=0.5, v=0.3, r=0.002)
  movej([0.1460,-1.3658,2.2113,-2.0706,-1.5210,-1.4335], a=0.5, v=0.3, r=0.002)
  movej([0.1231,-1.3775,2.2264,-2.0731,-1.5288,-1.4550], a=0.5, v=0.3, r=0.002)
  movej([0.0986,-1.3935,2.2470,-2.0768,-1.5371,-1.4781], a=0.5, v=0.3, r=0.002)
  movej([0.0955,-1.4100,2.2683,-2.0815,-1.5382,-1.4810], a=0.5, v=0.3, r=0.002)
  movej([0.0647,-1.4212,2.2821,-2.0833,-1.5487,-1.5100], a=0.5, v=0.3, r=0.002)
  movej([0.0160,-1.4254,2.2870,-2.0834,-1.5653,-1.5557], a=0.5, v=0.3, r=0.002)
  movej([-0.0035,-1.4392,2.3040,-2.0866,-1.5720,-1.5741], a=0.5, v=0.3, r=0.002)
  movej([-0.0098,-1.4813,2.3544,-2.0949,-1.5741,-1.5800], a=0.5, v=0.3, r=0.002)
  movej([-0.0262,-1.5128,2.3901,-2.0991,-1.5798,-1.5954], a=0.5, v=0.3, r=0.002)
  movej([-0.0439,-1.5604,2.4407,-2.1023,-1.5858,-1.6121], a=0.5, v=0.3, r=0.002)
  movej([-0.0756,-1.6084,2.4879,-2.1021,-1.5966,-1.6419], a=0.5, v=0.3, r=0.002)
  movej([-0.0757,-1.6117,2.4910,-2.1019,-1.5967,-1.6419], a=0.5, v=0.3, r=0.002)
  movej([-0.0477,-1.5690,2.4493,-2.1025,-1.5871,-1.6157], a=0.5, v=0.3, r=0.002)
  movej([-0.0284,-1.5221,2.4003,-2.1001,-1.5805,-1.5974], a=0.5, v=0.3, r=0.002)
  movej([-0.0130,-1.4888,2.3630,-2.0960,-1.5752,-1.5830], a=0.5, v=0.3, r=0.002)
  movej([-0.0012,-1.4442,2.3101,-2.0877,-1.5712,-1.5719], a=0.5, v=0.3, r=0.002)
  movej([0.0118,-1.4261,2.2878,-2.0835,-1.5668,-1.5597], a=0.5, v=0.3, r=0.002)
  movej([0.0537,-1.4234,2.2847,-2.0835,-1.5524,-1.5204], a=0.5, v=0.3, r=0.002)
  movej([0.1037,-1.4060,2.2633,-2.0808,-1.5354,-1.4733], a=0.5, v=0.3, r=0.002)
  movej([0.1633,-1.3684,2.2153,-2.0729,-1.5152,-1.4172], a=0.5, v=0.3, r=0.002)
  movej([0.1966,-1.3217,2.1518,-2.0580,-1.5039,-1.3858], a=0.5, v=0.3, r=0.002)
  movej([0.2035,-1.2875,2.1027,-2.0436,-1.5016,-1.3792], a=0.5, v=0.3, r=0.002)
  movej([0.2040,-1.2831,2.0963,-2.0416,-1.5015,-1.3788], a=0.5, v=0.3)
  movej([0.2040,-1.4513,1.9564,-1.7335,-1.5015,-1.3788], a=0.97, v=1.1)
  movej([0.1674,-1.4605,1.9660,-1.7318,-1.5138,-1.4133], a=0.97, v=1.1)
  movej([0.1674,-1.4605,1.9660,-1.7318,-1.5138,-1.4133], a=0.5, v=0.3, r=0.002)
  movej([0.1674,-1.4495,1.9800,-1.7568,-1.5138,-1.4133], a=0.5, v=0.3, r=0.002)
  movej([0.1674,-1.4138,2.0194,-1.8318,-1.5138,-1.4133], a=0.5, v=0.3, r=0.002)
  movej([0.1674,-1.3529,2.0699,-1.9433,-1.5138,-1.4133], a=0.5, v=0.3, r=0.002)
  movej([0.1674,-1.3079,2.0979,-2.0163,-1.5138,-1.4133], a=0.5, v=0.3, r=0.002)
  movej([0.1649,-1.2950,2.1121,-2.0432,-1.5146,-1.4157], a=0.5, v=0.3, r=0.002)
  movej([0.1607,-1.2965,2.1145,-2.0439,-1.5160,-1.4196], a=0.5, v=0.3, r=0.002)
  movej([0.1578,-1.2816,2.0927,-2.0368,-1.5170,-1.4224], a=0.5, v=0.3, r=0.002)
  movej([0.1511,-1.2708,2.0764,-2.0310,-1.5193,-1.4287], a=0.5, v=0.3, r=0.002)
  movej([0.1505,-1.2681,2.0723,-2.0296,-1.5195,-1.4293], a=0.5, v=0.3, r=0.002)
  movej([0.1643,-1.2870,2.1008,-2.0398,-1.5148,-1.4162], a=0.5, v=0.3, r=0.002)
  movej([0.1665,-1.2909,2.1065,-2.0418,-1.5141,-1.4142], a=0.5, v=0.3)
  movej([0.1665,-1.4602,1.9657,-1.7317,-1.5141,-1.4142], a=0.97, v=1.1)
  movej([0.1626,-1.4774,1.9851,-1.7337,-1.5154,-1.4178], a=0.97, v=1.1)
  movej([0.1626,-1.4774,1.9851,-1.7337,-1.5154,-1.4178], a=0.5, v=0.3, r=0.002)
  movej([0.1626,-1.4664,1.9992,-1.7587,-1.5154,-1.4178], a=0.5, v=0.3, r=0.002)
  movej([0.1626,-1.4307,2.0385,-1.8337,-1.5154,-1.4178], a=0.5, v=0.3, r=0.002)
  movej([0.1626,-1.3695,2.0892,-1.9456,-1.5154,-1.4178], a=0.5, v=0.3, r=0.002)
  movej([0.1626,-1.3240,2.1175,-2.0195,-1.5154,-1.4178], a=0.5, v=0.3, r=0.002)
  movej([0.1617,-1.3113,2.1347,-2.0493,-1.5157,-1.4187], a=0.5, v=0.3, r=0.002)
  movej([0.1579,-1.3316,2.1645,-2.0586,-1.5170,-1.4223], a=0.5, v=0.3, r=0.002)
  movej([0.1585,-1.3254,2.1558,-2.0561,-1.5168,-1.4217], a=0.5, v=0.3, r=0.002)
  movej([0.1617,-1.3038,2.1250,-2.0472,-1.5157,-1.4187], a=0.5, v=0.3, r=0.002)
  movej([0.1625,-1.3048,2.1265,-2.0477,-1.5154,-1.4180], a=0.5, v=0.3)
  movej([0.1625,-1.4766,1.9842,-1.7336,-1.5154,-1.4180], a=0.97, v=1.1)
  movej([0.1062,-1.5500,2.0620,-1.7356,-1.5345,-1.4709], a=0.97, v=1.1)
  movej([0.1062,-1.5500,2.0620,-1.7356,-1.5345,-1.4709], a=0.5, v=0.3, r=0.002)
  movej([0.1062,-1.5389,2.0760,-1.7606,-1.5345,-1.4709], a=0.5, v=0.3, r=0.002)
  movej([0.1062,-1.5032,2.1153,-1.8356,-1.5345,-1.4709], a=0.5, v=0.3, r=0.002)
  movej([0.1062,-1.4402,2.1677,-1.9510,-1.5345,-1.4709], a=0.5, v=0.3, r=0.002)
  movej([0.1062,-1.3902,2.1990,-2.0323,-1.5345,-1.4709], a=0.5, v=0.3, r=0.002)
  movej([0.1052,-1.3711,2.2141,-2.0666,-1.5349,-1.4719], a=0.5, v=0.3, r=0.002)
  movej([0.1036,-1.3748,2.2224,-2.0710,-1.5354,-1.4734], a=0.5, v=0.3, r=0.002)
  movej([0.1018,-1.3512,2.1904,-2.0626,-1.5360,-1.4751], a=0.5, v=0.3, r=0.002)
  movej([0.0995,-1.3460,2.1831,-2.0605,-1.5368,-1.4773], a=0.5, v=0.3, r=0.002)
  movej([0.1049,-1.3645,2.2085,-2.0676,-1.5350,-1.4722], a=0.5, v=0.3, r=0.002)
  movej([0.1053,-1.3663,2.2110,-2.0682,-1.5348,-1.4718], a=0.5, v=0.3)
  movej([0.1053,-1.5496,2.0616,-1.7356,-1.5348,-1.4718], a=0.97, v=1.1)
  movej([0.0779,-1.5184,2.0286,-1.7329,-1.5442,-1.4976], a=0.97, v=1.1)
  movej([0.0779,-1.5184,2.0286,-1.7329,-1.5442,-1.4976], a=0.5, v=0.3, r=0.002)
  movej([0.0779,-1.5074,2.0426,-1.7579,-1.5442,-1.4976], a=0.5, v=0.3, r=0.002)
  movej([0.0779,-1.4718,2.0820,-1.8329,-1.5442,-1.4976], a=0.5, v=0.3, r=0.002)
  movej([0.0779,-1.4094,2.1338,-1.9470,-1.5442,-1.4976], a=0.5, v=0.3, r=0.002)
  movej([0.0779,-1.3612,2.1639,-2.0254,-1.5442,-1.4976], a=0.5, v=0.3, r=0.002)
  movej([0.0732,-1.3451,2.1804,-2.0578,-1.5458,-1.5020], a=0.5, v=0.3, r=0.002)
  movej([0.0510,-1.3639,2.2070,-2.0652,-1.5534,-1.5229], a=0.5, v=0.3, r=0.002)
  movej([0.0755,-1.3401,2.1747,-2.0572,-1.5450,-1.4998], a=0.5, v=0.3, r=0.002)
  movej([0.0649,-1.3335,2.1654,-2.0542,-1.5486,-1.5098], a=0.5, v=0.3, r=0.002)
  movej([0.0759,-1.3379,2.1716,-2.0563,-1.5449,-1.4995], a=0.5, v=0.3, r=0.002)
  movej([0.0778,-1.3395,2.1738,-2.0570,-1.5442,-1.4977], a=0.5, v=0.3)
  movej([0.0778,-1.5174,2.0276,-1.7328,-1.5442,-1.4977], a=0.97, v=1.1)
  movej([0.1023,-1.4623,1.9670,-1.7280,-1.5359,-1.4746], a=0.97, v=1.1)
  movej([0.1023,-1.4623,1.9670,-1.7280,-1.5359,-1.4746], a=0.5, v=0.3, r=0.002)
  movej([0.1023,-1.4514,1.9810,-1.7530,-1.5359,-1.4746], a=0.5, v=0.3, r=0.002)
  movej([0.1023,-1.4158,2.0204,-1.8280,-1.5359,-1.4746], a=0.5, v=0.3, r=0.002)
  movej([0.1023,-1.3552,2.0708,-1.9390,-1.5359,-1.4746], a=0.5, v=0.3, r=0.002)
  movej([0.1023,-1.3110,2.0985,-2.0110,-1.5359,-1.4746], a=0.5, v=0.3, r=0.002)
  movej([0.1017,-1.2906,2.1029,-2.0356,-1.5361,-1.4752], a=0.5, v=0.3, r=0.002)
  movej([0.0931,-1.2826,2.0927,-2.0332,-1.5390,-1.4833], a=0.5, v=0.3, r=0.002)
  movej([0.1000,-1.2861,2.0978,-2.0351,-1.5366,-1.4768], a=0.5, v=0.3, r=0.002)
  movej([0.0995,-1.3028,2.1222,-2.0427,-1.5368,-1.4772], a=0.5, v=0.3, r=0.002)
  movej([0.1020,-1.2954,2.1115,-2.0395,-1.5360,-1.4749], a=0.5, v=0.3, r=0.002)
  movej([0.1024,-1.2938,2.1092,-2.0388,-1.5358,-1.4745], a=0.5, v=0.3)
  movej([0.1024,-1.4632,1.9679,-1.7282,-1.5358,-1.4745], a=0.97, v=1.1)
  movej([0.0816,-1.4572,1.9608,-1.7264,-1.5429,-1.4941], a=0.97, v=1.1)
  movej([0.0816,-1.4572,1.9608,-1.7264,-1.5429,-1.4941], a=0.5, v=0.3, r=0.002)
  movej([0.0816,-1.4463,1.9749,-1.7514,-1.5429,-1.4941], a=0.5, v=0.3, r=0.002)
  movej([0.0816,-1.4107,2.0143,-1.8264,-1.5429,-1.4941], a=0.5, v=0.3, r=0.002)
  movej([0.0816,-1.3500,2.0648,-1.9376,-1.5429,-1.4941], a=0.5, v=0.3, r=0.002)
  movej([0.0816,-1.3054,2.0927,-2.0101,-1.5429,-1.4941], a=0.5, v=0.3, r=0.002)
  movej([0.0796,-1.2931,2.1075,-2.0372,-1.5436,-1.4960], a=0.5, v=0.3, r=0.002)
  movej([0.0737,-1.3052,2.1252,-2.0426,-1.5456,-1.5015], a=0.5, v=0.3, r=0.002)
  movej([0.0812,-1.2908,2.1045,-2.0365,-1.5430,-1.4944], a=0.5, v=0.3, r=0.002)
  movej([0.0824,-1.2885,2.1011,-2.0355,-1.5426,-1.4933], a=0.5, v=0.3)
  movej([0.0824,-1.4568,1.9603,-1.7264,-1.5426,-1.4933], a=0.97, v=1.1)
  movej([0.0582,-1.5119,2.0214,-1.7318,-1.5509,-1.5161], a=0.97, v=1.1)
  movej([0.0582,-1.5119,2.0214,-1.7318,-1.5509,-1.5161], a=0.5, v=0.3, r=0.002)
  movej([0.0582,-1.5009,2.0354,-1.7568,-1.5509,-1.5161], a=0.5, v=0.3, r=0.002)
  movej([0.0582,-1.4652,2.0747,-1.8318,-1.5509,-1.5161], a=0.5, v=0.3, r=0.002)
  movej([0.0582,-1.4030,2.1264,-1.9457,-1.5509,-1.5161], a=0.5, v=0.3, r=0.002)
  movej([0.0582,-1.3551,2.1564,-2.0235,-1.5509,-1.5161], a=0.5, v=0.3, r=0.002)
  movej([0.0553,-1.3358,2.1670,-2.0534,-1.5519,-1.5188], a=0.5, v=0.3, r=0.002)
  movej([0.0430,-1.3436,2.1792,-2.0576,-1.5561,-1.5304], a=0.5, v=0.3, r=0.002)
  movej([0.0423,-1.3429,2.1782,-2.0573,-1.5563,-1.5311], a=0.5, v=0.3, r=0.002)
  movej([0.0560,-1.3340,2.1660,-2.0542,-1.5517,-1.5182], a=0.5, v=0.3, r=0.002)
  movej([0.0581,-1.3341,2.1661,-2.0543,-1.5509,-1.5162], a=0.5, v=0.3)
  movej([0.0581,-1.5110,2.0205,-1.7317,-1.5509,-1.5162], a=0.97, v=1.1)
  movej([-0.0262,-1.4748,1.9804,-1.7274,-1.5797,-1.5954], a=0.97, v=1.1)
  movej([-0.0262,-1.4748,1.9804,-1.7274,-1.5797,-1.5954], a=0.5, v=0.3, r=0.002)
  movej([-0.0262,-1.4639,1.9945,-1.7524,-1.5797,-1.5954], a=0.5, v=0.3, r=0.002)
  movej([-0.0262,-1.4283,2.0339,-1.8274,-1.5797,-1.5954], a=0.5, v=0.3, r=0.002)
  movej([-0.0262,-1.3670,2.0849,-1.9398,-1.5797,-1.5954], a=0.5, v=0.3, r=0.002)
  movej([-0.0262,-1.3210,2.1136,-2.0144,-1.5797,-1.5954], a=0.5, v=0.3, r=0.002)
  movej([-0.0290,-1.3022,2.1202,-2.0399,-1.5807,-1.5980], a=0.5, v=0.3, r=0.002)
  movej([-0.0367,-1.2971,2.1132,-2.0380,-1.5833,-1.6053], a=0.5, v=0.3, r=0.002)
  movej([-0.0270,-1.3034,2.1222,-2.0407,-1.5800,-1.5961], a=0.5, v=0.3)
  movej([-0.0270,-1.4743,1.9798,-1.7274,-1.5800,-1.5961], a=0.97, v=1.1)
  movej([-0.0417,-1.4610,1.9648,-1.7258,-1.5851,-1.6100], a=0.97, v=1.1)
  movej([-0.0417,-1.4610,1.9648,-1.7258,-1.5851,-1.6100], a=0.5, v=0.3, r=0.002)
  movej([-0.0417,-1.4500,1.9789,-1.7508,-1.5851,-1.6100], a=0.5, v=0.3, r=0.002)
  movej([-0.0417,-1.4145,2.0183,-1.8258,-1.5851,-1.6100], a=0.5, v=0.3, r=0.002)
  movej([-0.0417,-1.3539,2.0688,-1.9368,-1.5851,-1.6100], a=0.5, v=0.3, r=0.002)
  movej([-0.0417,-1.3096,2.0966,-2.0090,-1.5851,-1.6100], a=0.5, v=0.3, r=0.002)
  movej([-0.0432,-1.2897,2.1011,-2.0335,-1.5856,-1.6114], a=0.5, v=0.3, r=0.002)
  movej([-0.0527,-1.2691,2.0721,-2.0252,-1.5888,-1.6203], a=0.5, v=0.3, r=0.002)
  movej([-0.0534,-1.2675,2.0697,-2.0244,-1.5890,-1.6209], a=0.5, v=0.3, r=0.002)
  movej([-0.0427,-1.2893,2.1018,-2.0346,-1.5854,-1.6110], a=0.5, v=0.3, r=0.002)
  movej([-0.0417,-1.2914,2.1049,-2.0355,-1.5851,-1.6100], a=0.5, v=0.3)
  movej([-0.0417,-1.4601,1.9638,-1.7257,-1.5851,-1.6100], a=0.97, v=1.1)
  movej([-0.0267,-1.4991,2.0074,-1.7301,-1.5799,-1.5959], a=0.97, v=1.1)
  movej([-0.0267,-1.4991,2.0074,-1.7301,-1.5799,-1.5959], a=0.5, v=0.3, r=0.002)
  movej([-0.0267,-1.4881,2.0214,-1.7551,-1.5799,-1.5959], a=0.5, v=0.3, r=0.002)
  movej([-0.0267,-1.4525,2.0608,-1.8301,-1.5799,-1.5959], a=0.5, v=0.3, r=0.002)
  movej([-0.0267,-1.3907,2.1122,-1.9434,-1.5799,-1.5959], a=0.5, v=0.3, r=0.002)
  movej([-0.0267,-1.3436,2.1416,-2.0199,-1.5799,-1.5959], a=0.5, v=0.3, r=0.002)
  movej([-0.0316,-1.3265,2.1545,-2.0499,-1.5816,-1.6005], a=0.5, v=0.3, r=0.002)
  movej([-0.0437,-1.3265,2.1553,-2.0508,-1.5857,-1.6118], a=0.5, v=0.3, r=0.002)
  movej([-0.0297,-1.3214,2.1480,-2.0485,-1.5810,-1.5987], a=0.5, v=0.3, r=0.002)
  movej([-0.0267,-1.3235,2.1509,-2.0493,-1.5799,-1.5959], a=0.5, v=0.3)
  movej([-0.0267,-1.4982,2.0064,-1.7300,-1.5799,-1.5959], a=0.97, v=1.1)
  movej([-0.0202,-1.6307,2.1399,-1.7311,-1.5777,-1.5898], a=0.97, v=1.1)
  movej([-0.0202,-1.6307,2.1399,-1.7311,-1.5777,-1.5898], a=0.5, v=0.3, r=0.002)
  movej([-0.0202,-1.6197,2.1539,-1.7561,-1.5777,-1.5898], a=0.5, v=0.3, r=0.002)
  movej([-0.0202,-1.5841,2.1934,-1.8311,-1.5777,-1.5898], a=0.5, v=0.3, r=0.002)
  movej([-0.0202,-1.5196,2.2478,-1.9501,-1.5777,-1.5898], a=0.5, v=0.3, r=0.002)
  movej([-0.0202,-1.4641,2.2828,-2.0405,-1.5777,-1.5898], a=0.5, v=0.3, r=0.002)
  movej([-0.0202,-1.4377,2.2969,-2.0809,-1.5777,-1.5898], a=0.5, v=0.3, r=0.002)
  movej([-0.0209,-1.4369,2.3013,-2.0862,-1.5779,-1.5904], a=0.5, v=0.3, r=0.002)
  movej([-0.0193,-1.4341,2.2979,-2.0855,-1.5774,-1.5889], a=0.5, v=0.3)
  movej([-0.0193,-1.6302,2.1395,-1.7311,-1.5774,-1.5889], a=0.97, v=1.1)
  movej([-0.0055,-1.6248,2.1345,-1.7314,-1.5727,-1.5759], a=0.97, v=1.1)
  movej([-0.0055,-1.6248,2.1345,-1.7314,-1.5727,-1.5759], a=0.5, v=0.3, r=0.002)
  movej([-0.0055,-1.6138,2.1485,-1.7564,-1.5727,-1.5759], a=0.5, v=0.3, r=0.002)
  movej([-0.0055,-1.5782,2.1879,-1.8314,-1.5727,-1.5759], a=0.5, v=0.3, r=0.002)
  movej([-0.0055,-1.5137,2.2423,-1.9503,-1.5727,-1.5759], a=0.5, v=0.3, r=0.002)
  movej([-0.0055,-1.4584,2.2771,-2.0404,-1.5727,-1.5759], a=0.5, v=0.3, r=0.002)
  movej([-0.0055,-1.4322,2.2909,-2.0804,-1.5727,-1.5759], a=0.5, v=0.3, r=0.002)
  movej([-0.0202,-1.4258,2.2875,-2.0835,-1.5777,-1.5898], a=0.5, v=0.3, r=0.002)
  movej([-0.0315,-1.4182,2.2779,-2.0817,-1.5816,-1.6004], a=0.5, v=0.3, r=0.002)
  movej([-0.0180,-1.4298,2.2926,-2.0845,-1.5769,-1.5877], a=0.5, v=0.3, r=0.002)
  movej([-0.0045,-1.4300,2.2927,-2.0844,-1.5723,-1.5750], a=0.5, v=0.3, r=0.002)
  movej([-0.0044,-1.4300,2.2927,-2.0844,-1.5723,-1.5749], a=0.5, v=0.3)
  movej([-0.0044,-1.6252,2.1349,-1.7314,-1.5723,-1.5749], a=0.97, v=1.1)
  movej([-0.0137,-1.6498,2.1573,-1.7293,-1.5755,-1.5836], a=0.97, v=1.1)
  movej([-0.0137,-1.6498,2.1573,-1.7293,-1.5755,-1.5836], a=0.5, v=0.3, r=0.002)
  movej([-0.0137,-1.6388,2.1713,-1.7543,-1.5755,-1.5836], a=0.5, v=0.3, r=0.002)
  movej([-0.0137,-1.6034,2.2109,-1.8293,-1.5755,-1.5836], a=0.5, v=0.3, r=0.002)
  movej([-0.0137,-1.5385,2.2658,-1.9491,-1.5755,-1.5836], a=0.5, v=0.3, r=0.002)
  movej([-0.0137,-1.4816,2.3017,-2.0419,-1.5755,-1.5836], a=0.5, v=0.3, r=0.002)
  movej([-0.0137,-1.4536,2.3165,-2.0846,-1.5755,-1.5836], a=0.5, v=0.3, r=0.002)
  movej([-0.0147,-1.4511,2.3187,-2.0893,-1.5758,-1.5846], a=0.5, v=0.3, r=0.002)
  movej([-0.0257,-1.4711,2.3425,-2.0933,-1.5796,-1.5949], a=0.5, v=0.3, r=0.002)
  movej([-0.0341,-1.4652,2.3356,-2.0923,-1.5825,-1.6029], a=0.5, v=0.3, r=0.002)
  movej([-0.0416,-1.4689,2.3401,-2.0932,-1.5850,-1.6099], a=0.5, v=0.3, r=0.002)
  movej([-0.0436,-1.4859,2.3599,-2.0960,-1.5857,-1.6118], a=0.5, v=0.3, r=0.002)
  movej([-0.0363,-1.4939,2.3691,-2.0971,-1.5832,-1.6049], a=0.5, v=0.3, r=0.002)
  movej([-0.0418,-1.4768,2.3494,-2.0946,-1.5851,-1.6100], a=0.5, v=0.3, r=0.002)
  movej([-0.0294,-1.4778,2.3505,-2.0945,-1.5808,-1.5984], a=0.5, v=0.3, r=0.002)
  movej([-0.0199,-1.4728,2.3446,-2.0935,-1.5776,-1.5895], a=0.5, v=0.3, r=0.002)
  movej([-0.0173,-1.4570,2.3257,-2.0905,-1.5767,-1.5870], a=0.5, v=0.3, r=0.002)
  movej([-0.0137,-1.4514,2.3190,-2.0894,-1.5755,-1.5836], a=0.5, v=0.3)
  movej([-0.0137,-1.6508,2.1582,-1.7292,-1.5755,-1.5836], a=0.97, v=1.1)

  movej([1.0470,-1.5700,1.5700,-1.5700,-1.5700,0.0000], a=0.97, v=1.1)
end