def draw_face():
  set_tcp(p[0.0393,0.0000,-0.1081,0.0000,0.3491,0.0000])

  movej([1.0470,-1.5700,1.5700,-1.5700,-1.5700,0.0000], a=0.97, v=1.1)

  movej([0.0667,-1.6388,2.1477,-1.7313,-1.5480,-1.5081], a=0.97, v=1.1)
  movej([0.0667,-1.6388,2.1477,-1.7313,-1.5480,-1.5081], a=0.5, v=0.3, r=0.002)
  movej([0.0667,-1.6278,2.1617,-1.7563,-1.5480,-1.5081], a=0.5, v=0.3, r=0.002)
  movej([0.0667,-1.5923,2.2012,-1.8313,-1.5480,-1.5081], a=0.5, v=0.3, r=0.002)
  movej([0.0667,-1.5278,2.2556,-1.9503,-1.5480,-1.5081], a=0.5, v=0.3, r=0.002)
  movej([0.0667,-1.4724,2.2906,-2.0406,-1.5480,-1.5081], a=0.5, v=0.3, r=0.002)
  movej([0.0655,-1.4457,2.3054,-2.0821,-1.5484,-1.5093], a=0.5, v=0.3, r=0.002)
  movej([0.0401,-1.4497,2.3171,-2.0894,-1.5571,-1.5331], a=0.5, v=0.3, r=0.002)
  movej([-0.0216,-1.4671,2.3379,-2.0926,-1.5782,-1.5911], a=0.5, v=0.3, r=0.002)
  movej([-0.0655,-1.4681,2.3394,-2.0937,-1.5932,-1.6324], a=0.5, v=0.3, r=0.002)
  movej([-0.0893,-1.4600,2.3300,-2.0931,-1.6013,-1.6548], a=0.5, v=0.3, r=0.002)
  movej([-0.1071,-1.4901,2.3655,-2.0990,-1.6073,-1.6714], a=0.5, v=0.3, r=0.002)
  movej([-0.1511,-1.5667,2.4490,-2.1077,-1.6223,-1.7129], a=0.5, v=0.3, r=0.002)
  movej([-0.1962,-1.6401,2.5197,-2.1075,-1.6375,-1.7555], a=0.5, v=0.3, r=0.002)
  movej([-0.2291,-1.6677,2.5445,-2.1070,-1.6486,-1.7865], a=0.5, v=0.3, r=0.002)
  movej([-0.2173,-1.6594,2.5371,-2.1070,-1.6446,-1.7753], a=0.5, v=0.3, r=0.002)
  movej([-0.1768,-1.6090,2.4908,-2.1086,-1.6310,-1.7371], a=0.5, v=0.3, r=0.002)
  movej([-0.1258,-1.5223,2.4019,-2.1039,-1.6137,-1.6890], a=0.5, v=0.3, r=0.002)
  movej([-0.0959,-1.4691,2.3409,-2.0951,-1.6035,-1.6609], a=0.5, v=0.3, r=0.002)
  movej([-0.0814,-1.4596,2.3295,-2.0927,-1.5986,-1.6473], a=0.5, v=0.3, r=0.002)
  movej([-0.0487,-1.4703,2.3418,-2.0936,-1.5874,-1.6165], a=0.5, v=0.3, r=0.002)
  movej([0.0007,-1.4593,2.3285,-2.0910,-1.5705,-1.5701], a=0.5, v=0.3, r=0.002)
  movej([0.0407,-1.4503,2.3178,-2.0895,-1.5569,-1.5325], a=0.5, v=0.3, r=0.002)
  movej([0.0574,-1.4393,2.3046,-2.0875,-1.5512,-1.5169], a=0.5, v=0.3, r=0.002)
  movej([0.0657,-1.4417,2.3076,-2.0883,-1.5483,-1.5090], a=0.5, v=0.3, r=0.002)
  movej([0.0658,-1.4417,2.3076,-2.0883,-1.5483,-1.5090], a=0.5, v=0.3)
  movej([0.0658,-1.6393,2.1481,-1.7312,-1.5483,-1.5090], a=0.97, v=1.1)
  movej([0.0778,-1.5804,2.0924,-1.7346,-1.5442,-3.0684], a=0.97, v=1.1)
  movej([0.0778,-1.5804,2.0924,-1.7346,-1.5442,-3.0684], a=0.5, v=0.3, r=0.002)
  movej([0.0778,-1.5694,2.1063,-1.7596,-1.5442,-3.0684], a=0.5, v=0.3, r=0.002)
  movej([0.0778,-1.5337,2.1457,-1.8346,-1.5442,-3.0684], a=0.5, v=0.3, r=0.002)
  movej([0.0778,-1.4701,2.1989,-1.9515,-1.5442,-3.0684], a=0.5, v=0.3, r=0.002)
  movej([0.0778,-1.4180,2.2315,-2.0361,-1.5442,-3.0684], a=0.5, v=0.3, r=0.002)
  movej([0.0775,-1.3959,2.2455,-2.0723,-1.5443,-3.0688], a=0.5, v=0.3, r=0.002)
  movej([0.0689,-1.4115,2.2697,-2.0808,-1.5473,-3.0769], a=0.5, v=0.3, r=0.002)
  movej([0.0647,-1.4092,2.2668,-2.0800,-1.5487,-3.0808], a=0.5, v=0.3, r=0.002)
  movej([0.0563,-1.3991,2.2538,-2.0769,-1.5515,-3.0887], a=0.5, v=0.3, r=0.002)
  movej([0.0454,-1.4029,2.2585,-2.0777,-1.5553,-3.0990], a=0.5, v=0.3, r=0.002)
  movej([0.0444,-1.3901,2.2418,-2.0737,-1.5556,-3.0998], a=0.5, v=0.3, r=0.002)
  movej([0.0481,-1.3980,2.2522,-2.0763,-1.5543,-3.0963], a=0.5, v=0.3, r=0.002)
  movej([0.0633,-1.3888,2.2404,-2.0739,-1.5492,-3.0821], a=0.5, v=0.3, r=0.002)
  movej([0.0673,-1.4007,2.2558,-2.0776,-1.5478,-3.0783], a=0.5, v=0.3, r=0.002)
  movej([0.0735,-1.4044,2.2608,-2.0790,-1.5457,-3.0726], a=0.5, v=0.3, r=0.002)
  movej([0.0778,-1.3915,2.2441,-2.0753,-1.5442,-3.0685], a=0.5, v=0.3)
  movej([0.0778,-1.5795,2.0915,-1.7347,-1.5442,-3.0685], a=0.97, v=1.1)
  movej([0.0254,-1.5836,2.0951,-1.7334,-1.5621,0.0239], a=0.97, v=1.1)
  movej([0.0254,-1.5836,2.0951,-1.7334,-1.5621,0.0239], a=0.5, v=0.3, r=0.002)
  movej([0.0254,-1.5725,2.1091,-1.7584,-1.5621,0.0239], a=0.5, v=0.3, r=0.002)
  movej([0.0254,-1.5369,2.1484,-1.8334,-1.5621,0.0239], a=0.5, v=0.3, r=0.002)
  movej([0.0254,-1.4734,2.2016,-1.9501,-1.5621,0.0239], a=0.5, v=0.3, r=0.002)
  movej([0.0254,-1.4216,2.2341,-2.0344,-1.5621,0.0239], a=0.5, v=0.3, r=0.002)
  movej([0.0240,-1.4003,2.2502,-2.0717,-1.5626,0.0225], a=0.5, v=0.3, r=0.002)
  movej([0.0119,-1.4194,2.2794,-2.0817,-1.5667,0.0112], a=0.5, v=0.3, r=0.002)
  movej([0.0113,-1.4204,2.2807,-2.0820,-1.5669,0.0106], a=0.5, v=0.3, r=0.002)
  movej([0.0200,-1.4021,2.2574,-2.0770,-1.5640,0.0188], a=0.5, v=0.3, r=0.002)
  movej([0.0090,-1.4054,2.2615,-2.0779,-1.5677,0.0084], a=0.5, v=0.3, r=0.002)
  movej([0.0236,-1.3951,2.2483,-2.0750,-1.5627,0.0222], a=0.5, v=0.3, r=0.002)
  movej([0.0245,-1.3945,2.2475,-2.0748,-1.5624,0.0230], a=0.5, v=0.3)
  movej([0.0245,-1.5829,2.0945,-1.7334,-1.5624,0.0230], a=0.97, v=1.1)
  movej([0.0090,-1.5672,2.0788,-1.7333,-1.5677,-1.5623], a=0.97, v=1.1)
  movej([0.0090,-1.5672,2.0788,-1.7333,-1.5677,-1.5623], a=0.5, v=0.3, r=0.002)
  movej([0.0090,-1.5562,2.0928,-1.7583,-1.5677,-1.5623], a=0.5, v=0.3, r=0.002)
  movej([0.0090,-1.5205,2.1321,-1.8333,-1.5677,-1.5623], a=0.5, v=0.3, r=0.002)
  movej([0.0090,-1.4570,2.1851,-1.9499,-1.5677,-1.5623], a=0.5, v=0.3, r=0.002)
  movej([0.0090,-1.4053,2.2174,-2.0339,-1.5677,-1.5623], a=0.5, v=0.3, r=0.002)
  movej([0.0088,-1.3833,2.2300,-2.0684,-1.5678,-1.5625], a=0.5, v=0.3, r=0.002)
  movej([0.0029,-1.3902,2.2417,-2.0733,-1.5698,-1.5681], a=0.5, v=0.3, r=0.002)
  movej([0.0089,-1.3859,2.2361,-2.0720,-1.5677,-1.5624], a=0.5, v=0.3, r=0.002)
  movej([0.0099,-1.3810,2.2296,-2.0704,-1.5674,-1.5615], a=0.5, v=0.3)
  movej([0.0099,-1.5668,2.0784,-1.7333,-1.5674,-1.5615], a=0.97, v=1.1)
  movej([0.0025,-1.6033,2.1142,-1.7326,-1.5699,-3.1392], a=0.97, v=1.1)
  movej([0.0025,-1.6033,2.1142,-1.7326,-1.5699,-3.1392], a=0.5, v=0.3, r=0.002)
  movej([0.0025,-1.5923,2.1282,-1.7576,-1.5699,-3.1392], a=0.5, v=0.3, r=0.002)
  movej([0.0025,-1.5567,2.1676,-1.8326,-1.5699,-3.1392], a=0.5, v=0.3, r=0.002)
  movej([0.0025,-1.4924,2.2216,-1.9509,-1.5699,-3.1392], a=0.5, v=0.3, r=0.002)
  movej([0.0025,-1.4380,2.2557,-2.0394,-1.5699,-3.1392], a=0.5, v=0.3, r=0.002)
  movej([0.0025,-1.4128,2.2689,-2.0778,-1.5699,-3.1392], a=0.5, v=0.3, r=0.002)
  movej([0.0025,-1.4116,2.2695,-2.0796,-1.5699,-3.1392], a=0.5, v=0.3)
  movej([0.0025,-1.6043,2.1151,-1.7326,-1.5699,-3.1392], a=0.97, v=1.1)
  movej([-0.0873,-1.6440,2.1526,-1.7316,-1.6006,-1.6529], a=0.97, v=1.1)
  movej([-0.0873,-1.6440,2.1526,-1.7316,-1.6006,-1.6529], a=0.5, v=0.3, r=0.002)
  movej([-0.0873,-1.6330,2.1666,-1.7566,-1.6006,-1.6529], a=0.5, v=0.3, r=0.002)
  movej([-0.0873,-1.5975,2.2061,-1.8316,-1.6006,-1.6529], a=0.5, v=0.3, r=0.002)
  movej([-0.0873,-1.5326,2.2609,-1.9512,-1.6006,-1.6529], a=0.5, v=0.3, r=0.002)
  movej([-0.0873,-1.4761,2.2965,-2.0434,-1.6006,-1.6529], a=0.5, v=0.3, r=0.002)
  movej([-0.0874,-1.4483,2.3111,-2.0857,-1.6006,-1.6529], a=0.5, v=0.3, r=0.002)
  movej([-0.1002,-1.4360,2.3011,-2.0884,-1.6050,-1.6650], a=0.5, v=0.3, r=0.002)
  movej([-0.0979,-1.4370,2.3023,-2.0886,-1.6042,-1.6628], a=0.5, v=0.3, r=0.002)
  movej([-0.0872,-1.4445,2.3114,-2.0898,-1.6006,-1.6528], a=0.5, v=0.3)
  movej([-0.0872,-1.6428,2.1516,-1.7317,-1.6006,-1.6528], a=0.97, v=1.1)
  movej([-0.0986,-1.6605,2.1675,-1.7303,-1.6045,-3.1296], a=0.97, v=1.1)
  movej([-0.0986,-1.6605,2.1675,-1.7303,-1.6045,-3.1296], a=0.5, v=0.3, r=0.002)
  movej([-0.0987,-1.6514,2.1795,-1.7515,-1.6045,-3.1361], a=0.5, v=0.3, r=0.002)
  movej([-0.0987,-1.6492,2.1824,-1.7565,-1.6045,-3.1377], a=0.5, v=0.3)
  movej([-0.0987,-1.6492,2.1824,-1.7565,-1.6045,-3.1377], a=0.97, v=1.1)
  movej([-0.0639,-1.5147,2.0245,-1.7322,-1.5926,-0.0601], a=0.97, v=1.1)
  movej([-0.0639,-1.5147,2.0245,-1.7322,-1.5926,-0.0601], a=0.5, v=0.3, r=0.002)
  movej([-0.0639,-1.5037,2.0385,-1.7572,-1.5926,-0.0601], a=0.5, v=0.3, r=0.002)
  movej([-0.0639,-1.4680,2.0778,-1.8322,-1.5926,-0.0601], a=0.5, v=0.3, r=0.002)
  movej([-0.0639,-1.4057,2.1296,-1.9464,-1.5926,-0.0601], a=0.5, v=0.3, r=0.002)
  movej([-0.0639,-1.3573,2.1598,-2.0248,-1.5926,-0.0601], a=0.5, v=0.3, r=0.002)
  movej([-0.0645,-1.3371,2.1687,-2.0541,-1.5929,-0.0607], a=0.5, v=0.3, r=0.002)
  movej([-0.0792,-1.3335,2.1656,-2.0548,-1.5979,-0.0745], a=0.5, v=0.3, r=0.002)
  movej([-0.1148,-1.3508,2.1901,-2.0632,-1.6100,-0.1079], a=0.5, v=0.3, r=0.002)
  movej([-0.1198,-1.3554,2.1965,-2.0651,-1.6117,-0.1126], a=0.5, v=0.3, r=0.002)
  movej([-0.0870,-1.3374,2.1710,-2.0566,-1.6005,-0.0817], a=0.5, v=0.3, r=0.002)
  movej([-0.0674,-1.3353,2.1679,-2.0550,-1.5938,-0.0634], a=0.5, v=0.3, r=0.002)
  movej([-0.0796,-1.3547,2.1948,-2.0629,-1.5980,-0.0748], a=0.5, v=0.3, r=0.002)
  movej([-0.0799,-1.3559,2.1964,-2.0633,-1.5981,-0.0751], a=0.5, v=0.3, r=0.002)
  movej([-0.0632,-1.3380,2.1716,-2.0559,-1.5924,-0.0594], a=0.5, v=0.3, r=0.002)
  movej([-0.0630,-1.3378,2.1713,-2.0559,-1.5923,-0.0592], a=0.5, v=0.3)
  movej([-0.0630,-1.5154,2.0252,-1.7322,-1.5923,-0.0592], a=0.97, v=1.1)
  movej([-0.0482,-1.4976,2.0059,-1.7303,-1.5873,-1.6161], a=0.97, v=1.1)
  movej([-0.0482,-1.4976,2.0059,-1.7303,-1.5873,-1.6161], a=0.5, v=0.3, r=0.002)
  movej([-0.0482,-1.4867,2.0199,-1.7553,-1.5873,-1.6161], a=0.5, v=0.3, r=0.002)
  movej([-0.0482,-1.4510,2.0593,-1.8303,-1.5873,-1.6161], a=0.5, v=0.3, r=0.002)
  movej([-0.0482,-1.3890,2.1108,-1.9440,-1.5873,-1.6161], a=0.5, v=0.3, r=0.002)
  movej([-0.0482,-1.3414,2.1405,-2.0212,-1.5873,-1.6161], a=0.5, v=0.3, r=0.002)
  movej([-0.0500,-1.3242,2.1518,-2.0497,-1.5879,-1.6178], a=0.5, v=0.3, r=0.002)
  movej([-0.0574,-1.3211,2.1478,-2.0489,-1.5904,-1.6247], a=0.5, v=0.3, r=0.002)
  movej([-0.0489,-1.3238,2.1515,-2.0498,-1.5875,-1.6168], a=0.5, v=0.3, r=0.002)
  movej([-0.0473,-1.3227,2.1499,-2.0493,-1.5870,-1.6153], a=0.5, v=0.3)
  movej([-0.0474,-1.4973,2.0055,-1.7303,-1.5870,-1.6153], a=0.97, v=1.1)
  movej([0.0301,-1.4421,1.9429,-1.7227,-1.5605,-3.1133], a=0.97, v=1.1)
  movej([0.0301,-1.4421,1.9429,-1.7227,-1.5605,-3.1133], a=0.5, v=0.3, r=0.002)
  movej([0.0301,-1.4312,1.9570,-1.7477,-1.5605,-3.1133], a=0.5, v=0.3, r=0.002)
  movej([0.0301,-1.3957,1.9965,-1.8227,-1.5605,-3.1133], a=0.5, v=0.3, r=0.002)
  movej([0.0301,-1.3355,2.0468,-1.9332,-1.5605,-3.1133], a=0.5, v=0.3, r=0.002)
  movej([0.0301,-1.2917,2.0742,-2.0044,-1.5605,-3.1133], a=0.5, v=0.3, r=0.002)
  movej([0.0238,-1.2815,2.0903,-2.0306,-1.5627,-3.1192], a=0.5, v=0.3, r=0.002)
  movej([0.0042,-1.2975,2.1137,-2.0379,-1.5693,-3.1376], a=0.5, v=0.3, r=0.002)
  movej([0.0040,-1.2977,2.1139,-2.0380,-1.5694,-3.1378], a=0.5, v=0.3)
  movej([0.0301,-1.4411,1.9418,-1.7225,-1.5605,-3.1133], a=0.97, v=1.1)
  movej([0.0667,-1.4413,1.9422,-1.7234,-1.5480,0.0627], a=0.97, v=1.1)
  movej([0.0667,-1.4413,1.9422,-1.7234,-1.5480,0.0627], a=0.5, v=0.3, r=0.002)
  movej([0.0667,-1.4304,1.9563,-1.7484,-1.5480,0.0627], a=0.5, v=0.3, r=0.002)
  movej([0.0667,-1.3949,1.9958,-1.8234,-1.5480,0.0627], a=0.5, v=0.3, r=0.002)
  movej([0.0667,-1.3349,2.0459,-1.9334,-1.5480,0.0627], a=0.5, v=0.3, r=0.002)
  movej([0.0667,-1.2917,2.0730,-2.0037,-1.5480,0.0627], a=0.5, v=0.3, r=0.002)
  movej([0.0657,-1.2728,2.0769,-2.0265,-1.5483,0.0617], a=0.5, v=0.3, r=0.002)
  movej([0.0552,-1.2661,2.0676,-2.0238,-1.5519,0.0519], a=0.5, v=0.3, r=0.002)
  movej([0.0219,-1.2842,2.0942,-2.0319,-1.5633,0.0206], a=0.5, v=0.3, r=0.002)
  movej([0.0112,-1.2978,2.1141,-2.0380,-1.5670,0.0105], a=0.5, v=0.3, r=0.002)
  movej([0.0358,-1.2891,2.1016,-2.0344,-1.5585,0.0337], a=0.5, v=0.3, r=0.002)
  movej([0.0664,-1.2763,2.0830,-2.0291,-1.5481,0.0624], a=0.5, v=0.3, r=0.002)
  movej([0.0667,-1.2762,2.0828,-2.0291,-1.5480,0.0627], a=0.5, v=0.3)
  movej([0.0667,-1.4421,1.9432,-1.7235,-1.5480,0.0627], a=0.97, v=1.1)
  movej([0.1457,-1.4027,1.8973,-1.7198,-1.5211,-1.4337], a=0.97, v=1.1)
  movej([0.1457,-1.4027,1.8973,-1.7198,-1.5211,-1.4337], a=0.5, v=0.3, r=0.002)
  movej([0.1457,-1.3918,1.9115,-1.7448,-1.5211,-1.4337], a=0.5, v=0.3, r=0.002)
  movej([0.1457,-1.3564,1.9511,-1.8198,-1.5211,-1.4337], a=0.5, v=0.3, r=0.002)
  movej([0.1457,-1.2973,2.0005,-1.9284,-1.5211,-1.4337], a=0.5, v=0.3, r=0.002)
  movej([0.1457,-1.2557,2.0266,-1.9960,-1.5211,-1.4337], a=0.5, v=0.3, r=0.002)
  movej([0.1396,-1.2453,2.0377,-2.0173,-1.5232,-1.4395], a=0.5, v=0.3, r=0.002)
  movej([0.1191,-1.2466,2.0393,-2.0167,-1.5301,-1.4588], a=0.5, v=0.3, r=0.002)
  movej([0.0845,-1.2600,2.0589,-2.0218,-1.5419,-1.4914], a=0.5, v=0.3, r=0.002)
  movej([0.0656,-1.2676,2.0700,-2.0249,-1.5484,-1.5092], a=0.5, v=0.3, r=0.002)
  movej([0.0498,-1.2672,2.0692,-2.0242,-1.5538,-1.5239], a=0.5, v=0.3, r=0.002)
  movej([0.0381,-1.2545,2.0501,-2.0176,-1.5578,-1.5350], a=0.5, v=0.3, r=0.002)
  movej([0.0049,-1.2398,2.0277,-2.0097,-1.5691,-1.5662], a=0.5, v=0.3, r=0.002)
  movej([-0.0424,-1.2400,2.0282,-2.0102,-1.5853,-1.6106], a=0.5, v=0.3, r=0.002)
  movej([-0.0731,-1.2364,2.0229,-2.0092,-1.5958,-1.6395], a=0.5, v=0.3, r=0.002)
  movej([-0.0934,-1.2103,1.9829,-1.9957,-1.6027,-1.6586], a=0.5, v=0.3, r=0.002)
  movej([-0.1150,-1.1743,1.9262,-1.9758,-1.6101,-1.6789], a=0.5, v=0.3, r=0.002)
  movej([-0.1366,-1.1579,1.9002,-1.9671,-1.6174,-1.6992], a=0.5, v=0.3, r=0.002)
  movej([-0.1195,-1.1706,1.9204,-1.9738,-1.6116,-1.6831], a=0.5, v=0.3, r=0.002)
  movej([-0.0949,-1.2061,1.9764,-1.9934,-1.6032,-1.6600], a=0.5, v=0.3, r=0.002)
  movej([-0.0790,-1.2370,2.0239,-2.0097,-1.5978,-1.6451], a=0.5, v=0.3, r=0.002)
  movej([-0.0749,-1.2692,2.0726,-2.0260,-1.5964,-1.6412], a=0.5, v=0.3, r=0.002)
  movej([-0.0680,-1.2904,2.1037,-2.0358,-1.5940,-1.6347], a=0.5, v=0.3, r=0.002)
  movej([-0.0428,-1.2823,2.0916,-2.0313,-1.5854,-1.6110], a=0.5, v=0.3, r=0.002)
  movej([-0.0209,-1.2743,2.0796,-2.0272,-1.5780,-1.5905], a=0.5, v=0.3, r=0.002)
  movej([-0.0246,-1.2949,2.1099,-2.0368,-1.5792,-1.5939], a=0.5, v=0.3, r=0.002)
  movej([-0.0256,-1.3098,2.1314,-2.0435,-1.5796,-1.5949], a=0.5, v=0.3, r=0.002)
  movej([-0.0012,-1.3001,2.1175,-2.0391,-1.5712,-1.5719], a=0.5, v=0.3, r=0.002)
  movej([0.0104,-1.2997,2.1169,-2.0389,-1.5672,-1.5610], a=0.5, v=0.3, r=0.002)
  movej([0.0398,-1.2891,2.1015,-2.0344,-1.5572,-1.5334], a=0.5, v=0.3, r=0.002)
  movej([0.0715,-1.2765,2.0833,-2.0294,-1.5464,-1.5036], a=0.5, v=0.3, r=0.002)
  movej([0.0725,-1.2837,2.0940,-2.0328,-1.5460,-1.5026], a=0.5, v=0.3, r=0.002)
  movej([0.0872,-1.2855,2.0968,-2.0343,-1.5410,-1.4888], a=0.5, v=0.3, r=0.002)
  movej([0.0922,-1.3103,2.1328,-2.0456,-1.5393,-1.4841], a=0.5, v=0.3, r=0.002)
  movej([0.0902,-1.3245,2.1530,-2.0515,-1.5400,-1.4860], a=0.5, v=0.3, r=0.002)
  movej([0.0927,-1.3055,2.1259,-2.0435,-1.5391,-1.4836], a=0.5, v=0.3, r=0.002)
  movej([0.0858,-1.2802,2.0891,-2.0317,-1.5415,-1.4901], a=0.5, v=0.3, r=0.002)
  movej([0.1055,-1.2708,2.0753,-2.0281,-1.5348,-1.4716], a=0.5, v=0.3, r=0.002)
  movej([0.1098,-1.2687,2.0724,-2.0274,-1.5333,-1.4676], a=0.5, v=0.3, r=0.002)
  movej([0.0783,-1.2752,2.0815,-2.0290,-1.5440,-1.4972], a=0.5, v=0.3, r=0.002)
  movej([0.0730,-1.2679,2.0706,-2.0253,-1.5459,-1.5022], a=0.5, v=0.3, r=0.002)
  movej([0.1024,-1.2496,2.0435,-2.0174,-1.5358,-1.4745], a=0.5, v=0.3, r=0.002)
  movej([0.1318,-1.2460,2.0387,-2.0172,-1.5258,-1.4469], a=0.5, v=0.3, r=0.002)
  movej([0.1466,-1.2428,2.0342,-2.0166,-1.5208,-1.4329], a=0.5, v=0.3)
  movej([0.1466,-1.4030,1.8977,-1.7199,-1.5208,-1.4329], a=0.97, v=1.1)
  movej([0.1452,-1.4577,1.9624,-1.7298,-1.5213,-3.0051], a=0.97, v=1.1)
  movej([0.1452,-1.4577,1.9624,-1.7298,-1.5213,-3.0051], a=0.5, v=0.3, r=0.002)
  movej([0.1452,-1.4468,1.9764,-1.7548,-1.5213,-3.0051], a=0.5, v=0.3, r=0.002)
  movej([0.1452,-1.4111,2.0158,-1.8298,-1.5213,-3.0051], a=0.5, v=0.3, r=0.002)
  movej([0.1452,-1.3508,2.0660,-1.9404,-1.5213,-3.0051], a=0.5, v=0.3, r=0.002)
  movej([0.1452,-1.3069,2.0934,-2.0116,-1.5213,-3.0051], a=0.5, v=0.3, r=0.002)
  movej([0.1443,-1.2859,2.0968,-2.0360,-1.5216,-3.0059], a=0.5, v=0.3, r=0.002)
  movej([0.1339,-1.2712,2.0765,-2.0300,-1.5251,-3.0157], a=0.5, v=0.3, r=0.002)
  movej([0.1361,-1.2731,2.0795,-2.0311,-1.5244,-3.0136], a=0.5, v=0.3, r=0.002)
  movej([0.1459,-1.2884,2.1023,-2.0390,-1.5210,-3.0043], a=0.5, v=0.3, r=0.002)
  movej([0.1461,-1.2893,2.1035,-2.0394,-1.5210,-3.0042], a=0.5, v=0.3)
  movej([0.1461,-1.4580,1.9628,-1.7299,-1.5210,-3.0042], a=0.97, v=1.1)

  movej([1.0470,-1.5700,1.5700,-1.5700,-1.5700,0.0000], a=0.97, v=1.1)
end